<?xml version="1.0" encoding="UTF-8"?>
<map version="1.10" tiledversion="1.11.2" orientation="orthogonal" renderorder="right-down" width="80" height="80" tilewidth="16" tileheight="16" infinite="0" nextlayerid="54" nextobjectid="1025">
 <tileset firstgid="1" source="../Tilesets/Tileset_Fence_1.tsx"/>
 <tileset firstgid="37" source="../Tilesets/Tileset_Ground.tsx"/>
 <tileset firstgid="4597" source="../Tilesets/Tileset_Road.tsx"/>
 <tileset firstgid="5605" source="../Tilesets/Tileset_Sand.tsx"/>
 <tileset firstgid="8485" source="../Tilesets/Tileset_Shadow.tsx"/>
 <tileset firstgid="8533" source="../Tilesets/Tileset_TallGrass.tsx"/>
 <tileset firstgid="8833" source="../Tilesets/Tileset_Water.tsx"/>
 <tileset firstgid="9145" source="../Tilesets/Atlas_Trees_Bushes_Desert.tsx"/>
 <tileset firstgid="16025" source="../Tilesets/Animation_Waterfall.tsx"/>
 <tileset firstgid="16181" source="../Tilesets/Atlas_Buildings_Desert_Blue.tsx"/>
 <tileset firstgid="33869" source="../Tilesets/Animation_Banner_1_Desert.tsx"/>
 <tileset firstgid="34573" source="../Tilesets/Animation_Flowers.tsx"/>
 <tileset firstgid="35533" source="../Tilesets/Objects_Buildings_Desert.tsx"/>
 <tileset firstgid="36809" source="../Tilesets/Objects_Props_Desert.tsx"/>
 <tileset firstgid="38404" source="../Tilesets/Objects_Rocks_Desert.tsx"/>
 <tileset firstgid="38540" source="../Tilesets/Objects_Trees_Desert.tsx"/>
 <tileset firstgid="38691" source="../Tilesets/Atlas_Props_Desert.tsx"/>
 <tileset firstgid="56580" source="../Tilesets/Atlas_Rocks_Desert.tsx"/>
 <tileset firstgid="59604" source="../Tilesets/Tileset_RockSlope_2_Gray.tsx"/>
 <tileset firstgid="63700" source="../Tilesets/Tileset_Wall_1.tsx"/>
 <tileset firstgid="63736" source="../Tilesets/Objects_Shadows.tsx"/>
 <layer id="45" name="Sand" width="80" height="80">
  <data encoding="csv">
5993,6037,6038,6038,5993,5990,5994,5989,6039,6135,5989,5992,5991,5993,6038,6135,5990,6037,5993,5993,6037,6037,5990,5990,5991,6037,6038,5989,5990,6135,6135,5994,5989,6037,5990,5991,5992,5655,5992,6038,6037,6038,5991,6038,6039,6038,5992,6135,6037,6039,5993,5991,5993,5655,5990,5994,5989,6135,5994,6135,6135,6038,6039,5990,5993,5990,5994,5994,5994,5991,5993,5989,6039,5991,6039,5993,5993,6135,5992,5655,
5655,5992,5991,6039,5992,5991,6037,5991,5655,5655,6037,5989,5655,5989,5990,5991,5655,6135,6037,5990,5993,6135,6039,6039,5989,6135,5993,6039,6037,6135,6039,5992,5994,6037,6038,6135,6039,5989,5989,5991,6135,6135,5655,5990,5991,5994,5993,5994,6135,5989,5989,6037,5993,6037,5989,5655,5993,5990,6039,5655,5992,6039,5655,5993,6038,6038,5991,6135,5994,6038,6039,5992,6039,6037,5655,6037,5994,6037,5655,5990,
6037,5990,6037,5992,6037,5994,5994,5655,6135,6038,5992,5992,5993,5990,5993,5655,5993,5991,6135,6135,6135,5991,5992,5993,6038,5991,6135,5994,5993,5993,5994,5992,6135,6039,5991,5992,5991,5990,5992,5994,6038,6135,5992,5993,5989,5993,6038,6135,5993,5991,6039,5994,6038,5989,5993,5993,5990,5993,6039,6135,5989,5990,5991,5994,5993,6135,5992,6039,6037,5994,5991,5994,5993,6039,5991,5993,5991,5989,5989,5993,
6135,6037,6037,5989,5990,5993,5992,5993,6039,6135,5989,6037,5993,5994,6039,6037,6135,5655,5989,5989,5993,6037,5994,5992,5990,6037,5990,5990,5990,5994,5993,5993,5989,5989,5993,5990,6037,5992,5990,6038,5655,5994,6038,5990,6038,6135,5655,6135,6037,5993,5994,6039,6037,5990,6039,6038,5990,5992,5992,6038,6038,5989,6135,6135,6038,6037,5994,5992,5993,5993,5655,5991,5991,5994,5993,5989,6039,5655,6039,5991,
6037,6038,6038,5992,6038,5993,5990,6135,6038,6037,5993,5993,5992,5989,5655,5991,5992,5991,5990,6037,5994,5992,5994,6038,5655,5655,6038,5990,5990,5992,6135,5655,5992,6039,5993,5994,6038,5994,6038,5991,6038,5990,5990,5655,6038,6135,5993,6039,5992,5994,6135,6037,6038,5989,6038,5990,5989,5991,5992,6037,5993,5655,5655,6135,6039,5992,6039,6135,5993,5655,5992,5655,5993,6037,5989,6037,5992,5993,5993,5994,
5989,6039,6135,6037,5655,5991,5994,6038,6038,6037,6037,5993,5989,6135,5990,5655,6037,5990,5994,5991,6039,5991,5991,6039,5989,5989,6038,5992,5993,5994,5989,5655,5992,5993,6038,5992,5655,5992,5992,6039,5655,6135,5990,6039,6038,6135,6039,6039,5993,5994,5994,5994,5655,6135,5994,5991,5994,6037,5992,6135,5994,5994,6037,5989,5994,5991,5655,5655,5990,5655,5990,6037,5990,5655,6039,5993,6038,5989,6037,5993,
5992,5994,5990,5992,5990,6037,5990,6037,5994,5993,5991,5993,5993,5993,6039,6039,6038,5992,5992,5990,5993,5992,6038,5992,5989,5994,5993,6039,6037,5989,6037,6038,5991,5993,5992,5993,5655,6038,6037,6039,6039,6135,5992,6135,6039,5991,5994,6037,5655,6135,5991,6039,6038,5990,6037,6038,5992,5655,6037,6038,5655,5991,6038,5990,5990,6135,6038,5990,5989,5994,6135,6037,5989,5990,5991,5994,5990,6135,6135,5992,
6135,6037,6037,5989,5993,6135,5991,5994,5990,5992,5989,5990,6038,5993,5994,5993,5989,5989,5990,5992,5989,5991,6135,5655,5991,5992,5991,6037,6039,6135,5655,6038,5989,6037,5989,5993,6039,5990,5991,6038,6037,5989,5989,5991,5993,5990,6038,5991,5994,6135,5994,6037,6038,5994,5991,5990,5992,5993,5990,6135,5993,5990,6037,5992,5993,5990,6038,5655,6039,5994,5989,5991,5992,6039,6037,5990,5994,5990,6135,6135,
5994,5991,6039,6135,5989,5992,6037,6039,5989,6135,6039,5655,6038,5990,5994,5655,6037,5992,5990,6037,5655,6038,5989,5991,5992,5991,6039,6135,6135,5989,6135,5989,6039,5989,5989,5993,5993,5993,5991,5990,5992,6037,5991,5989,6037,6039,5990,5990,5989,6038,5994,5991,6135,5994,5989,6038,5992,5994,6038,5655,6135,5655,5989,6135,6135,6135,5989,6037,5992,6038,5991,6037,6039,6038,5655,5990,6038,5992,5991,5990,
6135,6135,6135,5990,5993,5993,5655,5991,5990,5992,5655,6038,5993,5992,5993,5989,5655,5994,6039,5655,5993,5989,6135,5991,5991,5989,5993,5993,6038,6038,5990,6135,5992,6038,6039,5994,5992,5990,6039,5989,6037,5655,6135,5989,5991,5991,5655,6037,5994,6037,6135,5655,5990,5655,5993,5992,5991,5655,5989,6135,5990,5655,5990,5991,6038,5991,5991,6038,5991,6038,5989,6038,5992,5989,6037,5994,5991,5989,5989,5993,
5991,5994,5989,5992,5993,5655,5655,5990,5994,5994,5994,6039,6038,5655,6135,5994,6037,5993,5990,5994,5994,5992,6039,5655,6037,6135,5990,5992,6037,6038,6039,5989,6135,5993,5989,5992,5655,5994,6135,6038,5989,6135,6038,5993,5994,5991,6037,6037,5993,5655,5992,5992,6038,6135,6037,6039,5994,5992,5993,6037,5993,5655,5994,5993,5990,5994,5989,5989,5655,6038,6135,5994,5989,5992,5992,5991,5989,5990,6038,5994,
5989,6037,5991,6135,6135,5994,5990,5992,5991,6135,5990,5655,5655,6135,6135,6135,6039,5991,5991,5993,6037,6037,5994,5994,5655,6037,5990,5655,5993,5990,5989,5990,5990,5993,5655,6039,5994,5993,5655,6038,6038,5990,5994,5991,5991,6037,5990,5994,6038,6039,5989,6038,6038,6037,5994,6037,5991,6039,5990,5994,5655,5994,6039,5989,5992,6039,5655,5990,6039,6135,6135,5992,6038,5991,6135,6037,5993,5991,5655,5989,
5990,5989,5991,6039,5655,5989,5990,5991,5994,5991,6135,6135,5994,5992,5992,5990,6039,5992,5993,5993,5990,6039,5994,6037,5990,5989,6039,5990,5989,6039,5992,6039,6135,6039,6038,5990,6135,5991,6039,6037,5994,5655,5989,6038,6039,5990,5655,5991,5990,5993,6135,6039,6037,6039,5992,6039,5990,5655,6135,5655,6135,6037,5655,5989,5991,5994,5994,5993,5994,6039,5655,5991,5994,5992,6039,6135,5655,5994,5994,5992,
5992,5989,5991,5991,5989,5990,6039,6037,5655,6039,5992,5994,5991,5994,5989,5991,5989,6039,5989,6037,5990,6038,6038,6039,5992,5991,5655,6039,5993,5991,5989,5655,5993,5993,6038,6037,5993,5655,6039,5990,5993,5990,5655,6135,5989,6037,5989,6039,6135,5993,5993,6037,6039,5994,5991,6037,5991,5991,5991,5655,5989,5991,6039,5994,5655,5655,5655,5990,6038,5990,6135,5993,6038,5993,5991,5994,5989,6037,5994,5991,
5991,5993,5993,6037,5989,6037,6038,6038,5992,6037,5655,5992,5991,5797,5703,5798,6037,5991,6135,5993,5655,5655,5655,6038,6038,6037,5991,5991,6038,6039,5989,5992,6037,6037,5655,5991,5992,5989,6037,6039,5994,6039,5993,6038,5994,5989,6135,5990,6039,6039,5991,5992,6135,5994,6135,6037,5990,5994,5655,6037,5989,5989,5991,6037,6038,5994,5992,6037,5993,6039,6038,5989,6037,5989,5991,6038,6038,5993,6039,5989,
5994,6038,5994,5994,5990,5992,5992,5989,5990,6037,5989,5993,5797,5704,0,5654,5992,5992,5993,5989,6037,5990,6037,5991,6135,5994,6037,5655,5991,6037,6038,6038,5989,5990,5991,5993,6039,5994,5993,5993,5991,6038,5993,6037,6037,6037,5655,5990,5655,5992,6135,6135,5994,5990,5989,6135,5655,5992,5991,5992,5993,5994,5992,5991,5991,5993,5994,6135,5655,6037,6037,5990,6135,5993,6135,5992,6135,5655,5991,5655,
5993,5992,5992,5994,5991,5992,5994,5993,5990,6039,5990,6135,5845,5607,5607,5846,5994,5994,6135,5989,5994,5993,5655,6038,5994,6135,5989,6039,6039,5993,6135,5993,5994,5994,6037,5993,6038,5992,5994,5993,6037,6037,5993,5991,6039,6038,6038,5994,6038,6038,6038,6135,5655,6039,5991,5993,6037,6135,5991,5994,5655,6038,5989,6039,5994,5989,5989,6038,5989,6038,6135,5655,6039,6037,5991,5990,6038,5989,5990,6037,
5655,5991,6038,5993,6135,6135,5994,5990,6135,6135,5992,5991,5993,5989,5992,5993,5991,5989,6038,5991,6037,6039,5989,6037,5989,5989,5992,5994,5992,5993,5990,6135,5994,5990,5655,5993,6135,6039,5992,5993,5655,5655,6037,5990,5989,5993,6135,5993,6135,5989,5993,5989,5655,6039,6038,5991,5991,5991,6037,5655,6135,6038,6037,6039,5992,5655,6038,5991,5991,6037,5990,5989,5993,6038,6038,6037,5991,5993,5655,5993,
5989,5655,6038,6038,6135,5993,6038,5990,5991,6037,5994,5993,5989,5989,6135,6039,5655,6135,5991,5989,6037,5989,5990,5994,6038,5993,5655,5989,6039,5990,6039,5993,6038,5992,6135,6037,5992,5990,5991,5991,5994,5989,6039,6037,5655,5989,5991,5994,6135,5990,6037,5990,6039,6037,6037,6135,5990,6135,5991,5989,6038,6038,5990,5994,5655,5994,5993,6039,5993,6038,5994,6039,6039,5989,6037,5990,5655,6037,6135,5989,
5990,5993,6039,5991,5990,6135,5655,6037,5993,5992,5655,5655,5992,5990,6037,5992,6039,5989,5989,5993,5993,5655,5992,6039,6038,5994,5992,6038,5994,6135,5994,5989,6039,5992,6037,6135,6037,5655,5991,5989,5991,6038,5992,5990,5989,5655,6037,5990,5993,5991,5655,6037,5989,6037,5992,5991,6037,6037,5989,6037,5655,6037,5992,5994,5993,5993,5991,5993,6038,5993,5655,5989,5989,6135,5655,6039,5655,5994,5989,5994,
5994,5655,5992,6572,6574,5989,5992,6039,6038,5990,6037,6038,6039,5994,5993,6135,6038,6135,5994,5991,5993,5989,5994,6135,5993,6038,5990,5994,6039,5991,5993,5992,5994,5991,6037,5992,5655,6038,6037,5655,6038,6135,5993,6037,5990,5989,5991,5992,5992,5994,6135,5992,6037,6039,5989,5990,6037,5993,5993,6037,5993,5993,6037,6038,6039,5992,6038,5989,5993,6037,6038,6135,5655,5655,5994,6038,5993,6038,6039,5989,
5994,5991,5989,6620,6811,6573,6574,5992,5655,5993,5991,5655,5993,6039,5989,5991,5989,5991,6038,5992,5993,5655,5990,5991,6038,5992,5655,6039,5993,5655,6037,6135,5994,5991,5994,5993,5990,5993,5994,5992,5992,6038,5655,6037,5994,5990,6037,5989,5990,6038,6038,5992,6135,5989,5992,5655,5989,5989,5994,6039,5994,6135,5993,6135,6039,6038,5991,5655,5994,5993,5990,5990,5994,5994,5990,6039,5991,5994,6135,5989,
6038,5993,6039,6668,6669,6764,6811,6574,5989,5655,6039,5990,5991,6037,5992,5989,6037,5992,5990,5992,5990,6038,6135,5992,5989,5989,5994,5991,6037,6135,5655,5655,5989,5655,6038,5993,5992,5991,5993,5991,5990,5994,6135,6135,6038,5994,6037,6039,6135,5992,5992,5994,6038,5992,5994,6037,5994,6039,6037,6135,6038,5991,5994,6039,6039,6135,5989,5994,6038,5991,5991,5994,6039,5994,6038,6039,5992,6037,6038,5994,
5989,5655,5989,5990,6037,6620,6950,6622,5992,5993,5990,5991,5992,5990,5655,5989,5989,5991,5655,6039,5990,6037,5991,5993,6038,5994,6038,5991,6039,6039,5655,5989,5994,5989,6038,5990,5989,5993,5991,5994,5990,5994,5989,5994,5991,5990,6135,6037,5994,6038,6135,5991,5992,5990,6037,5990,6037,5993,6037,5991,6037,5993,6037,5991,5992,6039,6039,5989,5993,5989,5655,5989,5989,5991,6037,5993,5990,5992,6037,5994,
6039,5992,6039,5992,5989,6620,6999,6622,5994,5994,5993,5991,6135,5990,5989,5994,6135,5989,5993,6037,5994,5989,6038,5992,6038,6037,5989,5993,5989,5990,5655,5989,5991,5991,5992,5990,5990,5990,6037,5655,6038,5991,5991,5990,5993,5993,6037,6039,5990,5989,6135,6038,6135,5993,6039,6039,5994,5993,6037,5989,5994,6037,6038,5991,5993,5989,5991,5993,5991,5994,6038,5991,5992,5991,6037,6037,5993,5993,5992,5992,
5992,5994,6039,5994,5994,6620,6763,6670,6039,5993,6039,5991,5990,6037,5989,5992,5992,6038,5994,6135,6135,5991,6135,5992,6039,5990,6038,5992,5655,6038,5993,5993,5992,5991,5989,5989,5994,5993,6039,6135,5989,6039,5991,6039,5989,6037,6038,6135,5991,5993,6038,5994,5989,5655,6135,5991,5991,6038,6038,5991,5994,6037,6135,5990,5993,6038,5990,5991,5991,5992,6038,6038,6038,5990,6039,5989,5993,5992,5655,6135,
5993,6135,5655,5992,6038,6668,6670,5991,5993,6037,5994,5990,6135,5655,6135,6135,6037,5655,5991,6135,5990,5991,6038,5992,5991,5994,6037,5655,6037,5989,5990,5994,5993,6039,5994,5994,5994,5989,6135,6039,5992,5990,6135,5989,6038,5993,5989,6039,5991,5992,5993,6039,5993,5993,5990,5994,6135,6038,6039,6135,6039,5994,5990,6038,5991,6039,5992,5992,5990,5993,6135,5989,6037,6039,6038,5994,5992,6135,6038,6135,
5994,6037,6039,5991,5992,6039,5989,5992,5990,6038,5989,6039,6038,5990,5655,5989,6135,5655,6039,6135,6038,6135,5991,5655,6037,5994,6135,6037,5993,5655,6135,5989,5992,5993,5991,6038,5994,5990,5655,5993,5992,5655,5994,5994,6037,5994,6135,5655,5992,6135,5990,6038,5994,5993,6037,5993,5992,6039,5991,6135,6038,5992,5990,6037,6037,6037,6039,5655,5989,5991,5994,6037,6037,5990,6039,5992,6135,6135,5989,6135,
6037,6037,5994,5989,5655,5994,5989,6038,5994,5994,5990,6038,5992,6038,5994,5655,5991,5990,6135,6135,5994,6038,5994,5994,6135,6135,6039,5993,5991,5989,5990,6038,5991,6039,5989,5993,5991,5991,6038,5992,6039,5655,5993,6039,5993,6135,5989,6135,5989,6135,5990,5655,6038,5990,6038,6039,6039,6038,6038,6135,6039,6038,6135,5993,5989,6039,6135,5992,5989,6037,5993,6039,6037,5989,5993,5655,5994,5993,5989,5991,
5992,5992,5993,5991,6038,6135,5992,6039,5994,5992,5992,5992,5989,5989,5994,5993,6037,6038,6037,5655,6038,5989,5994,6039,5994,5994,6135,5655,6039,6037,6037,6037,5991,5994,6572,6573,6574,5990,6135,6135,5994,6038,6037,5991,5991,6039,5991,5992,5993,5992,6037,5989,6039,5992,5994,6039,6135,5655,5992,6038,6135,6039,5992,5994,5994,5990,6038,5990,5991,6037,5992,6037,5994,5989,5990,5992,6135,6039,6038,5992,
5992,6038,5989,5992,6135,6038,6037,5991,6135,6135,6039,5992,6135,5991,5991,5994,6037,6039,6039,5990,5989,5994,5990,5991,6038,6039,6135,5994,6037,5989,5989,6038,5655,6572,6812,6952,6622,6038,6037,5990,5991,6039,5655,6038,5993,6039,5994,5989,6038,5994,5992,6135,6037,5992,5991,6135,5990,6037,5655,6038,6038,6135,5990,5994,5655,5989,5655,6039,5655,5655,6135,5990,5991,5993,5655,5992,5992,5992,5993,5992,
5990,5989,6038,6135,5993,6037,5655,5989,5992,5993,6037,6037,6039,5989,5994,5993,6277,6183,6183,6278,5655,5994,6135,5989,6135,6037,6037,6135,5989,6135,5993,6135,6039,6620,6952,6763,6670,5989,5989,5993,5990,6135,5989,5990,5994,6038,6037,5990,6039,5993,5655,5992,5990,6039,5994,5993,5991,5991,5992,6135,5990,5990,5989,5989,6039,5993,6135,5992,6039,5992,5992,6037,5991,5990,6037,5994,5655,5989,5655,5992,
5994,5994,6039,6037,5655,6037,5989,5990,6039,6039,6038,5989,5989,5992,5655,6277,6184,7386,7386,6182,6278,5989,6037,5993,5989,5994,6039,5992,6037,6038,5655,5990,6037,6668,6669,6670,5992,5992,6572,6574,6572,6574,5989,5993,5992,5655,5992,5989,6135,6135,6037,6135,6135,5655,5992,5989,6037,5991,5655,5655,5655,6038,6038,6135,5991,5994,5992,5989,5991,6135,5990,6037,6039,5992,6037,5994,5994,6135,5993,5992,
5994,5990,5991,6037,6038,5655,6039,5994,5989,5993,5989,5992,5655,5989,5993,6136,7386,6426,6426,6426,6134,6039,6038,6037,5991,5990,5990,5990,5993,5993,5990,6037,6572,6574,6037,5994,6039,5992,6620,6811,6812,6811,6574,6038,6037,5993,5992,5655,5989,5992,5993,5991,5655,6037,5991,5990,5655,5991,5992,5989,5990,6039,6135,6038,6037,6038,5990,5990,5655,5655,6037,5989,5991,5994,5992,5993,6135,6038,5655,6037,
5991,6038,5992,5991,6135,5989,5993,5655,6135,5989,5990,5993,5655,6038,6277,6184,6426,6426,6426,6426,6134,6037,5989,5993,5992,5990,5655,6038,5993,6038,5993,6039,6620,6811,6573,6574,5991,5994,6668,6669,6764,6954,6622,5993,5992,5992,5993,6037,6135,6135,5989,6135,5993,5655,5990,5993,6038,6039,6038,6037,6038,6135,5990,5655,5994,5991,5994,5990,5655,5994,6038,5993,6037,5655,6037,5991,6038,5994,6039,5993,
6038,6039,5989,5989,6038,5989,5993,6038,6038,5994,6038,6038,5993,6277,6184,7386,6426,7386,7386,6086,6326,6039,5994,6038,5991,5990,5989,5993,6039,5991,6037,6572,6812,6998,6615,6811,6573,6574,6037,5994,6668,6669,6670,6135,5992,5993,6038,5992,5991,6135,6038,5989,5991,6135,5655,6135,5992,6038,6038,5990,5993,6037,6038,5992,5992,5655,5655,5991,6037,5989,6135,5993,6135,5992,6037,5992,6039,5994,6039,5991,
5991,6039,5993,6135,5993,6039,5993,5994,6135,6038,6039,5994,6038,6136,6426,6426,7386,6086,6087,6326,5994,6135,5990,6039,6039,5993,5989,6039,5989,5992,5993,6620,6621,6621,6615,6949,6621,6811,6574,5991,5655,6038,6039,6037,6038,6039,6135,6038,5655,5655,6037,5991,5989,5991,5989,5991,5990,6039,5992,6135,6037,6135,6038,5989,6037,5994,5991,5989,5993,5989,6039,6038,5994,6135,5992,5991,5991,5992,5655,5990,
5992,5994,5992,6037,6039,5993,5655,5992,5991,5990,5992,5993,5655,6136,6426,6426,6086,6326,6037,5989,5994,6038,5655,6037,5994,5993,5989,5992,6037,6037,5993,6620,6615,6615,6621,6950,6763,6669,6670,5990,5990,6038,5994,6038,5993,5991,5993,5993,5994,5993,6038,6135,6135,5994,5994,5993,5655,6038,5993,6038,5989,5989,6038,6039,5990,6135,6135,5655,5989,5990,5989,6135,6039,6037,6039,5993,5994,5993,5993,5992,
5655,6039,5994,6038,6135,5992,5992,5994,5990,6135,5991,5991,6038,6325,6087,6087,6326,5990,5994,5991,5991,6038,5992,5992,5991,5992,5990,5993,5989,6037,5990,6620,6998,6621,6949,6954,6622,5993,5989,5989,6037,5992,5989,5990,5991,6037,5989,6135,6135,6135,5655,5992,5989,5989,5994,6038,5990,6039,5992,5991,6038,5993,5994,5992,5993,5992,5989,6135,6039,5990,6038,5994,5991,5990,6135,6037,6038,6037,6037,6039,
6038,5994,5994,5990,5994,6135,5989,6039,5655,5989,5992,6039,5994,5994,6039,5990,6037,6039,5990,5655,6038,5994,5990,6039,6039,5990,5989,5655,6038,6135,5655,6668,6669,6669,6669,6669,6670,5989,6037,5993,6039,6039,5655,6038,5991,5994,6037,5992,6039,5993,6038,6037,5991,5991,5990,5655,5991,6037,5655,5989,6135,5991,5994,6135,6135,6037,5994,6135,6039,6039,5992,6038,5990,5992,6037,5993,6038,5992,6039,5990,
5992,6039,6135,5989,5993,6037,5991,6135,5989,5994,5989,6039,5993,5993,5994,5990,5990,5991,6135,5993,5990,5991,5994,5992,5994,5991,6038,6135,5994,5994,5994,5989,5994,5992,5990,5992,5989,6135,5991,6037,6039,6135,5992,6135,6037,6037,5993,5992,5992,5991,5993,6038,5992,6037,5655,5992,5990,5992,5990,5989,6037,5992,5989,6039,5991,6038,6038,5655,5993,5989,5655,5989,5992,6038,5989,6135,5990,6039,5994,5655,
5991,6038,5989,5994,6037,5989,6038,5994,6037,5994,6135,5994,6039,5994,5989,6039,5992,5989,5991,5992,6038,5655,6037,5989,6039,6038,6038,6038,5993,5655,6135,5992,5991,5991,5991,5655,6038,6038,6039,5990,5993,5992,5993,5993,5991,5992,6038,5992,5989,6037,5993,5993,5993,5991,5991,5994,5989,5994,6038,6039,5655,5993,5991,5990,5990,5989,5991,5993,6038,5989,5992,5991,6037,5990,5989,5655,5989,5989,5993,6037,
5989,5989,5994,5994,5989,5991,5655,5655,5655,6037,6038,5991,6135,5989,5993,5993,5992,6039,6037,5990,6037,5993,6039,5992,6039,5991,5991,5655,5991,6039,5989,6037,5991,5993,5994,5992,6135,5991,6038,5993,5994,5994,5993,5990,5992,5991,6039,5993,5991,5993,6135,6038,6039,6135,5655,5993,5993,6135,5991,5989,5655,5989,6135,5993,6039,5655,5655,5990,5989,5993,5990,6038,5655,5655,6135,5989,6038,5990,5991,5655,
6039,5993,6135,5989,6039,6135,5990,5990,5989,5994,5655,5990,6037,5989,6037,5991,6039,5991,5989,5991,5655,5655,6038,6038,6039,5989,6135,6037,5655,5990,5990,6038,6037,5993,5993,6039,5991,5989,6038,5655,5989,5993,5993,6039,6037,5655,5655,6038,5991,5991,5990,5990,6135,6135,6037,6039,6135,6039,5994,5993,6038,5993,5990,5990,5990,5989,6039,5994,5992,5990,5993,5992,6039,6038,5991,5655,5993,5994,6135,6135,
5655,6038,5992,5655,6135,5991,5990,6135,5992,5991,5994,5993,5993,5989,6037,6135,5992,6037,5994,5655,6037,6037,6038,5655,6135,6135,6037,5994,5989,5989,5989,6135,5991,6135,5990,6037,5655,5993,6038,5989,5655,6039,5991,5993,5993,5989,5990,5655,6037,5989,5989,5990,6039,5990,5992,5993,6135,5992,5992,6135,6037,5655,5991,6039,5992,5990,6037,5655,5989,5989,5655,6135,5990,5989,5994,5989,5655,6037,6038,5990,
5991,6135,6038,6038,6135,6039,5991,6038,6135,5990,5989,5991,5989,5993,5992,5991,5989,6039,5992,5993,5992,5994,5991,5994,6039,6039,6038,5994,5992,6038,5993,6039,5655,5991,6038,5989,5992,6135,6039,5992,5991,5993,6038,5994,6135,5994,5994,5655,6135,5991,6037,5992,6037,5991,6039,6039,6039,6038,5994,6039,6039,5989,5990,6039,6135,6038,6135,5993,6037,5989,5989,6135,5990,5655,5989,6039,6037,6039,5992,5655,
5991,6037,5993,5993,5990,5989,5992,6039,5993,5994,5655,6039,5991,6135,5990,5994,6038,5989,5994,5655,5991,5655,5990,5655,5989,5992,5994,6039,5990,6038,5992,5993,5992,6037,5991,5989,5992,5993,5989,6039,5994,5994,6037,5989,5994,5992,5655,5990,5989,6038,5989,5991,5993,5655,5990,5991,5993,6039,6037,6039,5990,6039,5989,5990,6135,5993,5992,5992,5993,5989,6135,5992,5992,5991,6135,6135,5994,5992,6037,6039,
5989,6038,5655,6039,5994,6039,5989,5991,5994,5992,5990,5655,6037,6037,6038,5990,5993,5993,5991,5989,5989,6135,5991,5993,5991,6039,6038,6037,6037,5992,6135,5989,5655,6039,5655,5655,5993,5990,6039,6135,5992,5991,6039,5993,6039,6037,5994,5993,5989,5993,5989,6135,6038,6037,5655,5655,6039,6037,5994,5994,5993,5991,5991,5989,5994,5989,5989,6037,6135,6135,5993,5990,5994,5655,5994,5655,5655,5994,6038,6039,
5989,5992,5655,5992,5993,5992,5994,5989,6038,6037,5655,6135,6135,6135,5991,5989,6038,5989,5989,5993,5992,6135,5993,5994,6135,5990,6039,6135,5992,5992,5990,5989,5655,5991,6039,6037,5990,6038,5990,5992,6038,6039,5990,5991,6037,5655,6135,6039,6038,6039,6039,6038,5992,6039,6037,5990,5989,5991,5993,5989,5994,5994,6037,6038,6038,6038,6135,5655,5991,5994,5993,6038,5990,5993,5994,5990,5655,5993,5994,5655,
5994,5990,6135,5655,6039,6038,5655,5992,5991,6037,6038,5655,6038,5994,5994,5994,6135,5991,5992,6037,5655,6037,6038,5992,5990,5655,5655,6037,6135,5994,5655,6135,5994,5991,6135,5992,6037,5992,6039,5991,6038,5989,5991,5990,5655,5992,5992,6135,6037,5991,5994,5655,5991,5991,5990,5989,6038,6039,6135,5990,6038,5994,5993,6038,5655,5990,6135,5655,5991,5991,5989,5989,5989,5991,5655,5994,6038,6037,6037,6039,
6135,5994,5993,5993,6037,5993,5991,6135,5989,5994,5991,6135,6135,5993,5992,5992,6039,5989,6039,6135,5991,5991,6037,5992,5990,5994,6039,5655,5994,5992,5993,5993,6039,5992,5990,5992,5991,6135,5990,5994,5991,6135,5990,5991,5991,5994,6038,5994,5993,6039,5991,6038,5993,5990,5991,5992,5989,6038,6135,5994,5990,6039,5989,5991,6037,5992,5655,5992,6037,5991,6135,5989,6037,5991,5655,5655,5994,5989,6037,5992,
5989,5991,5990,5993,5991,5993,5991,5994,5990,6135,5991,6038,6039,5991,6135,5992,5989,5991,5989,5990,6038,5989,5994,6039,6037,6135,5993,5994,6039,5994,5992,6038,5993,6037,6037,5655,6037,5993,6135,5989,5994,6037,5992,6135,5993,6135,5655,6037,6135,5989,5655,5991,5655,5991,5990,6135,6038,5993,5989,5990,5990,6039,5991,5994,5994,6037,6135,5994,5655,5990,6037,6037,6037,5990,6038,5992,6135,5655,5990,5989,
5989,6038,6039,6135,5990,5655,5992,5990,5992,5989,6039,5993,6135,5990,5989,6135,5990,5655,6135,6038,5655,5992,5989,5991,6135,6039,6038,5991,5993,5991,5990,6135,6038,6135,6038,5994,6038,6037,5655,5989,5655,6037,5990,5989,5994,5992,5993,6135,5655,5991,6135,5655,6039,5992,6135,5992,5992,5993,5989,6037,6039,5994,6038,5655,6039,5991,5993,6039,6039,5990,6038,5993,6135,6135,6038,6039,5991,5993,5990,6038,
6039,5992,6039,5993,5994,6039,5994,6039,6135,5989,5993,6037,6039,5992,6135,5994,5992,6037,6039,5991,5655,5989,5655,5991,5994,5989,5992,6038,6039,5990,6135,6039,6039,5655,5655,5989,5655,5655,6037,5989,5993,6039,5990,5994,6038,6038,5993,5989,6039,6135,6037,5655,5993,6037,6037,5994,5994,5990,6038,5993,5993,6039,5990,5992,5655,5993,5993,5989,5993,5994,5993,5992,6038,6039,5990,5990,5992,5992,6037,5994,
6038,6135,5655,6038,5993,6039,6039,5993,5989,6135,6037,5990,5994,5993,5994,6039,5989,6039,6039,5993,6039,5989,6135,6039,6039,5992,5994,5989,6037,5994,5991,5991,5989,5990,5992,5989,5989,6038,5994,5655,5989,5655,5655,6135,6038,6037,5991,5989,6037,5990,5989,5655,6135,5990,5991,6039,5655,5991,5993,5992,5990,5994,5989,6038,5994,5993,6039,6039,5655,5994,5992,6135,6135,6135,5989,6039,6037,6135,6038,6039,
5994,5655,6135,6039,6135,6039,6135,5990,6039,5655,6037,6037,5989,6038,6135,5994,5994,6037,6038,6135,6038,5993,5990,6037,5992,5989,5989,6135,5994,5655,6039,6037,5990,5994,5990,5655,5989,5655,5989,5991,6037,5990,5655,5655,6135,5655,5993,5990,6038,6038,6037,5992,6037,6037,5991,5991,6037,5992,5992,6039,5991,5994,6039,5991,6038,6039,5992,5655,5991,5990,6135,5992,6039,5990,5991,6039,5655,6037,5993,5993,
5993,5990,5989,5993,6039,6572,6574,6037,5655,5993,6039,6135,5989,5994,5993,5994,6037,5655,5991,6039,5655,5992,6038,5655,6038,5994,6038,6039,5993,5994,5994,6135,5990,5993,5993,6037,6038,5991,5993,5994,6135,6135,5990,5991,6135,6037,6135,5994,6038,5655,6037,5989,5993,6037,6135,5994,5655,5994,5991,5992,5994,6038,6135,5991,5989,5993,6135,5992,6039,5990,5993,6038,6135,5989,5989,5994,6135,6038,5994,6039,
5992,5992,5993,6135,5993,6620,6811,6574,5993,5990,6135,5655,5990,5994,5991,6038,6038,5994,5994,5655,6038,6039,5991,6039,5655,5990,6039,5655,6135,5991,5989,6135,5990,6038,6038,6037,5989,5994,5990,6037,6037,6037,6039,6037,6038,5991,5989,6135,5992,5993,6037,5989,5992,6039,6135,6038,5994,5994,5655,6037,5992,5994,5989,5990,5990,5992,6039,5990,5989,6038,6038,5991,6037,6037,5991,5989,5990,6037,5993,6037,
5989,5989,5991,5655,6572,6812,6950,6622,6135,6037,6039,6038,6039,5655,5992,6037,5993,5990,6135,5994,5655,5993,5655,6037,5655,6039,5992,5993,6037,5991,5655,6038,5989,6038,5993,5994,5990,6037,5994,6037,6135,5993,6037,6038,6038,5991,5993,5994,6135,6039,5991,6037,5655,5991,5989,5991,5992,5991,6039,6037,5992,5991,5994,5992,5993,5990,5994,6037,5989,5994,5992,6039,6039,5994,5991,5990,6038,6039,5991,5989,
5989,5992,5992,5994,6620,6952,7095,6811,6574,5990,5989,6135,5989,6039,6038,5655,5990,6039,6135,6135,5994,6039,5989,5655,6037,5992,6038,5991,6135,5992,6037,5993,5994,6038,6038,5655,6038,5989,5989,6039,5989,5655,6135,5994,6135,6135,6039,5994,5992,5655,6038,5655,5994,6038,5990,5991,6037,5990,5993,5989,5992,5989,6037,6037,5993,6038,5993,5989,5992,6038,5993,5989,5989,6135,6038,5991,5993,5990,5655,5994,
5991,5994,5993,6135,6620,6998,6999,6997,6622,5992,5994,5992,5994,5993,6038,5993,5993,6037,5991,5991,5655,5993,6039,5990,5991,5655,5993,5992,6037,6037,5992,5993,5655,6135,5993,5655,6037,5991,5994,5989,6038,5994,5993,5991,6135,5990,5994,5655,5989,6037,5989,6037,5993,5991,5989,5994,6037,5989,5993,5994,5993,5994,5990,5655,5992,6135,5992,6038,6037,6038,5989,6037,6037,5990,6135,5655,5994,6038,5990,5989,
6038,5991,5992,6038,6620,6949,6949,6763,6670,6039,6037,5991,5989,5993,5993,5993,5991,5990,6038,5994,5994,5991,6039,5989,5993,6039,5990,6037,5993,6037,5994,6037,5992,6039,6135,5994,6037,6572,6573,6573,6574,5990,5991,6038,6037,5655,6039,6572,6573,6574,5993,5991,5993,5993,6135,5989,6037,5993,5989,5993,5989,5655,5655,5655,5655,6037,6038,5992,5991,6039,5991,6135,5989,5655,5993,5989,5989,5655,5655,5994,
5990,6038,6037,6572,6812,6615,6950,6622,5994,5655,5655,6039,6135,6038,5655,6037,5990,5993,5993,6038,5989,5990,5990,6037,5655,6135,5990,5655,5994,5989,6039,5994,6135,6135,5655,6135,6038,6620,6621,6763,6670,5655,5989,5992,6135,6039,5989,6620,6951,6622,5991,6038,6135,5655,5991,5994,5992,5990,5655,6037,5989,5992,5994,5990,5990,6039,5993,5992,6037,6039,5991,6037,5992,5991,6135,6135,6039,6038,6038,5655,
6038,5989,5992,6620,6951,6763,6669,6670,5655,5993,5992,6039,5989,5991,5991,5993,6037,5992,5990,5991,5989,5990,5994,5993,5990,5994,5990,5994,5992,6037,5655,6037,6037,6038,6037,5993,5990,6668,6669,6670,5994,5990,6038,5992,5655,6037,5655,6668,6669,6670,5989,5989,5993,5992,5993,5994,5993,5990,5994,5655,6037,5994,5991,6038,5989,6038,5993,5992,6135,5989,5992,5989,5655,5993,6039,5993,5989,5990,5655,5994,
6038,5991,5993,6668,6669,6670,6038,5990,5993,6039,6038,5655,5655,6038,5991,6038,5992,5991,5991,5994,6038,6038,5990,5990,5655,5990,5994,5990,5993,5989,5990,6038,5990,5992,6135,5992,5655,6038,5994,6135,6135,5990,6038,6038,6039,6572,6574,5991,6572,6573,6574,6038,5994,5655,5994,6039,5989,5994,6038,5994,5655,5993,5990,6038,5990,6037,5991,6039,6039,5994,5990,6038,5989,5993,6038,6135,5989,5994,5991,6039,
5992,5991,5989,5994,5655,6135,5989,5993,5993,6135,5992,5990,6135,5994,6039,5655,6038,5991,5989,5992,6135,5989,5991,6135,5992,5991,5993,5990,6135,6037,5989,5993,6038,6039,5991,5655,5990,6037,5655,6038,6037,5989,6039,6135,6572,6812,6622,5655,6668,6764,6622,5990,5993,5994,5991,6039,6037,5991,6038,5992,5993,5993,5994,5991,5993,5989,5655,5989,6037,6037,6039,6135,5993,6038,5993,6039,6039,5991,6037,5655,
5994,6039,5992,5989,5655,6039,5993,5992,6037,5991,5994,5992,6038,5990,5992,6135,6039,5989,6037,6037,5993,5990,5655,5655,5992,5990,6037,5655,5991,5993,5992,6038,5993,6038,5991,6038,6135,6039,5993,5655,6572,6573,6573,6574,6668,6764,6622,6038,5991,6668,6670,6039,5992,5992,6038,5655,5989,5990,5989,5992,5994,5994,6135,6038,6038,6039,6039,5993,5993,5989,5991,5991,5993,5989,6038,5989,6039,5991,5990,6039,
5990,6038,5989,5991,6038,6037,5991,6135,5655,5992,5655,5992,6135,5655,6135,5991,5994,5990,6039,5655,6038,5990,5990,5993,6039,6037,6037,5989,5993,5655,5993,6135,6135,6038,6135,5991,5990,6039,5991,5993,6620,6949,6621,6811,6573,6812,6622,6135,6038,5991,6135,5994,6039,5994,5991,6135,5992,5993,5992,6037,5989,6039,6037,6037,5994,5992,5990,6038,6037,5991,6039,6038,5990,5655,6038,6039,5990,5991,5994,6039,
5655,5994,5989,6135,6039,6039,5992,6038,6037,6039,6038,5655,6039,5989,5989,5991,5992,5990,5992,5990,5994,6037,5989,6038,5989,5655,5991,6135,6135,5990,6135,5994,6039,5655,5992,5990,5992,5990,6037,6038,6668,6764,6997,6953,6954,6763,6670,5655,6039,6572,6573,6573,6574,6037,6038,5994,6038,6037,5994,5992,5990,5990,6038,6135,6037,6039,5989,5994,5993,6037,6039,6037,5655,5994,5991,6038,6038,5993,6135,6135,
6039,6135,6135,5655,5993,6039,6039,5994,6037,5991,6039,6135,6039,5989,5994,6037,6135,6039,6039,5989,5991,6039,5992,6039,5992,5991,5991,5990,5994,6037,5990,6038,6135,5989,5992,6039,6037,6039,6572,6574,5989,6668,6764,6954,6763,6670,5993,5655,6135,6620,6949,6999,6622,5655,5990,5655,5994,5992,6038,5655,5989,5993,5655,5655,6135,5994,6039,6135,5993,5989,6038,6037,6038,5993,6135,5993,5993,5993,6039,5991,
5989,6037,5990,6135,5992,6038,6135,6135,6037,5994,5990,5991,6039,5994,5989,5991,6039,6039,6038,6037,5993,5990,5992,5655,5994,5989,5655,5989,5993,5989,5992,5990,5991,5990,6038,6135,6037,6572,6812,6622,6039,5655,6668,6669,6670,5655,6572,6573,6573,6812,6998,6949,6622,5655,5992,5991,5994,5992,5991,5992,6039,6037,5994,5994,6135,5989,5655,5994,5992,6038,5989,5991,6037,6135,6039,6037,6038,6038,5655,5992,
6135,5994,5992,6135,6039,5989,6039,6038,5991,6039,6038,5655,6135,5994,6135,6039,5655,5992,6037,5990,5989,5990,5655,5989,5992,6135,5990,6039,5990,6037,5994,6135,6038,5990,6037,6038,6135,6620,6949,6622,5990,6572,6573,6574,6038,6572,6812,6952,6763,6669,6669,6669,6670,6038,6039,5655,6135,6038,5655,6037,5994,5655,5992,6135,5655,5993,5655,5655,6039,6135,6038,5994,6135,6135,5994,5993,5993,5990,5993,6039,
5991,6135,5993,5655,5990,5994,5992,5992,5994,6038,5994,6135,6135,5989,5993,5992,5994,5991,5991,5992,6572,6574,6135,6039,6039,5994,6038,6135,6039,5989,5989,6135,5989,6038,6135,6038,6038,6620,6999,6622,5990,6620,6998,6622,5994,6668,6669,6669,6670,6039,5990,5655,5994,5992,5989,6037,5655,6038,5993,5992,5989,6037,5655,5992,5991,5992,6039,5991,5991,5991,5993,5990,5993,6135,5991,5992,6039,5655,6037,5991,
6037,6039,5993,5991,5990,5990,5992,6039,6037,6039,6037,6039,6135,5989,5655,5993,6038,5990,5992,6572,6812,6811,6574,6039,6039,5989,5994,5990,6038,5655,5994,6135,5990,6038,5990,6039,5655,6668,6669,6670,5993,6668,6669,6670,6038,5990,5655,5990,6135,5990,6135,6037,5994,5989,5990,5991,5655,6039,6039,6038,6038,6135,6039,5991,5655,5655,5991,5655,5993,5992,5991,5655,6037,5993,6039,5990,5991,6038,6037,5991,
5989,5990,6037,5655,6038,6039,5993,5994,6135,5990,6039,6135,6135,6037,6039,5655,5655,5992,5655,6668,6669,6669,6670,5991,6135,5992,6037,6037,5992,5655,5655,5994,5990,5989,6135,6039,5990,6135,6572,6573,6573,6574,5992,6038,5992,5989,6038,5991,5991,5655,5993,6135,5990,6135,6038,5992,6135,5990,5989,6039,5993,6572,6573,6574,5655,5990,5993,6039,5991,6038,5991,5655,5991,6038,5992,5990,5993,5989,5993,5994,
5655,5991,5990,6039,5989,6037,6039,6037,5992,6039,5655,5989,5655,5989,5655,6037,5655,5993,5992,6135,5655,5993,6135,6037,5989,5989,5993,5994,6038,5992,5655,6135,5990,6038,6039,6037,6135,6572,6812,6997,6952,6622,6135,5994,5990,5992,5655,5993,6135,5994,5994,5994,5655,5655,5991,5992,5991,5992,5991,6135,6572,6812,6952,6622,5991,5990,6038,5992,5990,5990,6037,5990,5993,6037,5655,6037,5993,5655,5991,6039,
5989,6038,6037,5989,6037,5991,5991,5994,5993,5994,5992,5993,5993,5994,6039,6039,5990,5989,5994,5991,5992,6135,6038,5990,6038,6037,6039,5655,6038,5991,6039,6038,5994,6135,5994,5655,5993,6620,6950,6763,6669,6670,6037,6039,5993,5994,5993,6039,6037,5990,6037,5990,5655,5994,5992,5989,5994,6039,5993,6572,6812,7095,6949,6622,6037,5990,5993,5993,5991,5993,6135,5992,5993,6039,5655,5993,5992,5655,5994,5991,
6038,6037,5991,6037,6135,5993,6038,5992,5989,6135,5994,6038,5655,5989,5993,6037,5991,5994,5991,5992,5991,6572,6573,6574,5989,5989,6572,6573,6573,6574,6039,5994,5989,5990,5990,5994,6039,6668,6669,6670,6039,5993,6037,5992,6037,5655,6572,6573,6573,6574,5989,5992,6037,5994,6037,6038,5992,5994,6572,6812,6949,6950,6763,6670,5990,6037,6037,5994,5993,6037,5655,6037,6135,6039,5992,5994,6135,5655,5994,5991,
5655,5993,5990,5655,5989,6038,5991,6037,5989,5990,6039,5990,5992,6038,5989,5992,5994,5990,6037,5989,6572,6812,6615,6811,6573,6573,6812,6998,6999,6622,6038,5989,6135,6038,5989,6135,5993,5994,6037,5989,5991,5989,6039,6038,5994,5655,6620,6951,6952,6811,6573,6573,6574,5992,5993,5991,6039,5991,6668,6764,6999,6997,6622,5989,5993,5992,6038,6038,6038,6038,6038,5655,6038,5993,5993,5993,5993,5990,5655,5993,
5992,5655,5991,5992,5990,5991,5989,5994,5992,5990,6037,5989,5992,5992,5989,5989,5993,5992,6039,5993,6620,6615,6621,6999,6953,6997,6952,6953,6951,6622,6037,5993,5655,5992,5989,6038,5990,5655,5991,6135,5992,6037,5991,6135,5990,6037,6620,6999,7095,6954,7095,6621,6622,6038,5991,6037,5993,5991,6037,6668,6764,6763,6670,5655,5989,5991,6037,6039,5991,6039,6037,6039,5655,5992,5993,5994,5655,5992,5993,5991
</data>
 </layer>
 <layer id="46" name="Ground" width="80" height="80">
  <data encoding="csv">
378,378,378,378,378,378,378,378,378,378,378,378,378,378,378,378,378,378,378,378,378,378,378,378,378,378,378,378,378,378,378,378,378,378,378,378,378,378,378,378,378,378,378,378,378,378,378,378,378,378,378,378,378,378,378,378,378,378,378,378,378,378,378,378,378,378,378,378,378,378,378,378,378,378,378,378,378,378,378,378,
378,378,378,378,378,378,378,378,378,378,378,378,378,378,378,378,378,378,378,378,378,378,378,378,378,378,378,378,378,378,378,378,378,378,378,378,378,378,378,378,378,378,378,378,378,378,378,378,378,378,378,378,378,378,378,378,378,378,378,378,378,378,378,378,378,378,378,378,378,378,378,378,378,378,378,378,378,378,378,378,
378,378,378,378,378,378,378,378,378,378,378,378,378,378,378,378,378,378,378,378,378,378,378,378,378,378,378,378,378,378,378,378,378,378,378,378,378,378,378,378,378,378,378,378,378,378,378,378,378,378,378,378,378,378,378,378,378,378,378,378,378,378,378,378,378,378,378,378,378,378,378,378,378,378,378,378,378,378,378,378,
378,378,378,378,378,378,378,378,378,378,378,378,378,378,378,378,378,378,378,378,378,378,378,378,378,378,378,378,378,378,378,378,378,378,378,378,378,378,378,378,378,378,378,378,378,378,378,378,378,378,378,378,378,378,378,378,378,378,378,378,378,378,378,378,378,378,378,378,378,378,378,378,378,378,378,378,378,378,378,378,
378,378,378,378,378,378,378,378,378,378,378,378,378,378,378,378,378,378,378,378,378,378,378,378,378,378,378,378,378,378,378,378,378,378,378,378,378,378,378,378,378,378,378,378,378,378,378,378,378,378,378,2726,2728,378,378,378,378,378,378,378,2726,2727,2728,378,378,378,378,378,378,378,378,378,378,378,378,378,378,378,378,378,
378,378,378,378,378,378,378,378,378,378,378,378,378,378,378,378,378,378,378,378,378,378,378,378,378,378,378,378,378,378,378,378,378,378,378,378,378,378,378,378,378,378,378,378,378,378,378,378,378,378,378,2774,2776,378,378,378,378,378,378,378,2774,3160,2776,378,378,378,378,378,378,378,378,378,378,378,378,378,378,378,378,378,
378,378,378,378,378,378,378,378,378,378,378,378,378,378,378,378,378,378,378,378,378,378,378,378,378,378,378,378,378,378,378,378,378,378,378,378,378,378,378,378,378,378,378,378,378,378,378,378,2726,2727,2727,2966,2965,2728,378,378,378,378,378,378,2774,2781,2776,378,378,378,378,378,378,378,378,378,378,378,378,378,378,378,378,378,
378,378,378,378,378,378,378,378,378,378,378,378,378,378,378,378,378,378,378,378,2725,378,378,378,378,378,378,378,378,378,378,378,378,378,378,378,378,378,378,378,378,378,378,378,378,378,378,2726,2966,3158,2781,2775,2793,2776,378,378,378,378,378,378,2774,3113,2965,2728,378,378,378,378,378,378,378,378,378,378,378,378,378,378,378,378,
378,378,378,378,378,378,378,378,378,378,378,378,378,378,378,378,378,378,378,2726,2921,2728,378,378,378,378,378,378,378,378,378,378,378,378,378,378,378,378,378,378,378,378,378,378,378,378,378,2822,2823,2823,2823,2823,2823,2824,378,378,378,378,378,378,2822,2918,3159,2965,2727,2727,2728,378,378,378,378,378,378,378,378,378,378,378,378,378,
378,378,378,378,378,378,378,378,378,378,378,378,378,378,378,378,378,378,378,2774,3109,2776,378,378,378,378,378,378,378,378,378,378,378,378,378,378,378,378,378,378,378,378,378,378,378,378,378,378,378,378,378,378,378,378,378,378,378,378,378,378,378,2822,2918,3112,2793,3111,2776,378,378,378,378,378,378,378,378,378,378,378,378,378,
378,378,378,378,378,378,378,378,378,378,378,378,378,378,378,378,378,2726,2728,2774,3158,2776,378,378,378,378,378,378,378,378,378,378,378,378,378,378,378,378,378,378,378,378,378,378,378,378,378,378,378,378,378,378,378,378,378,378,378,378,378,378,378,378,2774,3160,3162,3162,2965,2727,2728,378,378,378,378,378,378,378,378,378,378,378,
378,378,378,378,378,378,378,378,378,378,2726,2727,2727,2728,378,2726,2727,2966,2965,3017,2918,2776,378,378,378,378,378,378,378,378,378,378,378,378,378,378,378,378,378,378,378,378,378,378,378,378,378,378,378,378,378,378,378,378,378,378,378,378,378,378,378,378,2774,2793,2793,2799,2787,3110,2776,378,378,378,378,378,378,378,378,378,378,378,
378,378,378,378,378,378,378,378,378,378,2774,3161,2799,2776,378,2774,2793,3110,2799,2776,2822,2824,378,378,378,378,378,378,378,378,378,378,378,378,378,378,378,378,378,378,378,378,378,378,378,378,378,378,378,378,378,378,378,378,378,378,378,378,378,378,378,378,2822,2823,2823,2823,2823,2823,2824,378,378,378,378,378,378,378,378,378,378,378,
378,378,378,38,39,40,2726,2727,2727,2728,2774,3109,2917,2824,378,2822,2918,2775,2917,2824,378,378,378,378,378,378,378,378,378,378,378,378,378,378,378,378,378,378,378,378,378,378,378,378,378,378,378,378,378,378,378,378,378,378,378,378,378,378,378,378,378,378,378,378,378,378,378,378,378,378,378,378,378,378,378,378,378,378,378,378,
378,378,378,86,87,88,2774,2799,2781,2776,2822,2823,2824,378,378,378,2822,2823,2824,378,378,378,378,378,378,378,378,378,378,378,378,378,378,378,378,378,378,378,378,378,378,378,378,378,378,378,378,378,378,378,378,378,378,378,378,378,378,378,378,378,378,378,378,378,378,378,378,378,378,378,378,378,378,378,378,378,378,378,378,378,
378,378,378,86,229,136,2774,2799,3157,2776,378,378,378,378,378,378,378,378,378,378,378,378,378,378,378,378,378,378,378,378,378,378,378,378,378,378,378,378,378,378,378,378,378,378,378,378,378,378,2726,2727,2728,378,378,378,378,378,378,378,378,378,378,378,378,378,378,378,378,378,378,378,378,378,378,378,378,378,378,378,378,378,
378,378,378,134,136,378,2774,2775,2799,2776,378,378,378,378,378,378,378,378,378,378,378,378,378,378,378,378,378,378,378,378,378,378,378,378,378,378,378,378,378,378,378,378,378,378,378,2726,2727,2727,2966,2781,2776,2726,2727,2727,2728,378,378,378,378,378,378,378,378,378,378,378,378,378,378,378,378,378,378,378,378,378,378,378,378,378,
378,378,378,378,378,378,2774,2793,2917,2824,378,378,378,378,378,378,378,378,378,378,378,378,378,378,378,378,378,378,378,378,378,378,378,378,3066,378,378,378,378,378,378,378,378,378,378,2774,3113,3157,2799,3113,2965,2966,3160,3157,2776,378,378,378,378,378,378,378,378,378,378,378,378,378,378,378,378,378,378,378,378,378,378,378,378,378,
378,378,378,378,378,378,2822,2823,2824,378,378,378,378,378,378,378,378,378,378,378,378,378,378,378,378,378,378,378,378,378,378,378,378,3066,2394,2726,2728,378,378,378,378,378,378,378,2726,2966,3160,3162,3112,2799,3112,3109,2775,2917,2824,378,378,378,378,378,378,378,378,378,378,378,378,378,378,378,378,378,378,378,378,378,378,378,378,378,
378,378,378,378,378,378,378,378,378,378,378,378,378,378,378,378,378,378,378,378,378,378,378,378,378,378,378,378,378,378,378,378,378,3738,2726,2966,2965,2727,2728,378,378,378,378,378,2774,3157,2775,2775,3109,2787,3110,2793,2793,2776,378,378,378,378,378,378,378,378,378,378,378,378,378,378,378,378,378,378,378,378,378,378,378,378,378,378,
378,378,378,378,378,378,378,378,378,38,39,40,378,378,378,378,378,378,378,378,378,378,378,378,378,378,378,378,378,378,378,378,378,4410,2774,2787,3110,2787,2776,378,378,378,378,378,2822,2823,2823,2823,2823,2823,2823,2823,2823,2824,378,378,378,378,378,378,378,378,378,378,378,378,378,378,378,378,378,378,378,378,378,378,378,378,378,378,
378,378,378,378,378,378,378,378,38,278,473,88,378,378,378,38,39,39,40,378,378,378,378,378,378,378,378,378,378,378,378,378,378,2870,2873,2823,2918,2787,2776,378,378,378,378,378,378,378,378,378,378,378,378,378,378,378,378,378,378,378,378,378,378,378,378,378,378,378,378,378,378,378,378,378,378,378,378,378,378,378,378,378,
378,378,378,378,378,378,378,378,86,99,229,136,38,39,39,278,471,421,88,38,39,39,39,39,40,378,378,378,378,378,378,378,378,378,378,378,2774,2775,2776,2726,2727,2728,2726,2728,378,378,378,378,378,378,378,378,378,378,378,378,378,378,378,378,378,378,378,378,378,378,378,378,378,378,378,378,378,378,378,378,378,378,378,378,
378,378,378,378,378,378,378,378,134,135,136,378,86,474,99,473,87,229,136,86,99,473,423,424,277,39,40,378,378,378,378,378,378,378,378,2726,2966,3162,2776,2774,2787,2776,2774,2776,378,378,378,378,378,378,378,378,378,378,378,378,378,378,378,378,378,378,378,378,378,378,378,378,378,378,378,378,378,378,378,378,378,378,378,378,
378,378,378,378,378,378,378,378,378,378,378,378,86,99,229,135,135,136,378,134,230,421,425,425,93,87,277,40,378,378,378,378,378,378,378,2822,2918,3111,2776,2774,3157,2965,2966,2776,378,378,378,378,378,378,378,378,378,378,378,378,378,378,378,378,378,378,378,378,378,378,378,378,378,378,378,378,378,378,378,378,378,378,378,378,
378,378,378,378,378,378,378,378,378,378,378,378,86,229,136,378,2394,3066,378,38,278,87,229,135,135,230,469,88,378,378,378,378,378,378,378,378,2822,2823,2824,2774,2793,2781,3114,2776,378,378,378,378,378,378,378,378,378,378,378,378,378,378,378,378,378,378,378,378,378,378,378,378,378,378,378,378,378,378,378,378,378,378,378,378,
378,378,378,378,378,378,378,378,378,378,378,378,134,136,378,378,378,378,38,278,421,422,88,378,378,134,135,136,378,378,378,378,378,378,378,378,378,378,2726,2966,2799,2781,3160,2965,2728,378,378,378,378,378,378,378,378,378,378,378,378,378,378,378,378,378,378,378,378,378,378,378,378,378,378,378,378,378,378,378,378,378,378,378,
378,378,378,378,378,378,378,378,378,378,378,378,378,378,378,378,378,378,134,230,93,229,136,378,378,378,378,378,378,378,378,378,378,378,378,378,378,378,2774,3112,2775,2775,3157,2917,2824,378,378,378,378,378,378,378,378,378,378,378,378,378,378,378,378,378,378,378,378,378,378,378,378,378,378,378,378,378,378,378,378,378,378,378,
378,378,378,378,378,378,378,378,378,378,378,378,378,378,378,378,378,378,38,278,229,136,378,38,39,40,378,378,378,378,378,378,378,378,378,378,378,378,2822,2918,3112,2917,2918,2776,378,378,378,378,378,378,378,378,378,378,378,378,378,378,378,378,378,378,378,378,378,378,378,378,378,378,378,378,378,378,378,378,378,378,378,378,
378,378,378,378,38,39,39,39,39,39,40,378,378,378,378,378,38,39,278,469,88,378,378,86,93,88,378,378,378,378,378,378,378,378,378,378,378,378,378,2774,2781,2965,3017,2824,378,378,378,378,378,378,378,378,378,378,378,378,378,378,378,378,378,378,378,378,378,378,378,378,378,378,378,378,378,378,378,378,378,378,378,378,
378,378,378,378,86,423,93,99,229,230,88,378,378,378,378,378,134,135,230,425,277,40,378,134,135,136,38,40,378,378,378,378,378,378,378,378,378,378,378,2774,3109,2917,2824,378,378,378,378,378,378,378,378,378,378,378,378,378,378,378,378,378,378,378,378,378,378,378,378,378,378,378,378,378,378,378,378,378,378,378,378,378,
378,378,378,378,86,229,230,423,277,278,277,40,378,378,378,378,378,378,134,230,469,88,378,378,378,38,278,88,378,378,378,378,378,378,378,378,378,378,378,2822,2823,2824,378,378,378,378,378,378,378,378,378,378,378,378,378,378,378,378,378,378,378,378,378,378,378,378,378,378,378,378,378,378,378,378,378,378,378,378,378,378,
378,378,378,378,86,277,278,426,422,426,229,136,378,378,378,378,378,378,378,134,135,136,378,378,378,86,87,88,378,378,378,378,378,378,378,378,378,378,378,378,378,378,378,378,378,378,378,378,378,378,378,378,378,378,378,378,378,378,378,378,378,378,378,378,378,378,378,2726,2727,2727,2728,378,378,378,378,378,378,378,378,378,
378,378,378,378,86,421,87,229,230,229,136,378,378,38,39,40,378,378,378,378,378,378,38,40,378,86,99,88,38,39,40,378,378,378,378,378,378,378,378,378,378,378,378,378,378,378,378,378,378,378,378,378,378,378,378,378,378,378,378,378,378,378,378,378,378,378,2726,2966,3161,3113,2965,2728,378,378,378,378,378,378,378,378,
378,378,378,378,86,473,229,136,134,136,378,378,38,278,229,136,378,378,378,378,378,378,134,136,378,86,99,88,86,99,277,40,378,378,378,378,378,378,378,378,378,378,378,378,378,378,378,378,378,378,378,378,378,378,378,378,378,378,378,378,378,378,378,378,378,378,2774,2799,2799,2793,3162,2776,378,378,378,378,378,378,378,378,
378,378,378,378,134,135,136,2394,3066,378,38,39,278,229,136,378,378,378,378,38,40,378,378,378,38,278,99,277,278,469,87,88,378,378,378,378,378,378,378,378,378,378,378,378,378,378,378,378,378,378,378,378,378,378,378,378,378,378,378,378,378,378,378,378,378,2726,2966,2781,2799,2787,3113,2776,378,378,378,378,378,378,378,378,
378,378,378,378,378,378,378,38,39,40,86,99,473,88,378,378,378,38,39,278,277,40,378,378,86,93,87,471,471,229,230,88,378,378,378,378,378,378,378,378,378,378,378,378,378,378,378,378,378,378,378,378,378,378,378,378,378,2726,2727,2727,2728,4410,3066,378,378,2774,2775,2781,2781,2793,2787,2776,378,378,378,378,378,378,378,378,
378,378,378,378,378,378,378,86,470,88,134,230,229,136,378,378,38,278,424,423,99,88,378,378,134,230,93,93,99,88,86,88,378,378,378,378,378,378,378,378,378,378,378,378,378,378,378,378,378,378,378,378,378,378,378,378,378,2774,2775,2781,2776,4410,4410,2726,2727,2966,2775,2793,3110,3113,2775,2776,378,378,378,378,378,378,378,378,
378,378,378,378,378,378,38,278,229,136,378,134,136,378,378,378,134,230,99,229,135,136,378,378,378,86,424,99,229,330,278,88,378,378,378,378,378,378,378,378,378,378,378,378,378,378,378,378,378,378,378,378,378,378,378,378,378,2822,2918,2917,2824,2726,2727,2966,2917,2823,2823,2823,2918,2799,2787,2776,378,378,378,378,378,378,378,378,
378,378,378,378,378,378,86,99,88,378,378,378,378,378,378,378,378,86,471,88,378,38,39,39,39,278,229,135,136,86,229,136,378,378,378,378,378,378,378,378,378,378,378,378,378,378,378,378,378,378,378,378,378,378,378,378,378,378,2822,2824,1722,2774,2917,2823,2824,378,378,378,2774,3157,2793,2776,378,378,378,378,378,378,378,378,
378,378,378,378,378,378,86,93,88,378,378,378,378,378,378,378,378,134,135,136,378,86,93,229,135,135,136,378,378,86,88,378,378,378,378,378,378,378,378,378,378,378,378,378,378,378,378,378,378,378,378,378,378,378,378,378,378,378,378,2726,2727,2966,2776,378,378,378,378,378,2822,2918,2787,2776,378,2726,2727,2728,378,378,378,378,
378,378,378,378,378,378,86,99,88,38,39,40,378,378,378,378,378,378,378,38,39,278,474,88,38,39,39,39,39,278,88,378,378,378,378,378,378,378,378,378,378,378,378,378,378,378,378,378,378,378,378,378,378,378,378,378,378,378,378,2774,2917,2823,2824,378,378,378,378,378,378,2774,3161,2922,2871,2969,3114,2776,378,378,378,378,
378,378,378,378,378,378,86,471,277,278,229,330,40,378,38,39,40,378,378,86,99,229,135,136,86,229,135,135,135,135,136,378,378,378,378,378,378,378,378,378,378,378,378,378,378,378,378,378,378,378,378,378,378,378,378,378,378,378,378,2822,2824,378,378,378,378,378,378,378,378,2774,2917,2824,378,2774,2781,2776,378,378,378,378,
378,378,378,378,378,378,86,470,93,471,277,278,88,38,278,93,88,378,378,86,99,277,39,39,329,136,378,378,378,378,378,378,378,378,378,378,378,378,378,378,378,378,378,378,378,378,378,378,378,378,378,378,378,378,378,378,378,378,378,378,378,378,378,378,378,378,378,378,378,2774,2776,378,2726,2966,3161,2776,378,378,378,378,
378,378,378,378,378,378,134,135,135,135,135,230,88,86,469,229,136,378,378,86,473,229,135,135,136,378,378,378,378,378,378,378,378,378,378,378,378,378,378,378,378,378,378,378,378,378,378,378,378,378,378,378,378,378,378,378,378,378,378,378,378,378,378,378,378,378,378,378,2726,2966,2776,378,2774,2787,2781,2776,378,378,378,378,
378,378,378,378,378,378,378,378,378,378,38,278,88,134,135,136,378,378,38,278,474,88,378,378,378,378,378,378,378,378,378,378,378,378,378,378,378,378,378,378,378,378,378,378,378,378,378,378,378,378,378,378,378,378,378,378,378,378,378,378,378,378,378,378,378,378,378,378,2774,3110,2776,2726,3017,2918,3109,2776,378,378,378,378,
378,378,378,378,378,378,378,378,378,378,86,425,277,40,378,378,378,38,278,99,474,88,2726,2727,2728,378,378,378,378,378,378,378,378,378,378,378,378,378,378,378,378,378,378,378,378,378,378,378,378,378,378,378,378,378,378,378,378,378,378,378,378,378,378,2726,2727,2728,378,378,2822,2823,2824,2774,2776,2822,2918,2776,378,378,378,378,
378,378,378,378,378,378,378,378,378,378,86,474,423,277,40,378,378,134,135,135,135,136,2774,3114,2776,378,378,378,378,378,378,378,378,378,378,378,378,378,378,378,378,378,378,378,378,378,378,378,378,378,378,378,378,378,378,378,378,378,378,378,378,378,378,2774,2781,2965,2728,378,378,378,378,2774,2965,2727,2966,2776,378,378,378,378,
378,378,378,378,38,39,40,378,378,378,134,135,135,135,136,378,378,378,378,378,378,2726,2966,3159,2776,378,378,378,378,378,378,378,378,378,378,378,378,378,378,378,378,378,378,378,378,378,378,378,378,378,378,378,378,378,378,378,378,378,378,378,378,378,378,2822,2918,3114,2776,378,378,378,378,2774,2793,3109,3113,2776,378,378,378,378,
378,378,378,378,134,230,277,40,378,378,378,378,378,378,378,378,378,378,378,378,378,2774,3159,3111,2776,378,378,378,378,378,378,378,378,378,378,378,378,378,378,378,378,378,378,378,378,378,378,378,378,378,378,378,378,378,378,378,378,378,378,378,378,378,378,378,2822,2823,2824,378,378,378,378,2822,2823,2918,2787,2776,378,378,378,378,
378,378,378,378,378,86,93,88,378,378,378,378,378,378,378,378,378,378,378,2726,2727,2966,2917,2823,2824,378,378,378,378,378,378,378,378,378,378,378,378,378,378,378,378,378,378,378,378,378,378,378,378,378,378,378,378,378,378,378,378,378,378,378,378,378,378,378,378,378,378,378,378,378,378,378,378,2774,3111,2776,378,378,378,378,
378,378,378,378,378,86,426,88,378,378,378,378,378,378,378,378,378,378,378,2774,2775,2781,2776,378,378,378,378,378,378,378,378,378,378,378,378,378,378,378,378,378,378,378,378,378,378,378,378,378,378,378,378,378,378,378,378,378,378,378,378,378,378,378,378,378,378,378,378,378,378,378,378,2726,2727,2966,2799,2776,378,378,378,378,
378,378,378,378,378,86,229,136,378,378,378,378,378,378,378,378,378,378,378,2822,2918,2781,2776,378,378,378,378,378,378,378,378,378,378,378,378,378,378,378,378,378,378,378,378,378,378,378,378,378,378,378,378,378,378,378,378,378,378,378,378,378,378,378,378,378,378,378,378,378,378,378,378,2774,2787,2917,2823,2824,378,378,378,378,
378,378,378,378,378,134,136,378,378,378,378,378,378,378,378,378,378,378,378,378,2822,2823,2824,378,378,378,378,378,378,378,378,378,378,378,378,378,378,378,378,378,378,378,378,378,378,378,378,378,378,378,378,378,378,378,378,378,378,378,378,378,378,378,2726,2728,378,378,378,378,378,378,378,2774,3110,2776,378,378,378,378,378,378,
378,378,378,378,378,378,378,378,378,378,378,378,378,378,378,378,378,378,378,378,378,378,378,378,378,378,378,378,378,378,378,378,378,378,378,378,378,378,378,378,378,378,378,378,378,378,378,378,378,378,378,378,378,378,378,378,378,378,378,378,378,378,2774,2965,2728,378,378,378,378,378,2726,2966,2787,2776,378,378,378,378,378,378,
378,378,378,378,378,378,378,378,378,378,378,378,378,378,378,378,378,378,378,378,378,378,378,378,378,378,378,378,378,378,378,378,378,378,378,378,378,378,378,378,378,378,378,378,378,378,378,378,378,378,378,378,378,378,378,378,378,378,378,2726,2727,2727,2966,3161,2776,378,378,378,378,378,2774,2775,2781,2776,378,378,378,378,378,378,
378,378,378,378,378,378,378,378,378,378,378,378,378,378,378,378,378,378,378,378,378,378,378,378,378,378,378,378,378,378,378,378,378,378,378,378,378,378,378,378,378,378,378,378,378,378,378,378,378,378,378,378,378,378,378,378,378,378,2726,2966,2775,3162,3162,3109,2776,378,378,378,378,378,2822,2823,2823,2824,378,378,378,378,378,378,
378,378,378,378,378,378,378,378,378,378,378,2726,2728,378,378,378,378,378,378,378,378,378,378,378,378,378,378,378,378,378,378,378,378,378,378,378,378,378,378,378,378,378,378,378,378,378,378,378,378,378,378,378,378,378,378,378,378,378,2774,2799,2787,3109,3111,3159,2776,378,378,378,378,378,378,378,378,378,378,378,378,378,378,378,
378,378,378,378,378,378,378,378,378,378,2726,2966,2965,2728,378,378,378,378,378,378,378,378,378,378,378,378,378,378,378,378,378,378,378,378,378,378,378,378,378,378,378,378,378,378,378,378,378,378,378,378,378,378,378,378,378,378,378,378,2822,2823,2823,2918,2799,2917,2824,378,2726,2727,2728,378,378,378,378,378,378,378,378,378,378,378,
378,378,378,378,378,378,378,378,378,378,2774,2787,3161,2965,2727,2728,378,378,378,378,378,378,378,378,378,378,378,378,378,378,378,378,378,378,378,378,378,378,378,378,378,378,378,378,378,378,378,378,378,378,378,378,378,378,378,378,378,378,378,378,378,2822,2823,2824,378,378,2774,2787,2776,378,378,378,378,378,378,378,378,378,378,378,
378,378,378,378,378,378,378,378,378,378,2822,2823,2823,2918,2781,2776,378,378,378,378,378,378,378,378,378,378,378,378,378,378,378,378,378,378,378,378,378,378,378,378,378,378,378,378,378,378,378,378,378,378,378,378,378,378,2726,2727,2728,378,378,378,378,378,378,378,378,378,2822,2823,2824,378,378,378,378,378,378,378,378,378,378,378,
378,378,378,378,378,378,378,378,378,378,378,378,378,2822,2823,2824,378,378,378,378,378,378,378,378,378,378,378,378,378,378,378,378,378,378,378,378,378,378,378,378,378,378,378,378,378,378,378,378,378,378,378,378,378,378,2774,3109,2965,2727,2728,378,378,378,378,378,378,378,378,378,378,378,378,378,378,378,378,378,378,378,378,378,
378,378,378,378,378,378,378,378,378,378,378,2726,2727,2728,378,378,378,378,378,378,378,378,378,378,378,378,378,378,378,378,378,378,378,378,378,378,378,378,378,378,378,378,378,378,378,378,378,378,378,378,378,378,378,378,2822,2918,2781,3161,2965,2728,378,378,378,378,378,378,378,378,378,378,378,378,378,378,378,378,378,378,378,378,
378,378,378,378,378,378,378,378,378,378,378,2774,2793,2776,378,378,378,378,2726,2727,2728,378,378,378,378,378,378,378,378,378,2726,2727,2728,378,378,378,378,378,378,378,378,378,378,378,378,378,378,378,378,378,378,378,378,378,378,2774,3112,2799,2793,2776,378,378,378,378,378,378,378,378,378,378,378,378,378,378,378,378,378,378,378,378,
378,378,378,378,378,378,378,378,378,378,378,2822,2918,2776,378,378,378,378,2774,3110,2965,2728,378,378,378,378,378,378,378,2726,2966,2781,2776,378,378,378,378,378,378,378,378,378,378,378,378,378,378,378,378,378,378,378,378,378,378,2774,2787,2799,2917,2824,378,378,2726,2728,378,378,378,378,378,378,378,378,378,378,378,378,378,378,378,378,
378,378,378,378,378,2726,2727,2728,378,378,378,378,2822,2824,378,378,378,378,2822,2918,3159,2776,378,378,378,378,378,378,2726,2966,2775,2917,2824,378,378,378,378,378,378,378,378,378,378,378,378,378,378,378,378,378,378,378,378,378,378,2822,2823,2823,2824,378,378,378,2774,2776,378,378,378,378,378,378,378,378,378,378,378,378,378,378,378,378,
378,378,378,378,378,2822,2918,2776,378,378,378,378,378,378,378,378,378,378,378,2822,2823,2824,378,378,378,378,378,378,2822,2823,2823,2824,378,378,378,378,378,378,378,378,378,378,378,378,378,378,378,378,378,378,378,378,378,378,378,378,378,378,378,378,378,2726,2966,2776,378,378,378,378,378,378,378,378,378,378,378,378,378,378,378,378,
378,378,378,378,378,378,2822,2824,378,378,378,378,378,378,378,378,378,378,378,378,378,378,378,378,378,378,378,378,378,378,378,378,378,378,378,378,378,378,378,378,378,378,378,378,378,378,378,378,378,378,378,378,378,378,378,378,378,378,378,378,2726,2966,2775,2776,378,378,378,378,378,378,378,378,378,378,378,378,378,378,378,378,
378,378,378,378,378,378,378,378,378,378,378,378,378,378,378,378,378,378,378,378,378,378,378,378,378,378,378,378,378,378,378,378,378,2726,2727,2727,2728,378,378,378,378,378,378,378,378,378,378,378,378,378,378,378,378,378,378,378,378,378,378,378,2774,2775,3113,2776,378,378,378,378,378,378,378,378,378,378,378,378,378,378,378,378,
378,378,378,378,378,378,378,378,378,378,378,378,378,378,378,378,378,378,378,378,378,378,378,378,378,378,378,378,378,378,378,2726,2727,2966,3114,3162,2776,378,378,378,378,378,378,378,378,378,378,378,378,378,378,378,378,378,378,378,378,378,378,378,2822,2918,2781,2776,378,378,378,378,378,378,378,378,378,378,378,378,378,378,378,378,
378,378,378,378,378,378,378,378,378,378,378,378,378,378,378,378,378,378,378,378,378,378,378,378,2726,2728,378,378,378,378,2726,2966,2793,2775,2787,2917,2824,378,378,378,378,378,378,378,378,378,378,378,378,378,378,378,378,378,378,378,378,378,378,378,378,2774,2917,2824,378,378,378,378,378,378,378,378,378,378,378,378,378,378,378,378,
378,378,378,378,378,378,378,378,378,378,378,378,378,378,378,378,378,378,378,378,378,378,2726,2728,2774,2965,2728,378,378,378,2774,2799,2781,2917,2823,2824,378,378,378,378,378,378,378,378,378,378,378,378,378,378,378,378,378,378,378,378,378,378,378,378,378,2822,2824,378,378,378,378,378,378,378,378,378,378,378,378,378,378,378,378,378,
378,378,378,378,378,378,378,378,378,378,378,378,378,378,378,378,378,378,378,378,378,378,2774,2776,2774,2917,2824,378,378,378,2822,2823,2823,2824,378,378,378,378,378,378,378,378,378,378,378,378,378,378,378,378,378,378,378,378,378,378,378,378,378,378,378,378,378,378,378,378,378,378,378,378,378,378,378,378,378,378,378,378,378,378,
378,378,378,378,378,378,378,378,378,378,378,2726,2728,378,378,378,378,378,378,378,378,378,2822,2824,2822,2824,378,378,378,378,378,378,378,378,378,378,378,378,378,378,378,378,378,378,378,378,378,378,378,378,378,378,378,378,378,378,378,378,378,378,378,378,378,378,378,378,378,378,378,378,378,378,378,378,378,378,378,378,378,378,
378,378,378,378,378,378,378,378,378,378,378,2774,2965,2727,2728,378,378,378,378,378,378,378,378,378,378,378,378,378,378,378,378,378,378,378,378,378,378,378,378,378,378,378,378,378,378,378,378,378,378,378,378,378,378,378,378,378,378,378,378,378,378,378,378,378,378,378,378,378,378,378,378,378,378,378,378,378,378,378,378,378,
378,378,378,378,378,378,378,378,378,378,378,2774,3113,3111,2965,2728,378,378,378,378,378,378,378,378,378,378,378,378,378,378,378,378,378,378,378,378,378,378,378,378,378,378,378,378,378,378,378,378,378,378,378,378,378,378,378,378,378,378,378,378,378,378,378,378,378,378,378,378,378,378,378,378,378,378,378,378,378,378,378,378,
378,378,378,378,378,378,378,378,378,378,378,2774,3112,3113,3161,2922,2872,378,378,378,378,378,378,378,378,378,378,378,378,378,378,378,378,378,378,378,378,378,378,378,378,378,378,378,378,378,378,378,378,378,378,378,378,378,378,378,378,378,378,378,378,378,378,378,378,378,378,378,378,378,378,378,378,378,378,378,378,378,378,378,
378,378,378,378,378,378,378,378,378,378,378,2822,2823,2823,2823,2824,378,378,378,378,378,378,378,378,378,378,378,378,378,378,378,378,378,378,378,378,378,378,378,378,378,378,378,378,378,378,378,378,378,378,378,378,378,378,378,378,378,378,378,378,378,378,378,378,378,378,378,378,378,378,378,378,378,378,378,378,378,378,378,378,
378,378,378,378,378,378,378,378,378,378,378,378,378,378,378,378,378,378,378,378,378,378,378,378,378,378,378,378,378,378,378,378,378,378,378,378,378,378,378,378,378,378,378,378,378,378,378,378,378,378,378,378,378,378,378,378,378,378,378,378,378,378,378,378,378,378,378,378,378,378,378,378,378,378,378,378,378,378,378,378,
378,378,378,378,378,378,378,378,378,378,378,378,378,378,378,378,378,378,378,378,378,378,378,378,378,378,378,378,378,378,378,378,378,378,378,378,378,378,378,378,378,378,378,378,378,378,378,378,378,378,378,378,378,378,378,378,378,378,378,378,378,378,378,378,378,378,378,378,378,378,378,378,378,378,378,378,378,378,378,378
</data>
 </layer>
 <layer id="6" name="Road" width="80" height="80">
  <data encoding="csv">
4980,4980,4980,4980,4980,4980,4980,4980,4980,4980,4980,4980,4980,4980,4980,4980,4980,4980,4980,4980,4980,4980,4980,4980,4980,4980,4980,4980,4980,4980,4980,4980,4980,4980,4980,4980,4980,4980,4980,4980,4980,4980,4980,4980,4980,4980,4980,4980,4980,4980,4980,4980,4980,4980,4980,4980,4980,4980,4980,4980,4980,4980,4980,4980,4980,4980,4980,4980,4980,4980,4980,4980,4980,4980,4980,4980,4980,4980,4980,4980,
4980,4980,4980,4980,4980,4980,4980,4980,4980,4980,4980,4980,4980,4980,4980,4980,4980,4980,4980,4980,4980,4980,4980,4980,4980,4980,4980,4980,4980,4980,4980,4980,4980,4980,4980,4980,4980,4980,4980,4980,4980,4980,4980,4980,4980,4980,4980,4980,4980,4980,4980,4980,4980,4980,4980,4980,4980,4980,4980,4980,4980,4980,4980,4980,4980,4980,4980,4980,4980,4980,4980,4980,4980,4980,4980,4980,4980,4980,4980,4980,
4980,4980,4980,4980,4980,4980,4980,4980,4980,4980,4980,4980,4980,4980,4980,4980,4980,4980,4980,4980,4980,4980,4980,4980,4980,4980,4980,4980,4980,4980,4980,4980,4980,4980,4980,4980,4980,4980,4980,4980,4980,4980,4980,4980,4980,4980,4980,4980,4980,4980,4980,4980,4980,4980,4980,4980,4980,4980,4980,4980,4980,4980,4980,4980,4980,4980,4980,4980,4980,4980,4980,4980,4980,4980,4980,4980,4980,4980,4980,4980,
4980,4980,4980,4980,4980,4980,4980,4980,4980,4980,4980,4980,4980,4980,4980,4980,4980,4980,4980,4980,4980,4980,4980,4980,4980,4980,4980,4980,4980,4980,4980,4980,4980,4980,4980,4980,4980,4980,4980,4980,4980,4980,4980,4980,4980,4980,4980,4980,4980,4980,4980,4980,4980,4980,4980,4980,4980,4980,4980,4980,4980,4980,4980,4980,4980,4980,4980,4980,4980,4980,4980,4980,4980,4980,4980,4980,4980,4980,4980,4980,
4980,4980,4980,4980,4980,4980,4980,4980,4980,4980,4980,4980,4980,4980,4980,4980,4980,4980,4980,4980,4980,4980,4980,4980,4980,4980,4980,4980,4980,4980,4980,4980,4980,4980,4980,4980,4980,4980,4980,4980,4980,4980,4980,4980,4980,4980,4980,4980,4980,4980,4980,4980,4980,4980,4980,4980,4980,4980,4980,4980,4980,4980,4980,4980,4980,4980,4980,4980,4980,4980,4980,4980,4980,4980,4980,4980,4980,4980,4980,4980,
4980,4980,4980,4980,4980,4980,4980,4980,4980,4980,4980,4980,4980,4980,4980,4980,4980,4980,4980,4980,4980,4980,4980,4980,4980,4980,4980,4980,4980,4980,4980,4980,4980,4980,4980,4980,4980,4980,4980,4980,4980,4980,4980,4980,4980,4980,4980,4980,4980,4980,4980,4980,4980,4980,4980,4980,4980,4980,4980,4980,4980,4980,4980,4980,4980,4980,4980,4980,4980,4980,4980,4980,4980,4980,4980,4980,4980,4980,4980,4980,
4980,4980,4980,4980,4980,4980,4980,4980,4980,4980,4980,4980,4980,4980,4980,4980,4980,4980,4980,4980,4980,4980,4980,4980,4980,4980,4980,4980,4980,4980,4980,4980,4980,4980,4980,4980,4980,4980,4980,4980,4980,4980,4980,4980,4980,4980,4980,4980,4980,4980,4980,4980,4980,4980,4980,4980,4980,4980,4980,4980,4980,4980,4980,4980,4980,4980,4980,4980,4980,4980,4980,4980,4980,4980,4980,4980,4980,4980,4980,4980,
4980,4980,4980,4980,4980,4980,4980,4980,4980,4980,4980,4980,4980,4980,4980,4980,4980,4980,4980,4980,4980,4980,4980,4980,4980,4980,4980,4980,4980,4980,4980,4980,4980,4980,4980,4980,4980,4980,4980,4980,4980,4980,4980,4980,4980,4980,4980,4980,4980,4980,4980,4980,4980,4980,4980,4980,4980,4980,4980,4980,4980,4980,4980,4980,4980,4980,4980,4980,4980,4980,4980,4980,4980,4980,4980,4980,4980,4980,4980,4980,
4980,4980,4980,4980,4980,4980,4980,4980,4980,4980,4980,4980,4980,4980,4980,4980,4980,4980,4980,4980,4980,4980,4980,4980,4980,4980,4980,4980,4980,4980,4980,4980,4980,4980,4980,4980,4980,4980,4980,4980,4980,4980,4980,4980,4980,4980,4980,4980,4980,4980,4980,4980,4980,4980,4980,4980,4980,4980,4980,4980,4980,4980,4980,4980,4980,4980,4980,4980,4980,4980,4980,4980,4980,4980,4980,4980,4980,4980,4980,4980,
4980,4980,4980,4980,4980,4980,4980,4980,4980,4980,4980,4980,4980,4980,4980,4980,4980,4980,4980,4980,4980,4980,4980,4980,4980,4980,4980,4980,4980,4980,4980,4980,4980,4980,4980,4980,4980,4980,4980,4980,4980,4980,4980,4980,4980,4980,4980,4980,4980,4980,4980,4980,4980,4980,4980,4980,4980,4980,4980,4980,4980,4980,4980,4980,4980,4980,4980,4980,4980,4980,4980,4980,4980,4980,4980,4980,4980,4980,4980,4980,
4980,4980,4980,4980,4980,4980,4980,4980,4980,4980,4980,4980,4980,4980,4980,4980,4980,4980,4980,4980,4980,4980,4980,4980,4980,4980,4980,4980,4980,4980,4980,4980,4980,4980,4980,4980,4980,4980,4980,4980,4980,4980,4980,4980,4980,4980,4980,4980,4980,4980,4980,4980,4980,4980,4980,4980,4980,4980,4980,4980,4980,4980,4980,4980,4980,4980,4980,4980,4980,4980,4980,4980,4980,4980,4980,4980,4980,4980,4980,4980,
4980,4980,4980,4980,4980,4980,4980,4980,4980,4980,4980,4980,4980,4980,4980,4980,4980,4980,4980,4980,4980,4980,4980,4980,4980,4980,4980,4980,4980,4980,4980,4980,4980,4980,4980,4980,4980,4980,4980,4980,4980,4980,4980,4980,4980,4980,4980,4980,4980,4980,4980,4980,4980,4980,4980,4980,4980,4980,4850,4852,4980,4980,4980,4980,4980,4980,4980,4980,4980,4980,4980,4980,4980,4980,4980,4980,4980,4980,4980,4980,
4980,4980,4980,4980,4980,4980,4980,4980,4980,4980,4980,4980,4980,4980,4980,4980,4980,4980,4980,4980,4980,4980,4980,4980,4980,4980,4980,4980,4980,4980,4980,4980,4980,4980,4980,4980,4980,4980,4980,4980,4980,4980,4980,4980,4980,4850,5051,4851,5051,5052,4851,5052,4851,5051,5050,5052,5051,5051,4940,5034,4980,4980,4980,4980,4980,4980,4980,4980,4980,4980,4980,4980,4980,4980,4980,4980,4980,4980,4980,4980,
4980,4980,4980,4980,4980,4980,4980,4980,4980,4980,4980,4980,4980,4980,4980,4980,4980,4980,4980,4980,4980,4980,4980,4980,4980,4980,4980,4980,4980,4980,4980,4980,4980,4850,5052,4852,4980,4980,4980,4850,4851,4851,4851,5052,5050,4940,5011,4869,4995,5013,4994,4996,4994,4997,4997,4996,5012,4993,4993,4939,4852,4980,4980,4980,4980,4980,4980,4980,4980,4980,4980,4980,4980,4980,4980,4980,4980,4980,4980,4980,
4980,4980,4980,4980,4980,4980,4980,4980,4980,4980,4980,4980,4980,4850,5052,4852,4980,4980,4980,4980,4980,4980,4980,4980,4980,4980,4980,4980,4980,4980,4980,4980,4850,4940,4994,5033,4980,4980,4980,4886,5031,4922,4869,4995,4993,4998,5012,4921,4887,5030,5031,5030,5030,5031,4887,5031,5030,4887,4922,5012,5033,4980,4980,4980,4980,4980,4980,4980,4980,4980,4980,4980,4980,4980,4980,4980,4980,4980,4980,4980,
4980,4980,4980,4980,4980,4980,4980,4980,4980,4980,4980,4980,4850,4940,4998,4939,5050,5051,4852,4980,4980,4980,4980,4980,4980,4980,4980,4980,4980,4980,4980,4980,5049,5011,4921,4888,4980,4980,4980,4980,4980,4886,5030,5030,4887,5030,4887,4888,4980,4980,4980,4980,4980,4980,4980,4980,4980,4980,5047,4998,5033,4980,4980,4980,4980,4980,4980,4980,4980,4980,4980,4980,4980,4980,4980,4980,4980,4980,4980,4980,
4980,4980,4980,4980,4980,4980,4980,4980,4980,4980,4980,4980,4886,5031,5031,5030,4922,4996,4939,5050,4852,4980,4980,4980,4980,4980,4980,4980,4980,4980,4980,4980,5049,4921,4888,4980,4980,4980,4980,4980,4980,4980,4980,4980,4980,4980,4980,4980,4980,4980,4980,4980,4980,4980,4980,4980,4980,4980,4868,5011,5034,4980,4980,4980,4980,4980,4980,4980,4980,4980,4980,4980,4980,4980,4980,4980,4980,4980,4980,4980,
4980,4980,4980,4980,4980,4980,4980,4980,4980,4980,4980,4980,4980,4980,4980,4980,4886,5031,4922,4994,4939,4851,4852,4980,4980,4980,4980,4980,4980,4980,4980,4850,4940,5033,4980,4980,4980,4980,4980,4980,4980,4980,4980,4980,4980,4980,4980,4980,4980,4980,4980,4980,4980,4980,4980,4980,4980,4980,5049,5011,5034,4980,4980,4980,4980,4980,4980,4980,4980,4980,4980,4980,4980,4980,4980,4980,4980,4980,4980,4980,
4980,4980,4980,4980,4980,4980,4980,4980,4980,4980,4980,4980,4980,4980,4980,4980,4980,4980,4886,5031,4887,4922,4939,4851,5050,5052,5052,5051,5051,5050,5052,4961,5031,4888,4980,4980,4980,4980,4980,4980,4980,4980,4980,4980,4980,4980,4980,4980,4980,4980,4980,4980,4980,4980,4980,4980,4980,4980,4868,4996,5033,4980,4980,4980,4980,4980,4980,4980,4980,4980,4980,4980,4980,4980,4980,4980,4980,4980,4980,4980,
4980,4980,4980,4980,4980,4980,4980,4980,4980,4980,4980,4980,4980,4980,4980,4980,4980,4980,4980,4980,4980,5047,4993,4921,4887,5031,5029,5029,5029,5031,4922,5032,4980,4980,4980,4980,4980,4980,4980,4980,4980,4980,4980,4980,4980,4980,4980,4980,4980,4980,4980,4980,4980,4980,4980,4850,5051,5050,4940,4996,5034,4980,4980,4980,4980,4980,4980,4980,4980,4980,4980,4980,4980,4980,4980,4980,4980,4980,4980,4980,
4980,4980,4980,4980,4980,4980,4980,4980,4980,4980,4980,4980,4980,4980,4980,4980,4980,4980,4980,4980,4980,4886,5030,4888,4980,4980,4980,4980,4980,4980,5049,5032,4980,4980,4980,4980,4980,4980,4980,4980,4980,4980,4980,4980,4980,4980,4980,4980,4980,4980,4980,4980,4980,4980,4850,4940,4921,4887,4887,4922,4939,5050,5052,5051,5051,5051,4851,5050,5050,5052,4852,4980,4980,4980,4980,4980,4980,4980,4980,4980,
4980,4980,4980,4980,4980,4980,4980,4980,4980,4980,4980,4980,4980,4980,4980,4980,4980,4980,4980,4980,4980,4980,4980,4980,4980,4980,4980,4980,4728,4850,4940,4870,4980,4980,4980,4980,4980,4980,4980,4980,4980,4980,4980,4980,4980,4980,4980,4980,4980,4980,4980,4980,4980,4850,4940,4921,4888,4980,4980,4886,4922,4996,4997,5013,4998,4998,4921,5030,4887,4922,5032,4980,4980,4980,4980,4980,4980,4980,4980,4980,
4980,4980,4980,4980,4980,4980,4980,4980,4980,4980,4980,4980,4980,4980,4980,4980,4980,4980,4980,4980,4980,4980,4980,4980,4980,4980,4980,4980,4980,5047,5012,4870,4980,4980,4980,4980,4980,4980,4980,4980,4980,4980,4980,4980,4980,4980,4980,4980,4980,4980,4980,4980,4980,4868,4921,4888,4728,4980,4980,4728,4886,4922,4921,5030,4887,5029,4888,4980,4980,4886,4888,4980,4980,4980,4980,4980,4980,4980,4980,4980,
4980,4980,4980,4980,4980,4980,4980,4980,4980,4980,4980,4980,4980,4980,4980,4980,4980,4980,4980,4980,4980,4980,4980,4980,4980,4980,4980,4980,4980,4886,4922,4870,4980,4980,4980,4980,4980,4980,4980,4980,4980,4980,4980,4980,4980,4980,4980,4980,4980,4980,4980,4980,4980,5048,5033,4980,4980,4980,4980,4980,4980,4868,5034,4980,4980,4980,4980,4980,4980,4980,4980,4980,4980,4980,4980,4980,4980,4980,4980,4980,
4980,4980,4980,4980,4980,4980,4980,4980,4980,4980,4980,4980,4980,4980,4980,4980,4980,4980,4980,4980,4980,4980,4980,4980,4980,4980,4980,4980,4980,4728,5047,5033,4980,4980,4980,4980,4980,4980,4980,4980,4980,4980,4980,4980,4980,4980,4980,4980,4980,4980,4980,4980,4980,5048,4870,4980,4728,4980,4980,4980,4728,4871,4888,4980,4980,4980,4980,4980,4980,4980,4980,4980,4980,4980,4980,4980,4980,4980,4980,4980,
4980,4980,4980,4980,4980,4980,4980,4980,4980,4980,4980,4980,4980,4980,4980,4980,4980,4980,4980,4980,4980,4980,4980,4980,4980,4980,4980,4980,4980,4728,4868,4939,5050,5052,5050,4852,4980,4980,4980,4980,4980,4980,4980,4980,4980,4980,4980,4980,4980,4980,4980,4980,4980,4868,4939,4852,4980,4980,4980,4980,4850,4854,4980,4980,4980,4980,4980,4980,4980,4980,4980,4980,4980,4980,4980,4980,4980,4980,4980,4980,
4980,4980,4980,4980,4980,4980,4980,4980,4980,4980,4980,4980,4980,4980,4980,4980,4980,4980,4980,4980,4980,4980,4980,4980,4980,4980,4980,4980,4980,4850,4940,4995,4921,4887,5031,4888,4980,4980,4980,4980,4980,4980,4980,4980,4980,4980,4980,4980,4980,4980,4980,4980,4980,4886,4922,4939,4852,4980,4980,4850,4961,4888,4980,4980,4980,4980,4980,4980,4980,4980,4980,4980,4980,4980,4980,4980,4980,4980,4980,4980,
4980,4980,4980,4980,4980,4980,4980,4980,4980,4980,4980,4980,4980,4980,4980,4980,4980,4980,4980,4980,4980,4980,4980,4980,4980,4980,4980,4980,4980,5049,4869,4921,4888,4980,4980,4980,4980,4980,4980,4980,4980,4980,4980,4980,4980,4980,4980,4980,4850,4852,4980,4980,4980,4728,4886,4922,4939,5052,5051,4961,4888,4980,4980,4980,4980,4980,4980,4980,4980,4980,4980,4980,4980,4980,4980,4980,4980,4980,4980,4980,
4980,4980,4980,4980,4980,4980,4980,4980,4980,4980,4980,4980,4980,4980,4980,4980,4980,4980,4980,4980,4980,4980,4980,4980,4980,4980,4980,4980,4980,4886,5029,4888,4980,4980,4980,4980,4980,4980,4980,4980,4980,4980,4980,4980,4980,4980,4980,4850,4940,4939,4852,4980,4980,4728,4980,4886,4922,4995,4994,5032,4980,4980,4980,4980,4980,4980,4980,4980,4980,4980,4980,4980,4980,4980,4980,4980,4980,4980,4980,4980,
4980,4980,4980,4980,4980,4980,4980,4980,4980,4980,4980,4980,4980,4980,4980,4980,4980,4980,4980,4980,4980,4980,4980,4980,4980,4980,4980,4980,4980,4980,4980,4980,4980,4980,4980,4980,4980,4980,4980,4980,4980,4980,4980,4980,4980,4980,4980,4886,4922,4997,4939,5051,4852,4728,4980,4728,5047,5013,4997,5033,4980,4980,4980,4980,4980,4980,4980,4980,4980,4980,4980,4980,4980,4980,4980,4980,4980,4980,4980,4980,
4980,4980,4980,4980,4980,4980,4980,4980,4980,4980,4980,4980,4980,4980,4980,4980,4980,4980,4980,4980,4980,4980,4980,4980,4980,4980,4980,4980,4980,4980,4980,4980,4980,4980,4980,4980,4980,4980,4980,4980,4980,4980,4980,4980,4980,4980,4980,4980,4886,4922,4993,5013,4939,5052,5052,5050,4940,4996,4921,4888,4980,4980,4980,4980,4980,4980,4980,4980,4980,4980,4980,4980,4980,4980,4980,4980,4980,4980,4980,4980,
4980,4980,4980,4980,4980,4980,4980,4980,4980,4980,4980,4980,4980,4980,4980,4980,4980,4980,4980,4980,4980,4980,4980,4980,4980,4980,4980,4980,4980,4980,4980,4980,4980,4980,4980,4980,4980,4980,4980,4980,4980,4980,4980,4980,4980,4980,4980,4980,4980,4886,4887,4922,4996,4995,5013,4995,4996,5013,4870,4728,4980,4980,4980,4980,4980,4980,4980,4980,4980,4980,4980,4980,4980,4980,4980,4980,4980,4980,4980,4980,
4980,4980,4980,4980,4980,4980,4980,4980,4980,4980,4980,4980,4980,4980,4980,4980,4980,4980,4980,4980,4980,4980,4980,4980,4980,4980,4980,4980,4980,4980,4980,4980,4980,4980,4980,4980,4980,4980,4980,4980,4980,4980,4980,4980,4980,4980,4980,4980,4980,4980,4980,4886,4887,4887,4922,4998,5011,4921,4888,4728,4980,4980,4980,4980,4980,4980,4980,4980,4980,4980,4980,4980,4980,4980,4980,4980,4980,4980,4980,4980,
4980,4980,4980,4980,4980,4980,4980,4980,4980,4980,4980,4980,4980,4980,4980,4980,4980,4980,4980,4980,4980,4980,4980,4980,4980,4980,4980,4980,4980,4980,4980,4980,4980,4980,4980,4980,4980,4980,4980,4980,4980,4980,4980,4980,4980,4980,4980,4980,4980,4980,4980,4980,4980,4728,4868,5011,4997,5034,4980,4980,4980,4980,4980,4980,4980,4980,4980,4980,4980,4980,4980,4980,4980,4980,4980,4980,4980,4980,4980,4980,
4980,4980,4980,4980,4980,4980,4980,4980,4980,4980,4980,4980,4980,4980,4980,4980,4980,4980,4980,4980,4980,4980,4980,4980,4980,4980,4980,4980,4980,4980,4980,4980,4980,4980,4980,4980,4980,4980,4980,4980,4980,4980,4980,4980,4980,4980,4980,4980,4980,4980,4980,4980,4980,4980,5049,4995,4921,4888,4980,4980,4980,4980,4980,4980,4980,4980,4980,4980,4980,4980,4980,4980,4980,4980,4980,4980,4980,4980,4980,4980,
4980,4980,4980,4980,4980,4980,4980,4980,4980,4980,4980,4980,4980,4980,4980,4980,4980,4980,4980,4980,4980,4980,4980,4980,4980,4980,4980,4980,4980,4980,4980,4980,4980,4980,4980,4980,4980,4980,4980,4980,4980,4980,4980,4980,4980,4980,4980,4980,4980,4980,4980,4980,4980,4850,4940,4993,5032,4980,4980,4980,4980,4980,4980,4980,4980,4980,4980,4980,4980,4980,4980,4980,4980,4980,4980,4980,4980,4980,4980,4980,
4980,4980,4980,4980,4980,4980,4980,4980,4980,4980,4980,4980,4980,4980,4980,4980,4980,4980,4980,4980,4980,4980,4980,4980,4980,4980,4980,4980,4980,4980,4980,4980,4980,4980,4980,4980,4980,4980,4980,4980,4980,4980,4980,4980,4980,4980,4980,4980,4980,4980,4980,4980,4980,5047,4869,4921,4888,4980,4980,4980,4980,4980,4980,4980,4980,4980,4980,4980,4980,4980,4980,4980,4980,4980,4980,4980,4980,4980,4980,4980,
4980,4980,4980,4980,4980,4980,4980,4980,4980,4980,4980,4980,4980,4980,4980,4980,4980,4980,4980,4980,4980,4980,4980,4980,4980,4980,4980,4980,4980,4980,4980,4980,4980,4980,4980,4980,4980,4980,4980,4980,4980,4980,4980,4980,4980,4980,4980,4980,4980,4980,4980,4980,4850,4940,4995,4870,4728,4728,4980,4980,4980,4980,4980,4980,4980,4980,4980,4980,4980,4980,4980,4980,4980,4980,4980,4980,4980,4980,4980,4980,
4980,4980,4980,4980,4980,4980,4980,4980,4980,4980,4980,4980,4980,4980,4980,4980,4980,4980,4980,4980,4980,4980,4980,4980,4980,4980,4980,4980,4980,4980,4980,4980,4980,4980,4980,4980,4980,4980,4980,4980,4980,4980,4980,4980,4980,4980,4980,4980,4980,4980,4980,4980,5049,5013,4869,5033,4728,4728,4980,4980,4980,4980,4980,4980,4980,4980,4980,4980,4980,4980,4980,4980,4980,4980,4980,4980,4980,4980,4980,4980,
4980,4980,4980,4980,4980,4980,4980,4980,4980,4980,4980,4980,4980,4980,4980,4980,4980,4980,4980,4980,4980,4980,4980,4980,4980,4980,4980,4980,4980,4980,4980,4980,4980,4980,4980,4980,4980,4980,4980,4980,4980,4980,4980,4980,4980,4980,4980,4980,4980,4980,4980,4980,5047,4996,5012,5033,4980,4980,4980,4980,4980,4980,4980,4980,4980,4980,4980,4980,4980,4980,4980,4980,4980,4980,4980,4980,4980,4980,4980,4980,
4980,4980,4980,4980,4980,4980,4980,4980,4980,4980,4980,4980,4980,4980,4980,4980,4980,4980,4980,4980,4980,4980,4980,4980,4980,4980,4980,4980,4980,4980,4980,4980,4980,4980,4980,4980,4980,4980,4980,4980,4980,4980,4980,4980,4980,4980,4980,4980,4980,4980,4980,4980,4868,4995,4998,5032,4980,4980,4980,4980,4980,4980,4980,4980,4980,4980,4980,4980,4980,4980,4980,4980,4980,4980,4980,4980,4980,4980,4980,4980,
4980,4980,4980,4980,4980,4980,4980,4980,4980,4980,4980,4980,4980,4980,4980,4980,4980,4980,4980,4980,4980,4980,4980,4980,4980,4980,4980,4980,4980,4980,4980,4980,4980,4980,4980,4980,4980,4980,4980,4980,4980,4980,4980,4980,4980,4980,4980,4980,4980,4980,4980,4980,5048,4995,5011,4870,4980,4980,4980,4980,4980,4980,4980,4980,4980,4980,4980,4980,4980,4980,4980,4980,4980,4980,4980,4980,4980,4980,4980,4980,
4980,4980,4980,4980,4980,4980,4980,4980,4980,4980,4980,4980,4980,4980,4980,4980,4980,4980,4980,4980,4980,4980,4980,4980,4980,4980,4980,4980,4980,4980,4980,4980,4980,4980,4980,4980,4980,4980,4980,4980,4980,4980,4980,4980,4980,4980,4980,4980,4980,4980,4980,4980,4886,4922,5011,4870,4980,4980,4980,4980,4980,4980,4980,4980,4980,4980,4980,4980,4980,4980,4980,4980,4980,4980,4980,4980,4980,4980,4980,4980,
4980,4980,4980,4980,4980,4980,4980,4980,4980,4980,4980,4980,4980,4980,4980,4980,4980,4980,4980,4980,4980,4980,4980,4980,4980,4980,4980,4980,4980,4980,4980,4980,4980,4980,4980,4980,4980,4980,4980,4980,4980,4980,4980,4980,4980,4980,4980,4980,4980,4980,4980,4980,4980,5048,4993,4939,4852,4980,4980,4980,4980,4980,4980,4980,4980,4980,4980,4980,4980,4980,4980,4980,4980,4980,4980,4980,4980,4980,4980,4980,
4980,4980,4980,4980,4980,4980,4980,4980,4980,4980,4980,4980,4980,4980,4980,4980,4980,4980,4980,4980,4980,4980,4980,4980,4980,4980,4980,4980,4980,4980,4980,4980,4980,4980,4980,4980,4980,4980,4980,4980,4980,4980,4980,4980,4980,4980,4980,4980,4980,4980,4980,4980,4728,4886,4922,4869,5034,4980,4980,4980,4980,4980,4980,4980,4980,4980,4980,4980,4980,4980,4980,4980,4980,4980,4980,4980,4980,4980,4980,4980,
4980,4980,4980,4980,4980,4980,4980,4980,4980,4980,4980,4980,4980,4980,4980,4980,4980,4980,4980,4980,4980,4980,4980,4980,4980,4980,4980,4980,4980,4980,4980,4980,4980,4980,4980,4980,4980,4980,4980,4980,4980,4980,4980,4980,4980,4980,4980,4980,4980,4980,4980,4980,4980,4980,5049,4869,4939,4852,4980,4980,4980,4980,4980,4980,4980,4980,4980,4980,4980,4980,4980,4980,4980,4980,4980,4980,4980,4980,4980,4980,
4980,4980,4980,4980,4980,4980,4980,4980,4980,4980,4980,4980,4980,4980,4980,4980,4980,4980,4980,4980,4980,4980,4980,4980,4980,4980,4980,4980,4980,4980,4980,4980,4980,4980,4980,4980,4980,4980,4980,4980,4980,4980,4980,4980,4980,4980,4980,4980,4980,4980,4980,4980,4980,4980,4886,4922,4995,4939,4852,4980,4980,4980,4980,4980,4980,4980,4980,4980,4980,4980,4980,4980,4980,4980,4980,4980,4980,4980,4980,4980,
4980,4980,4980,4980,4980,4980,4980,4980,4980,4980,4980,4980,4980,4980,4980,4980,4980,4980,4980,4980,4980,4980,4980,4980,4980,4980,4980,4980,4980,4980,4980,4980,4980,4980,4980,4980,4980,4980,4980,4980,4980,4980,4980,4980,4980,4980,4980,4980,4980,4980,4980,4980,4980,4980,4728,4886,4922,4869,5034,4728,4980,4980,4980,4980,4980,4980,4980,4980,4980,4980,4980,4980,4980,4980,4980,4980,4980,4980,4980,4980,
4980,4980,4980,4980,4980,4980,4980,4980,4980,4980,4980,4980,4980,4980,4980,4980,4980,4980,4980,4980,4980,4980,4980,4980,4980,4980,4980,4980,4980,4980,4980,4980,4980,4980,4980,4980,4980,4980,4980,4980,4980,4980,4980,4980,4980,4980,4980,4980,4980,4980,4980,4980,4980,4980,4980,4728,4886,4922,4939,4852,4728,4980,4980,4980,4980,4980,4980,4980,4980,4980,4980,4980,4980,4980,4980,4980,4980,4980,4980,4980,
4980,4980,4980,4980,4980,4980,4980,4980,4980,4980,4980,4980,4980,4980,4980,4980,4980,4850,5051,4852,4980,4980,4980,4980,4980,4980,4980,4980,4980,4980,4980,4980,4980,4980,4980,4980,4980,4980,4980,4980,4980,4980,4980,4980,4980,4980,4980,4980,4980,4980,4980,4980,4980,4980,4980,4980,4980,5047,5013,5033,4728,4980,4980,4980,4980,4980,4980,4980,4980,4980,4980,4980,4980,4980,4980,4980,4980,4980,4980,4980,
4980,4980,4980,4980,4980,4980,4980,4980,4980,4980,4980,4980,4980,4980,4980,4980,4980,4886,4922,5032,4980,4980,4980,4980,4980,4980,4980,4980,4980,4980,4980,4980,4980,4980,4980,4980,4980,4980,4980,4980,4980,4980,4980,4980,4980,4980,4980,4980,4980,4980,4980,4980,4980,4980,4980,4728,4728,5049,4997,5033,4980,4980,4980,4980,4980,4980,4980,4980,4980,4980,4980,4980,4980,4980,4980,4980,4980,4980,4980,4980,
4980,4980,4980,4980,4980,4980,4980,4980,4980,4980,4980,4980,4980,4980,4980,4980,4980,4980,4886,4888,4980,4980,4980,4980,4980,4980,4980,4980,4980,4980,4980,4980,4980,4980,4980,4980,4980,4980,4980,4980,4980,4980,4980,4980,4980,4980,4980,4980,4980,4980,4980,4980,4980,4980,4980,4728,4980,5049,5012,5034,4980,4728,4980,4980,4980,4980,4980,4980,4980,4980,4980,4980,4980,4980,4980,4980,4980,4980,4980,4980,
4980,4980,4980,4980,4980,4980,4980,4980,4980,4980,4980,4980,4980,4980,4980,4980,4980,4980,4980,4980,4980,4980,4980,4980,4980,4980,4980,4980,4980,4980,4980,4980,4980,4980,4980,4980,4980,4980,4980,4980,4980,4980,4980,4980,4980,4980,4980,4980,4980,4980,4980,4980,4980,4728,4728,4980,4850,4940,4921,4888,4980,4728,4980,4980,4980,4980,4980,4980,4980,4980,4980,4980,4980,4980,4980,4980,4980,4980,4980,4980,
4980,4980,4980,4980,4980,4980,4980,4980,4980,4980,4980,4980,4980,4980,4980,4980,4980,4980,4980,4980,4980,4980,4980,4980,4980,4980,4980,4980,4980,4980,4980,4980,4980,4980,4980,4980,4980,4980,4980,4980,4980,4980,4980,4980,4980,4980,4980,4980,4980,4980,4980,4980,4980,4980,4980,4980,5047,4998,5033,4980,4980,4980,4980,4980,4980,4980,4980,4980,4980,4980,4980,4980,4980,4980,4980,4980,4980,4980,4980,4980,
4980,4980,4980,4980,4980,4980,4980,4980,4980,4980,4980,4980,4980,4980,4980,4980,4980,4850,4852,4980,4980,4980,4980,4980,4980,4980,4980,4980,4980,4980,4980,4980,4980,4980,4980,4980,4980,4980,4980,4980,4980,4980,4980,4980,4980,4980,4980,4980,4980,4980,4980,4980,4980,4728,4980,4850,4940,4921,4888,4980,4980,4980,4980,4980,4980,4980,4980,4980,4980,4980,4980,4980,4980,4980,4980,4980,4980,4980,4980,4980,
4980,4980,4980,4980,4980,4980,4980,4980,4980,4980,4980,4980,4980,4980,4980,4980,4980,4886,4962,4852,4980,4980,4980,4980,4980,4980,4980,4980,4980,4980,4980,4980,4980,4980,4980,4980,4980,4980,4980,4980,4980,4980,4980,4980,4980,4980,4980,4980,4980,4980,4980,4980,4980,4728,4850,4940,4921,4888,4980,4980,4980,4980,4980,4980,4980,4980,4980,4980,4980,4980,4980,4980,4980,4980,4980,4980,4980,4980,4980,4980,
4980,4980,4980,4980,4980,4980,4980,4980,4980,4980,4980,4980,4980,4980,4980,4980,4980,4980,4886,4888,4980,4980,4980,4980,4980,4980,4980,4980,4980,4980,4980,4980,4980,4980,4980,4980,4980,4980,4980,4980,4980,4980,4980,4980,4980,4980,4980,4980,4980,4980,4980,4980,4850,5052,4940,4921,4888,4980,4980,4980,4980,4980,4980,4980,4980,4980,4980,4980,4980,4980,4980,4980,4980,4980,4980,4980,4980,4980,4980,4980,
4980,4980,4980,4980,4980,4980,4980,4980,4980,4980,4980,4980,4980,4980,4980,4980,4850,5051,4852,4980,4980,4980,4980,4980,4980,4980,4980,4980,4980,4980,4980,4980,4980,4980,4980,4980,4980,4980,4980,4980,4980,4980,4980,4980,4980,4980,4980,4850,4851,5051,5051,5051,4940,4996,4921,4888,4980,4980,4980,4980,4980,4980,4980,4980,4980,4980,4980,4980,4980,4980,4980,4980,4980,4980,4980,4980,4980,4980,4980,4980,
4980,4980,4980,4980,4980,4980,4980,4980,4980,4980,4980,4980,4980,4980,4980,4980,5049,4921,4888,4980,4980,4980,4980,4980,4980,4850,4852,4980,4980,4980,4980,4980,4980,4980,4980,4980,4980,4980,4980,4980,4980,4980,4980,4980,4980,4980,4850,4940,5012,4869,4997,4995,4998,4921,4888,4980,4980,4980,4980,4980,4980,4980,4980,4980,4980,4980,4980,4980,4980,4980,4980,4980,4980,4980,4980,4980,4980,4980,4980,4980,
4980,4980,4980,4980,4980,4980,4980,4980,4980,4980,4980,4980,4980,4980,4980,4980,4886,4962,4852,4980,4980,4980,4980,4980,4980,4886,4888,4980,4980,4850,5051,5051,5051,4852,4980,4980,4980,4850,5051,4851,5052,5050,4851,4851,4851,5052,4940,4921,5030,5029,4922,5013,4996,5032,4980,4980,4980,4980,4980,4980,4980,4980,4980,4980,4980,4980,4980,4980,4980,4980,4980,4980,4980,4980,4980,4980,4980,4980,4980,4980,
4980,4980,4980,4980,4980,4980,4980,4980,4980,4980,4980,4980,4980,4980,4980,4980,4980,4886,4888,4980,4980,4980,4980,4980,4980,4980,4980,4980,4850,4961,5029,5031,4922,4870,4980,4980,4980,5047,4993,4996,4994,5011,4995,5012,4997,4869,4921,4888,4980,4980,4868,5012,5011,5034,4980,4980,4980,4980,4980,4980,4980,4980,4980,4980,4980,4980,4980,4980,4980,4980,4980,4980,4980,4980,4980,4980,4980,4980,4980,4980,
4980,4980,4980,4980,4980,4980,4980,4980,4980,4980,4980,4980,4980,4980,4980,4980,4980,4980,4980,4850,4851,4852,4980,4980,4980,4980,4980,4980,4886,4888,4980,4980,4886,4888,4980,4980,4980,4886,5029,5030,5031,5029,5029,5031,5030,5031,4888,4980,4980,4980,4886,4922,4995,5034,4980,4980,4980,4980,4980,4980,4980,4980,4980,4980,4980,4980,4980,4980,4980,4980,4980,4980,4980,4980,4980,4980,4980,4980,4980,4980,
4980,4980,4980,4980,4980,4980,4980,4980,4980,4980,4980,4980,4980,4980,4980,4980,4980,4980,4980,4886,5031,4962,4852,4980,4980,4850,5050,4852,4980,4980,4980,4980,4980,4980,4980,4980,4980,4980,4980,4980,4980,4980,4980,4980,4980,4980,4980,4728,4980,4980,4980,5047,4869,5033,4728,4980,4980,4980,4980,4980,4980,4980,4980,4980,4980,4980,4980,4980,4980,4980,4980,4980,4980,4980,4980,4980,4980,4980,4980,4980,
4980,4980,4980,4980,4980,4980,4980,4980,4980,4980,4980,4980,4980,4980,4980,4980,4980,4980,4980,4980,4980,4886,4888,4980,4850,4961,5031,4888,4980,4980,4980,4980,4980,4980,4980,4980,4980,4980,4980,4980,4980,4980,4980,4980,4980,4980,4980,4980,4980,4980,4980,4886,4922,4939,4852,4980,4980,4980,4980,4980,4980,4980,4980,4980,4980,4980,4980,4980,4980,4980,4980,4980,4980,4980,4980,4980,4980,4980,4980,4980,
4980,4980,4980,4980,4980,4980,4980,4980,4980,4980,4980,4980,4980,4980,4980,4980,4980,4980,4980,4980,4980,4980,4980,4980,4886,4888,4980,4980,4980,4980,4980,4980,4980,4980,4980,4980,4980,4980,4980,4980,4980,4980,4980,4980,4980,4980,4980,4980,4980,4980,4980,4980,4868,4998,5032,4980,4980,4980,4980,4980,4980,4980,4980,4980,4980,4980,4980,4980,4980,4980,4980,4980,4980,4980,4980,4980,4980,4980,4980,4980,
4980,4980,4980,4980,4980,4980,4980,4980,4980,4980,4980,4980,4980,4980,4980,4980,4980,4980,4980,4980,4980,4980,4980,4980,4980,4980,4980,4980,4980,4980,4980,4980,4980,4980,4980,4980,4980,4980,4980,4980,4980,4980,4980,4980,4980,4980,4980,4980,4980,4980,4980,4980,5047,5013,5032,4980,4980,4980,4980,4980,4980,4980,4980,4980,4980,4980,4980,4980,4980,4980,4980,4980,4980,4980,4980,4980,4980,4980,4980,4980,
4980,4980,4980,4980,4980,4980,4980,4980,4980,4980,4980,4980,4980,4980,4980,4980,4980,4980,4980,4980,4980,4980,4980,4980,4980,4980,4980,4980,4980,4980,4980,4980,4980,4980,4980,4980,4980,4980,4980,4980,4980,4980,4980,4980,4980,4980,4980,4980,4980,4980,4980,4980,4886,4922,4939,4852,4980,4980,4980,4980,4980,4980,4980,4980,4980,4980,4980,4980,4980,4980,4980,4980,4980,4980,4980,4980,4980,4980,4980,4980,
4980,4980,4980,4980,4980,4980,4980,4980,4980,4980,4980,4980,4980,4980,4980,4980,4980,4980,4980,4980,4980,4980,4980,4980,4980,4980,4980,4980,4850,4852,4980,4980,4980,4980,4980,4980,4980,4980,4980,4980,4980,4980,4980,4980,4980,4980,4980,4980,4980,4980,4980,4980,4980,4868,4998,5033,4980,4980,4980,4980,4980,4980,4980,4980,4980,4980,4980,4980,4980,4980,4980,4980,4980,4980,4980,4980,4980,4980,4980,4980,
4980,4980,4980,4980,4980,4980,4980,4980,4980,4980,4980,4980,4980,4980,4980,4980,4980,4980,4980,4980,4980,4980,4980,4980,4980,4980,4980,4980,5048,5034,4980,4980,4980,4980,4980,4980,4980,4980,4980,4980,4980,4980,4980,4980,4980,4980,4980,4980,4980,4980,4980,4980,4728,5047,4993,5034,4980,4980,4980,4980,4980,4980,4980,4980,4980,4980,4980,4980,4980,4980,4980,4980,4980,4980,4980,4980,4980,4980,4980,4980,
4980,4980,4980,4980,4980,4980,4980,4980,4980,4980,4980,4980,4980,4980,4980,4980,4980,4980,4980,4980,4980,4980,4980,4980,4980,4980,4980,4850,4961,4888,4980,4980,4980,4980,4980,4980,4980,4980,4980,4980,4980,4980,4980,4980,4980,4980,4980,4980,4980,4980,4980,4980,4728,5048,4869,5034,4980,4980,4980,4980,4980,4980,4980,4980,4980,4980,4980,4980,4980,4980,4980,4980,4980,4980,4980,4980,4980,4980,4980,4980,
4980,4980,4980,4980,4980,4980,4980,4980,4980,4980,4980,4980,4980,4980,4980,4980,4980,4980,4980,4980,4980,4980,4980,4980,4980,4980,4980,4886,4888,4980,4980,4980,4980,4980,4980,4980,4980,4980,4980,4980,4980,4980,4980,4980,4980,4980,4980,4980,4980,4980,4980,4980,4980,5048,4995,5033,4980,4980,4980,4980,4980,4980,4980,4980,4980,4980,4980,4980,4980,4980,4980,4980,4980,4980,4980,4980,4980,4980,4980,4980,
4980,4980,4980,4980,4980,4980,4980,4980,4980,4980,4980,4980,4980,4980,4980,4980,4980,4980,4980,4980,4980,4980,4980,4980,4980,4980,4980,4980,4980,4980,4980,4980,4980,4980,4980,4980,4980,4980,4980,4980,4980,4980,4980,4980,4980,4980,4980,4980,4980,4980,4980,4980,4980,4868,4994,4870,4980,4980,4980,4980,4980,4980,4980,4980,4980,4980,4980,4980,4980,4980,4980,4980,4980,4980,4980,4980,4980,4980,4980,4980,
4980,4980,4980,4980,4980,4980,4980,4980,4980,4980,4980,4980,4980,4980,4980,4980,4980,4980,4980,4980,4980,4980,4980,4980,4980,4980,4980,4980,4980,4980,4980,4980,4980,4980,4980,4980,4980,4980,4980,4980,4980,4980,4980,4980,4980,4980,4980,4980,4980,4980,4980,4980,4980,5049,4997,5033,4980,4980,4980,4980,4980,4980,4980,4980,4980,4980,4980,4980,4980,4980,4980,4980,4980,4980,4980,4980,4980,4980,4980,4980,
4980,4980,4980,4980,4980,4980,4980,4980,4980,4980,4980,4980,4980,4980,4980,4980,4980,4980,4980,4980,4980,4980,4980,4980,4980,4980,4980,4980,4980,4980,4980,4980,4980,4980,4980,4980,4980,4980,4980,4980,4980,4980,4980,4980,4980,4980,4980,4980,4980,4980,4980,4980,4980,5049,5013,5032,4980,4980,4980,4980,4980,4980,4980,4980,4980,4980,4980,4980,4980,4980,4980,4980,4980,4980,4980,4980,4980,4980,4980,4980,
4980,4980,4980,4980,4980,4980,4980,4980,4980,4980,4980,4980,4980,4980,4980,4980,4980,4980,4980,4980,4980,4980,4980,4980,4980,4980,4980,4980,4980,4980,4980,4980,4980,4980,4980,4980,4980,4980,4980,4980,4980,4980,4980,4980,4980,4980,4980,4980,4980,4980,4980,4980,4980,5047,5013,5034,4980,4980,4980,4980,4980,4980,4980,4980,4980,4980,4980,4980,4980,4980,4980,4980,4980,4980,4980,4980,4980,4980,4980,4980,
4980,4980,4980,4980,4980,4980,4980,4980,4980,4980,4980,4980,4980,4980,4980,4980,4980,4980,4980,4980,4980,4980,4980,4980,4980,4980,4980,4980,4980,4980,4980,4980,4980,4980,4980,4980,4980,4980,4980,4980,4980,4980,4980,4980,4980,4980,4980,4980,4980,4980,4980,4980,4980,4886,5030,4888,4980,4980,4980,4980,4980,4980,4980,4980,4980,4980,4980,4980,4980,4980,4980,4980,4980,4980,4980,4980,4980,4980,4980,4980,
4980,4980,4980,4980,4980,4980,4980,4980,4980,4980,4980,4980,4980,4980,4980,4980,4980,4980,4980,4980,4980,4980,4980,4980,4980,4980,4980,4980,4980,4980,4980,4980,4980,4980,4980,4980,4980,4980,4980,4980,4980,4980,4980,4980,4980,4980,4980,4980,4980,4980,4980,4980,4980,4980,4980,4980,4980,4980,4980,4980,4980,4980,4980,4980,4980,4980,4980,4980,4980,4980,4980,4980,4980,4980,4980,4980,4980,4980,4980,4980,
4980,4980,4980,4980,4980,4980,4980,4980,4980,4980,4980,4980,4980,4980,4980,4980,4980,4980,4980,4980,4980,4980,4980,4980,4980,4980,4980,4980,4980,4980,4980,4980,4980,4980,4980,4980,4980,4980,4980,4980,4980,4980,4980,4980,4980,4980,4980,4980,4980,4980,4980,4980,4980,4980,4980,4980,4980,4980,4980,4980,4980,4980,4980,4980,4980,4980,4980,4980,4980,4980,4980,4980,4980,4980,4980,4980,4980,4980,4980,4980,
4980,4980,4980,4980,4980,4980,4980,4980,4980,4980,4980,4980,4980,4980,4980,4980,4980,4980,4980,4980,4980,4980,4980,4980,4980,4980,4980,4980,4980,4980,4980,4980,4980,4980,4980,4980,4980,4980,4980,4980,4980,4980,4980,4980,4980,4980,4980,4980,4980,4980,4980,4980,4980,4980,4980,4980,4980,4980,4980,4980,4980,4980,4980,4980,4980,4980,4980,4980,4980,4980,4980,4980,4980,4980,4980,4980,4980,4980,4980,4980,
4980,4980,4980,4980,4980,4980,4980,4980,4980,4980,4980,4980,4980,4980,4980,4980,4980,4980,4980,4980,4980,4980,4980,4980,4980,4980,4980,4980,4980,4980,4980,4980,4980,4980,4980,4980,4980,4980,4980,4980,4980,4980,4980,4980,4980,4980,4980,4980,4980,4980,4980,4980,4980,4980,4980,4980,4980,4980,4980,4980,4980,4980,4980,4980,4980,4980,4980,4980,4980,4980,4980,4980,4980,4980,4980,4980,4980,4980,4980,4980
</data>
 </layer>
 <group id="51" name="Group 1" opacity="0.25">
  <layer id="50" name="Shadows" width="80" height="80">
   <data encoding="csv">
8522,8522,8522,8522,8522,8522,8522,8522,8518,8528,8519,8522,8522,8522,8522,8522,8518,8528,8528,8528,8519,8522,8522,8522,8522,8522,8522,8522,8522,8523,0,0,0,0,0,0,0,0,0,0,0,0,0,0,0,0,0,0,0,0,0,0,0,0,0,0,8515,8516,8516,8516,8516,8516,8517,0,0,0,8527,8528,8528,8528,8528,8528,8519,8522,8522,8522,8522,8522,8522,8522,
8522,8522,8522,8522,8522,8522,8522,8518,8529,0,8527,8519,8522,8522,8522,8518,8529,0,0,0,8527,8528,8528,8528,8528,8528,8528,8528,8528,8529,0,0,0,0,0,0,0,0,0,0,0,0,0,0,0,0,8515,8516,8517,8515,8516,8516,8516,8516,8516,8516,8525,8522,8522,8522,8522,8522,8524,8516,8516,8516,8516,8516,8516,8517,0,0,8527,8519,8522,8522,8522,8522,8522,8522,
8522,8522,8522,8522,8522,8522,8518,8529,0,0,0,8527,8528,8528,8528,8529,0,0,0,0,0,0,0,0,0,0,0,0,0,0,0,0,0,0,0,0,0,0,0,0,0,0,8515,8516,8516,8516,8525,8522,8524,8525,8522,8522,8522,8522,8522,8522,8522,8522,8522,8522,8522,8522,8522,8522,8522,8522,8522,8522,8522,8524,8516,8516,8516,8530,8528,8528,8519,8522,8522,8522,
8528,8519,8522,8522,8522,8522,8524,8516,8516,8516,8517,0,0,0,0,0,0,0,0,8515,8516,8516,8516,8516,8516,8516,8516,8516,8516,8516,8516,8516,8516,8516,8516,8516,8516,8516,8516,8516,8516,8516,8525,8522,8522,8522,8522,8522,8522,8518,8528,8528,8528,8528,8528,8528,8528,8528,8528,8528,8528,8528,8519,8522,8522,8522,8518,8528,8519,8522,8522,8522,8522,8523,0,0,8527,8519,8522,8522,
0,8527,8528,8519,8522,8522,8522,8522,8522,8522,8524,8516,8516,8516,8516,8516,8516,8516,8516,8525,8522,8522,8522,8522,8522,8522,8522,8522,8522,8522,8522,8522,8522,8522,8522,8522,8522,8522,8522,8522,8522,8518,8528,8528,8528,8528,8528,8528,8528,8529,0,8515,8517,0,0,0,0,0,0,0,8515,8516,8525,8518,8528,8519,8524,8516,8525,8522,8522,8522,8522,8524,8516,8516,8517,8527,8519,8522,
0,0,0,8521,8522,8522,8522,8522,8518,8528,8528,8528,8528,8528,8528,8528,8528,8528,8528,8519,8518,8528,8528,8528,8528,8528,8528,8528,8528,8528,8528,8528,8528,8528,8528,8528,8528,8528,8528,8528,8528,8529,0,0,0,0,0,0,0,0,0,8521,8523,0,0,0,0,0,0,0,8521,8522,8522,8523,0,8527,8528,8528,8528,8528,8519,8522,8522,8522,8522,8522,8523,0,8521,8522,
8516,8516,8516,8525,8522,8522,8522,8522,8524,8517,0,0,0,0,0,0,0,0,0,8527,8529,0,0,0,0,0,0,0,0,0,0,0,0,0,0,0,0,0,0,8515,8516,8517,0,0,0,0,0,8515,8516,8516,8516,8525,8524,8516,8516,8516,8516,8517,0,0,8527,8519,8518,8529,0,0,0,0,0,0,8521,8522,8522,8522,8522,8522,8524,8516,8530,8528,
8522,8522,8522,8522,8522,8522,8522,8522,8522,8523,0,0,0,0,8515,8516,8516,8516,8516,8516,8516,8517,0,0,0,0,0,0,0,0,0,0,0,0,0,0,0,0,0,8521,8522,8524,8517,0,0,0,0,8521,8522,8522,8522,8522,8522,8518,8528,8528,8528,8529,0,0,0,8521,8524,8516,8516,8516,8516,8517,0,0,8521,8522,8522,8522,8522,8522,8522,8522,8523,0,
8522,8522,8522,8522,8522,8522,8522,8518,8519,8523,0,0,0,0,8527,8528,8519,8522,8522,8522,8522,8523,0,0,0,0,0,0,0,0,8515,8516,8516,8517,0,0,0,0,0,8521,8522,8522,8523,0,0,0,0,8527,8519,8522,8522,8518,8519,8524,8516,8516,8516,8516,8517,0,0,8521,8522,8522,8522,8522,8522,8523,0,0,8521,8522,8522,8522,8522,8522,8522,8522,8523,0,
8522,8522,8522,8522,8522,8518,8528,8529,8521,8523,0,0,0,0,0,0,8527,8519,8522,8522,8522,8523,0,0,0,8515,8517,0,0,8515,8525,8522,8522,8523,0,0,0,0,0,8521,8522,8518,8529,0,0,0,0,0,8521,8522,8518,8529,8521,8522,8522,8522,8522,8518,8529,0,8515,8525,8522,8522,8522,8522,8522,8523,0,0,8527,8519,8522,8522,8522,8522,8522,8522,8524,8516,
8522,8522,8522,8522,8518,8529,0,0,8521,8524,8516,8516,8516,8517,0,0,0,8521,8522,8522,8522,8523,0,0,0,8521,8524,8516,8516,8525,8522,8518,8528,8531,8516,8516,8516,8517,0,8527,8519,8524,8516,8516,8516,8516,8516,8516,8525,8522,8523,0,8527,8528,8528,8528,8519,8524,8516,8516,8525,8522,8522,8522,8522,8522,8522,8523,0,0,0,8521,8522,8522,8522,8522,8522,8522,8522,8522,
8522,8522,8522,8522,8524,8516,8517,0,8521,8522,8522,8522,8522,8523,0,8515,8516,8525,8522,8522,8522,8524,8516,8516,8517,8521,8522,8522,8522,8522,8522,8523,0,8521,8522,8522,8522,8523,0,0,8521,8522,8522,8522,8522,8522,8522,8522,8522,8518,8529,0,0,0,0,0,8521,8522,8522,8522,8522,8522,8522,8522,8522,8522,8522,8523,0,0,0,8521,8522,8518,8528,8519,8522,8522,8522,8522,
8522,8522,8522,8522,8522,8522,8524,8517,8521,8522,8522,8522,8522,8524,8516,8525,8522,8522,8522,8522,8518,8528,8528,8519,8523,8527,8528,8528,8528,8528,8519,8523,0,8527,8528,8528,8528,8529,0,0,8527,8528,8528,8528,8528,8528,8528,8528,8528,8529,0,0,0,0,0,0,8527,8528,8528,8528,8528,8528,8519,8522,8518,8528,8528,8529,0,0,0,8527,8528,8529,8515,8525,8522,8522,8522,8522,
8522,8522,8522,8522,8522,8522,8522,8524,8525,8522,8522,8522,8522,8522,8522,8522,8522,8522,8522,8518,8529,0,0,8521,8523,0,0,0,0,0,8521,8523,0,0,0,0,0,0,0,0,0,0,0,0,0,0,0,0,0,0,0,0,0,0,0,0,0,0,0,0,0,0,8527,8528,8529,0,0,0,0,0,0,0,0,0,8521,8522,8522,8522,8522,8522,
8522,8522,8522,8522,8518,8528,8519,8522,8522,8518,8528,8528,8528,8528,8528,8528,8528,8528,8528,8529,0,0,0,8521,8524,8516,8516,8516,8516,8516,8525,8523,0,0,0,0,0,0,0,0,0,0,0,0,0,0,0,0,0,0,0,0,0,0,0,0,0,0,0,0,0,0,0,0,0,0,0,0,0,0,0,8515,8516,8517,8521,8522,8522,8522,8522,8522,
8519,8522,8522,8522,8523,0,8521,8522,8518,8529,0,0,0,0,0,0,0,0,0,0,0,0,0,8527,8519,8522,8522,8522,8522,8522,8522,8523,0,0,0,0,0,0,0,0,0,0,0,0,0,0,0,0,0,0,0,0,0,0,0,0,0,0,0,0,0,0,0,0,0,0,0,0,0,0,0,8527,8519,8523,8527,8528,8519,8522,8522,8522,
8525,8522,8522,8522,8523,0,8521,8522,8523,0,0,0,0,0,0,0,0,0,0,0,0,0,0,0,8521,8522,8522,8522,8522,8522,8518,8529,0,0,0,0,0,0,0,0,0,0,0,0,0,0,0,0,0,0,0,0,0,0,0,0,0,0,0,0,0,0,0,0,0,0,0,0,0,0,0,0,8521,8523,0,8515,8525,8522,8522,8522,
8522,8522,8522,8522,8523,0,8521,8518,8529,0,0,0,0,0,0,0,0,0,0,0,0,0,0,0,8527,8528,8528,8528,8528,8528,8529,0,0,0,0,0,0,0,0,0,0,0,0,0,0,0,0,0,0,0,0,0,0,0,0,0,0,0,0,0,0,0,0,0,0,0,0,0,0,0,0,0,8521,8523,8515,8525,8522,8522,8522,8522,
8522,8522,8522,8522,8523,0,8521,8523,0,0,0,0,0,0,0,0,0,0,0,0,0,0,0,0,0,0,0,0,0,0,0,0,0,0,0,0,0,0,0,0,0,0,0,0,0,0,0,0,0,0,0,0,0,0,0,0,0,0,0,0,0,0,8515,8516,8516,8516,8516,8516,8516,8516,8516,8516,8525,8523,8521,8522,8522,8522,8522,8522,
8522,8522,8522,8522,8523,0,8527,8529,0,0,0,0,0,0,0,0,0,0,0,0,0,0,0,0,0,0,0,0,0,0,0,0,0,0,0,0,0,8515,8517,0,0,0,0,0,0,0,0,0,0,0,0,0,0,0,0,0,0,0,0,0,0,0,8527,8519,8522,8522,8522,8522,8522,8522,8522,8522,8522,8523,8527,8528,8519,8522,8522,8522,
8522,8522,8522,8522,8523,0,0,0,0,0,0,0,0,0,0,0,0,0,0,0,0,0,0,0,0,0,0,0,0,0,0,0,0,0,0,0,0,8527,8529,0,0,0,0,0,0,0,0,0,0,0,0,0,0,0,0,0,0,0,0,0,0,0,0,8527,8528,8528,8528,8528,8528,8528,8528,8528,8528,8529,0,0,8527,8519,8522,8522,
8522,8522,8522,8522,8523,0,0,0,0,0,0,0,0,0,0,8515,8516,8516,8517,0,0,0,0,0,0,0,0,0,0,0,0,0,0,8515,8516,8516,8517,0,0,0,8515,8516,8516,8517,0,0,0,0,0,0,0,0,8515,8517,0,0,0,0,0,0,0,0,0,0,0,0,0,0,0,0,0,0,0,0,0,0,8515,8525,8522,8518,
8522,8522,8522,8522,8523,8515,8517,0,0,0,0,0,8515,8516,8516,8525,8522,8522,8524,8516,8516,8516,8516,8516,8516,8516,8517,0,0,0,0,0,8515,8525,8522,8522,8524,8517,0,8515,8525,8518,8528,8529,0,0,0,0,0,0,0,0,8521,8524,8517,0,0,0,0,0,0,0,0,0,0,0,0,0,0,8515,8516,8516,8517,0,0,0,8521,8522,8522,8524,
8522,8522,8522,8522,8523,8521,8523,0,0,0,0,0,8521,8522,8518,8528,8519,8522,8522,8518,8528,8528,8528,8528,8519,8522,8524,8517,0,0,0,0,8521,8522,8522,8522,8522,8523,0,8521,8518,8529,0,0,0,0,0,0,0,0,0,0,8521,8522,8523,0,8515,8517,8515,8516,8517,0,0,0,0,0,0,0,8515,8525,8522,8522,8523,0,0,0,8527,8519,8522,8522,
8518,8528,8528,8528,8529,8521,8523,0,0,0,0,0,8521,8518,8529,0,8527,8528,8528,8529,0,0,0,0,8527,8519,8522,8523,0,0,0,0,8527,8519,8522,8522,8522,8523,0,8521,8523,0,0,8515,8516,8516,8516,8517,0,0,0,0,8521,8522,8523,0,8521,8524,8525,8522,8523,0,0,0,0,0,0,0,8521,8522,8522,8522,8524,8516,8517,0,0,8521,8522,8522,
8523,0,0,0,0,8521,8523,0,0,0,8515,8516,8525,8523,0,0,0,0,0,0,0,0,0,0,0,8527,8519,8523,0,0,0,0,0,8527,8528,8528,8528,8529,0,8521,8523,0,0,8527,8528,8519,8522,8524,8516,8516,8516,8516,8525,8522,8523,0,8527,8528,8528,8528,8529,0,0,0,0,0,0,0,8521,8522,8522,8522,8522,8522,8523,0,0,8521,8522,8522,
8523,8515,8516,8516,8516,8525,8523,0,0,0,8521,8518,8528,8529,0,0,0,0,0,0,0,0,0,0,0,0,8527,8529,0,0,0,0,0,0,0,0,0,0,0,8521,8523,0,0,0,0,8527,8519,8522,8522,8522,8522,8522,8522,8522,8523,0,0,0,0,0,0,0,0,0,0,0,0,0,8521,8522,8522,8522,8522,8522,8523,8515,8516,8525,8522,8522,
8523,8521,8522,8522,8522,8522,8523,0,0,0,8521,8523,0,0,0,0,0,0,0,0,0,0,0,0,0,0,0,0,0,0,0,0,0,0,0,0,0,0,0,8521,8523,0,0,0,0,0,8527,8528,8528,8528,8528,8528,8528,8528,8529,0,0,0,0,0,0,0,0,0,8515,8516,8516,8516,8525,8522,8522,8522,8522,8522,8523,8521,8522,8522,8522,8522,
8523,8521,8522,8518,8528,8528,8529,0,0,0,8521,8523,0,0,0,0,0,0,0,0,0,0,0,0,0,0,0,0,0,0,0,0,0,0,0,0,0,0,0,8521,8523,0,0,0,0,0,8515,8517,0,0,0,0,0,0,0,0,0,0,0,0,0,0,0,0,8527,8519,8522,8522,8522,8522,8522,8522,8522,8522,8523,8521,8522,8522,8522,8522,
8523,8521,8518,8529,8515,8516,8516,8516,8516,8516,8525,8523,0,0,0,0,0,0,0,0,0,0,0,0,0,0,0,0,0,0,0,0,0,0,0,0,0,0,0,8521,8523,0,0,0,0,0,8521,8523,0,0,0,0,0,0,0,0,0,0,0,0,0,0,0,0,0,8527,8528,8528,8519,8522,8522,8518,8528,8528,8529,8521,8522,8522,8522,8522,
8523,8521,8523,0,8521,8522,8518,8528,8528,8528,8528,8529,0,0,0,0,0,0,0,0,0,0,0,0,0,0,0,0,0,0,0,0,0,0,0,0,0,0,0,8521,8524,8517,0,0,0,8515,8525,8523,0,0,0,0,0,0,0,0,0,0,0,0,0,0,0,0,0,0,0,0,8527,8519,8522,8523,0,0,8515,8525,8522,8522,8522,8522,
8523,8521,8523,0,8521,8518,8529,0,0,0,0,0,0,0,0,0,0,0,0,0,0,0,0,0,0,0,0,0,0,0,0,0,0,0,0,0,0,0,0,8521,8522,8524,8516,8516,8516,8525,8518,8529,0,0,0,0,0,0,0,0,0,0,0,0,0,0,0,0,0,0,0,0,0,8527,8528,8529,0,0,8521,8522,8522,8522,8522,8522,
8523,8521,8523,0,8521,8523,0,0,0,0,0,0,0,0,0,0,0,0,0,0,0,0,0,0,0,0,0,0,0,0,0,0,0,0,0,0,0,0,8515,8525,8522,8522,8518,8528,8528,8528,8529,0,0,0,0,0,0,0,0,0,0,0,0,0,0,0,0,0,0,0,8515,8516,8516,8516,8516,8517,0,0,8527,8528,8519,8522,8522,8522,
8523,8521,8523,0,8521,8523,0,0,0,0,0,0,0,0,0,0,0,0,0,0,0,0,0,0,0,0,0,8515,8516,8516,8517,0,0,0,0,0,0,0,8527,8528,8528,8528,8529,0,0,0,0,0,0,0,0,0,0,0,0,0,0,0,0,0,0,0,8515,8516,8516,8516,8525,8518,8528,8528,8528,8529,0,0,0,0,8527,8519,8522,8522,
8523,8521,8523,0,8521,8523,0,0,0,0,0,0,0,0,0,0,0,0,0,0,0,0,0,0,0,0,0,8527,8528,8528,8531,8517,0,0,0,0,0,0,0,0,0,0,0,0,8515,8516,8516,8516,8516,8517,0,0,0,0,0,0,0,0,0,0,0,0,8521,8518,8528,8528,8528,8529,0,0,0,0,0,0,0,0,0,8521,8522,8522,
8523,8521,8523,0,8521,8523,0,0,0,0,0,0,0,0,0,0,0,0,0,0,0,0,0,0,0,0,0,0,0,0,8527,8529,0,0,0,0,0,0,0,0,0,0,0,0,8527,8528,8528,8528,8528,8531,8516,8516,8517,0,0,0,0,0,8515,8516,8516,8516,8525,8523,0,0,0,0,0,0,0,0,0,0,0,0,0,8521,8522,8522,
8523,8521,8523,0,8521,8523,0,0,0,0,0,0,0,0,0,0,0,0,0,0,0,0,0,0,0,0,0,0,0,0,0,0,0,0,0,0,0,0,0,0,0,0,0,0,0,0,0,0,0,8527,8528,8528,8529,0,0,0,0,0,8527,8528,8528,8528,8528,8529,0,0,0,0,0,0,0,0,0,0,0,0,0,8521,8522,8522,
8523,8521,8523,0,8527,8529,8515,8517,0,0,0,0,0,0,0,0,0,0,0,0,0,0,0,0,0,0,0,0,0,0,0,0,0,0,0,0,0,0,0,0,0,0,0,0,0,0,8515,8517,0,0,0,0,0,0,0,0,0,0,0,0,0,0,0,0,0,0,0,0,0,0,0,0,0,0,0,0,0,8527,8519,8522,
8523,8521,8523,0,0,0,8521,8523,0,0,0,0,0,0,0,0,0,0,0,0,0,0,0,0,0,0,0,0,0,0,0,0,0,0,0,0,0,0,0,0,0,0,0,0,0,0,8521,8523,0,0,0,0,0,0,0,0,0,0,0,0,0,0,0,0,0,0,0,0,8515,8517,0,0,0,0,0,0,0,0,8527,8519,
8523,8521,8523,8515,8517,0,8521,8523,0,0,0,0,0,0,0,0,0,0,0,0,0,0,0,0,0,0,0,0,0,0,0,0,0,0,0,0,0,0,0,0,0,0,0,0,0,0,8521,8523,0,0,0,0,0,0,0,0,0,0,0,0,0,0,0,0,0,0,0,0,8521,8523,0,0,0,0,0,0,0,0,0,8527,
8523,8521,8524,8525,8523,0,8521,8523,0,0,0,0,0,0,0,0,0,0,0,0,0,0,0,0,0,0,0,0,0,0,0,0,0,0,0,0,0,0,0,0,0,0,0,8515,8517,0,8521,8523,0,0,0,0,0,0,0,0,0,0,0,0,0,0,0,0,0,0,0,0,8527,8531,8517,0,0,0,0,0,0,0,8515,8516,
8523,8527,8528,8519,8523,0,8521,8523,0,0,0,0,0,0,0,0,0,0,0,0,0,0,0,0,0,0,0,0,0,0,0,0,0,0,0,0,0,0,0,0,0,0,0,8521,8523,0,8521,8523,0,0,0,0,0,0,0,0,0,0,0,0,0,0,0,0,0,0,0,0,0,8521,8523,0,0,0,0,0,0,0,8521,8522,
8524,8516,8517,8521,8523,0,8521,8523,0,0,0,0,0,0,0,0,0,0,0,0,0,0,0,0,0,0,0,0,0,0,0,0,0,0,0,0,0,0,0,0,0,8515,8516,8525,8523,0,8521,8523,0,0,0,0,0,0,0,0,0,0,0,0,0,0,0,0,0,0,0,0,0,8521,8523,0,0,0,0,0,0,0,8521,8522,
8522,8522,8523,8521,8523,0,8521,8523,0,0,0,0,0,0,0,0,0,0,0,0,0,0,0,0,0,0,0,0,0,0,0,0,0,0,0,0,0,0,0,0,8515,8525,8518,8528,8529,0,8521,8523,0,0,0,0,0,0,0,0,0,0,0,0,8515,8517,0,0,0,0,0,0,0,8521,8523,0,0,0,0,0,0,0,8527,8519,
8522,8522,8523,8521,8523,0,8527,8529,0,0,8515,8517,0,0,0,0,0,0,0,0,0,0,0,0,0,0,0,0,0,0,0,0,0,0,0,0,0,0,0,0,8521,8518,8529,0,0,0,8521,8524,8516,8516,8516,8517,0,0,0,0,0,0,0,0,8527,8529,0,0,0,0,0,0,8515,8525,8523,0,0,0,0,0,0,0,8515,8525,
8522,8522,8523,8521,8523,0,0,0,0,0,8521,8523,0,0,0,0,0,0,0,0,0,0,0,0,0,0,0,0,0,0,0,0,0,0,0,0,0,0,0,0,8521,8523,0,8515,8516,8516,8525,8518,8528,8528,8519,8523,0,0,0,0,0,0,0,0,0,8515,8516,8517,0,0,0,0,8527,8528,8529,0,0,0,0,0,0,0,8521,8522,
8522,8522,8523,8521,8523,0,0,0,0,0,8521,8524,8517,0,0,0,0,0,0,0,0,0,0,0,0,0,0,0,0,0,0,0,0,0,0,0,0,0,0,0,8521,8523,0,8521,8522,8522,8522,8523,0,0,8521,8523,0,0,0,0,0,0,0,0,0,8527,8528,8531,8516,8516,8516,8516,8517,0,0,0,0,0,0,0,0,0,8521,8522,
8522,8522,8523,8521,8523,0,0,0,0,0,8521,8522,8524,8517,0,0,0,0,0,0,0,0,0,0,0,0,0,0,0,0,0,0,0,8515,8516,8517,0,0,0,0,8521,8523,0,8521,8518,8528,8528,8529,0,0,8521,8523,0,0,0,0,0,0,0,0,0,0,0,8527,8528,8528,8528,8528,8529,0,0,0,0,0,0,0,0,0,8527,8519,
8522,8522,8523,8527,8529,0,0,0,0,0,8521,8518,8528,8529,0,0,0,0,0,0,0,0,0,0,0,0,0,0,0,0,0,0,0,8527,8528,8531,8516,8516,8516,8516,8525,8523,0,8521,8523,0,0,0,0,0,8521,8523,0,0,0,0,0,0,0,0,0,0,0,0,0,0,0,0,0,0,0,0,0,0,0,0,0,0,0,8521,
8522,8522,8523,0,0,8515,8517,0,0,0,8521,8523,0,0,0,0,0,0,0,0,0,0,0,0,0,0,0,0,0,0,0,0,0,0,0,8527,8528,8528,8528,8528,8528,8529,0,8521,8523,0,0,0,0,0,8521,8523,0,0,0,0,0,0,0,0,0,0,0,0,0,0,0,0,0,0,0,0,0,0,0,0,0,0,8515,8525,
8522,8522,8524,8516,8517,8521,8523,0,0,0,8521,8523,0,0,0,0,0,0,0,0,0,0,0,0,0,0,0,0,0,0,0,0,0,0,0,0,0,0,0,0,0,0,0,8521,8523,0,0,0,0,0,8521,8523,0,0,0,0,0,0,0,0,0,0,0,0,0,0,0,0,0,0,0,0,0,0,0,0,0,0,8521,8522,
8522,8522,8522,8522,8523,8521,8523,0,0,0,8521,8523,0,0,0,0,0,0,0,0,0,0,0,0,0,8515,8516,8516,8516,8516,8517,0,0,0,0,0,0,0,0,0,0,0,0,8521,8523,0,0,0,0,0,8521,8523,0,0,0,0,0,0,0,0,0,0,0,0,0,0,0,0,0,0,0,0,0,0,0,0,0,0,8521,8522,
8522,8522,8522,8522,8523,8521,8523,0,8515,8516,8525,8523,0,0,0,0,0,0,0,0,0,0,0,0,0,8527,8528,8528,8528,8528,8529,0,0,0,0,0,0,0,0,0,0,0,0,8521,8523,0,0,0,0,0,8521,8523,0,0,0,0,0,0,0,0,0,0,0,0,0,0,0,0,0,0,0,0,0,0,0,0,0,0,8527,8519,
8522,8522,8522,8522,8523,8521,8523,0,8521,8518,8528,8529,0,0,0,0,0,0,0,0,0,0,0,0,0,0,0,0,0,0,0,0,0,0,0,0,0,0,8515,8516,8516,8516,8516,8525,8523,0,0,0,0,8515,8525,8523,0,0,0,0,0,0,0,0,0,0,0,0,0,0,0,0,0,0,0,0,0,0,0,0,0,0,0,8521,
8522,8522,8522,8522,8523,8521,8523,0,8521,8523,0,0,0,0,0,0,0,0,0,0,0,0,0,0,0,0,0,0,0,0,8515,8516,8516,8516,8517,0,0,0,8521,8518,8528,8528,8528,8528,8529,0,0,0,0,8521,8518,8529,0,0,0,0,0,0,0,0,0,0,0,0,0,0,0,0,0,0,0,0,0,0,0,0,0,0,0,8521,
8522,8522,8522,8522,8523,8521,8523,0,8521,8523,0,0,0,0,0,0,0,0,0,0,0,0,0,0,0,0,0,0,0,0,8527,8528,8528,8528,8531,8516,8516,8516,8525,8523,0,0,0,8515,8516,8516,8517,0,8515,8525,8523,0,0,0,0,0,0,0,0,0,0,0,0,0,0,0,0,0,0,0,0,0,0,0,0,0,0,0,0,8521,
8522,8522,8522,8522,8523,8521,8523,0,8521,8523,0,0,0,0,0,0,0,0,0,0,0,0,0,0,0,0,0,0,0,0,0,0,0,0,8527,8528,8528,8528,8528,8529,0,0,0,8521,8522,8518,8529,0,8527,8528,8529,0,0,0,0,0,0,0,0,0,0,0,0,0,0,0,0,0,0,0,0,0,0,0,0,0,0,0,8515,8525,
8522,8522,8522,8518,8531,8525,8523,0,8521,8523,0,0,0,0,0,0,0,0,0,0,0,0,0,0,0,0,0,0,0,0,0,0,0,0,0,0,0,0,8515,8516,8516,8516,8516,8525,8522,8523,0,0,0,0,0,0,0,0,0,0,0,0,0,0,0,0,0,0,0,0,0,0,0,0,0,0,0,0,0,0,8515,8516,8525,8522,
8522,8522,8522,8523,8521,8522,8523,0,8521,8523,0,0,0,0,0,0,0,0,0,0,0,0,0,0,0,0,0,0,0,0,0,0,0,0,0,0,0,0,8521,8522,8522,8522,8522,8522,8522,8523,0,0,0,0,0,0,0,0,0,0,0,0,0,0,0,0,0,0,0,0,0,0,0,0,0,0,0,0,0,0,8521,8522,8522,8522,
8522,8522,8522,8523,8521,8522,8523,0,8521,8523,0,0,0,0,0,0,0,0,0,0,0,0,0,0,0,0,0,0,0,0,0,0,0,0,0,0,0,0,8527,8528,8528,8528,8528,8528,8528,8529,0,0,0,0,0,0,0,0,0,0,0,0,0,0,0,0,0,0,0,0,0,0,0,0,0,0,0,0,0,0,8521,8522,8522,8522,
8522,8522,8518,8529,8521,8518,8529,0,8521,8523,0,0,0,0,0,0,0,0,0,0,0,0,0,0,0,0,0,0,0,0,0,0,0,0,0,0,0,0,0,0,0,0,0,0,0,0,0,0,0,0,0,0,0,0,0,0,0,0,0,0,0,0,0,0,0,0,0,0,0,0,0,0,0,0,0,0,8521,8522,8522,8522,
8522,8522,8523,0,8521,8523,0,0,8521,8523,0,0,0,0,0,0,0,0,0,0,0,0,0,0,0,0,0,0,0,0,0,0,0,0,0,0,0,0,0,0,0,0,0,0,0,0,0,0,0,0,0,0,0,0,0,0,0,0,0,0,0,0,0,0,0,0,0,0,0,0,0,0,0,0,0,0,8521,8522,8522,8522,
8522,8522,8523,8515,8525,8523,0,0,8527,8529,0,0,0,8515,8517,0,0,0,0,0,0,0,0,0,0,0,0,0,0,0,0,0,0,0,0,0,0,0,0,0,0,0,0,0,0,0,0,0,0,0,0,0,0,0,0,0,0,0,0,0,0,0,0,0,0,0,0,0,0,0,0,0,0,0,0,0,8521,8522,8522,8522,
8522,8522,8523,8521,8522,8523,0,0,0,0,0,0,0,8521,8523,0,0,0,0,0,0,0,0,0,0,0,0,0,0,0,0,0,0,0,8515,8516,8516,8517,0,0,0,0,0,0,0,0,0,0,0,0,0,0,0,0,0,0,0,0,0,0,0,0,0,0,0,0,0,0,0,0,0,0,0,0,0,0,8521,8522,8522,8522,
8522,8522,8523,8521,8518,8529,0,0,0,0,0,0,0,8521,8523,0,0,0,0,0,0,0,0,0,0,0,0,0,0,0,0,0,0,0,8527,8528,8528,8529,0,0,0,8515,8516,8516,8516,8516,8516,8517,0,0,0,0,0,0,0,0,0,0,0,0,0,0,0,0,0,0,0,0,0,0,0,0,0,8515,8516,8516,8525,8522,8522,8522,
8522,8522,8523,8527,8529,8515,8517,0,0,0,0,0,0,8521,8523,0,0,0,0,0,0,0,0,0,0,0,0,0,0,0,0,0,0,0,0,0,0,0,0,0,0,8521,8522,8522,8522,8522,8518,8529,0,0,0,0,0,0,0,0,0,0,0,0,0,0,0,0,0,0,0,0,0,0,0,0,0,8521,8522,8522,8522,8522,8522,8522,
8522,8522,8524,8516,8517,8521,8523,0,0,0,0,0,0,8527,8529,8515,8517,0,0,0,0,0,0,0,0,0,0,0,0,0,0,0,0,0,0,0,0,0,0,0,0,8521,8522,8522,8522,8522,8523,0,0,0,0,0,0,0,0,0,0,0,0,0,0,0,0,0,0,0,0,0,0,0,0,0,0,8521,8522,8522,8522,8522,8522,8522,
8522,8522,8522,8522,8523,8527,8529,0,0,0,8515,8517,0,0,0,8521,8523,0,0,0,0,0,0,0,0,0,0,0,0,0,0,0,0,0,0,0,0,0,0,0,8515,8525,8522,8522,8522,8522,8523,0,0,0,0,0,0,0,0,0,0,0,0,0,0,0,0,0,0,0,0,0,0,0,0,0,8515,8525,8522,8522,8522,8522,8522,8522,
8522,8522,8522,8522,8524,8517,0,8515,8516,8517,8521,8523,0,0,0,8521,8523,0,0,0,0,0,0,0,0,0,0,0,0,0,0,0,0,0,0,0,0,0,0,0,8521,8522,8522,8522,8522,8518,8529,0,0,0,0,0,0,0,0,0,0,0,0,0,0,0,0,0,0,0,0,0,0,0,8515,8516,8525,8522,8522,8522,8522,8522,8522,8518,
8522,8522,8522,8522,8522,8524,8516,8525,8522,8524,8530,8531,8517,0,0,8521,8523,0,0,0,0,0,0,0,0,0,0,0,0,0,0,0,0,0,0,0,0,0,0,0,8527,8519,8522,8522,8522,8523,0,0,0,0,0,0,0,0,0,0,0,0,0,0,0,0,0,0,0,0,0,0,8515,8516,8525,8522,8522,8522,8522,8522,8518,8519,8522,8524,
8522,8522,8522,8522,8522,8522,8522,8522,8522,8522,8523,8521,8523,0,0,8521,8523,0,0,0,0,0,0,0,0,0,0,0,0,0,0,0,0,0,0,0,0,0,0,0,0,8527,8528,8528,8528,8529,0,0,0,0,0,0,0,0,0,0,0,0,0,0,0,0,0,0,0,0,0,0,8521,8522,8522,8522,8522,8522,8522,8522,8523,8521,8522,8522,
8522,8522,8522,8522,8522,8522,8522,8522,8518,8528,8529,8521,8523,0,0,8521,8523,0,0,0,0,0,0,0,0,0,0,0,0,0,0,0,0,0,0,0,0,0,0,0,0,0,0,0,0,0,0,0,0,0,0,0,0,0,0,0,0,0,0,0,0,0,0,0,0,0,0,8515,8525,8522,8522,8522,8522,8522,8522,8522,8523,8521,8522,8522,
8522,8522,8522,8522,8522,8522,8522,8522,8523,8515,8516,8525,8523,0,0,8527,8529,0,0,0,0,0,8515,8517,0,0,0,0,0,0,0,0,0,0,0,0,0,0,0,0,0,0,0,0,0,0,0,0,0,0,0,0,0,0,0,0,0,0,0,0,0,0,0,0,0,0,0,8521,8522,8522,8522,8522,8518,8528,8528,8528,8531,8525,8522,8522,
8522,8522,8522,8522,8522,8522,8522,8522,8523,8521,8522,8522,8523,0,0,0,0,0,0,0,0,0,8521,8523,0,0,0,0,0,0,0,0,0,0,0,0,0,0,0,0,0,0,0,0,0,0,0,0,0,8515,8517,0,0,0,0,0,0,0,0,0,0,0,0,0,0,0,0,8527,8528,8519,8522,8522,8523,0,0,8515,8525,8522,8522,8522,
8522,8522,8522,8522,8522,8522,8522,8522,8524,8530,8528,8519,8523,0,0,0,0,0,0,0,0,0,8521,8523,0,0,0,0,0,0,0,0,0,0,0,0,0,0,0,0,0,0,0,0,0,0,0,0,0,8521,8523,0,0,0,0,0,0,0,0,0,0,0,0,0,0,0,0,0,8515,8525,8522,8522,8523,0,8515,8525,8522,8522,8522,8522,
8522,8522,8522,8522,8522,8522,8522,8522,8522,8524,8517,8521,8523,0,0,0,0,0,0,0,0,0,8521,8523,0,0,0,0,0,0,0,0,0,0,0,0,0,0,0,0,0,0,0,0,0,0,0,8515,8517,8521,8523,0,0,0,0,0,0,0,0,0,0,0,0,0,0,0,0,0,8521,8522,8518,8528,8529,8515,8525,8522,8522,8522,8522,8522,
8522,8522,8522,8522,8522,8522,8522,8522,8522,8522,8524,8525,8523,0,0,0,0,0,0,0,0,0,8527,8529,0,0,0,0,0,0,0,0,0,0,0,0,0,0,0,0,0,0,0,0,0,8515,8516,8525,8524,8530,8529,0,0,0,0,0,0,0,0,0,0,0,0,0,0,0,0,8515,8525,8522,8523,0,8515,8525,8522,8522,8522,8522,8522,8522,
8522,8522,8522,8522,8522,8522,8522,8522,8522,8522,8522,8518,8529,0,0,0,0,0,0,8515,8517,0,0,0,0,0,0,0,0,0,0,0,0,0,0,0,0,0,0,0,0,0,0,0,0,8527,8519,8522,8522,8523,0,0,0,0,0,0,0,0,0,0,0,0,0,0,0,0,8515,8525,8522,8522,8523,8515,8525,8522,8522,8522,8522,8522,8522,8522,
8522,8522,8522,8522,8522,8522,8522,8522,8522,8522,8522,8524,8516,8516,8516,8516,8517,0,0,8521,8523,0,0,0,0,0,0,0,0,0,0,0,0,0,0,8515,8516,8516,8516,8516,8516,8516,8516,8517,0,0,8521,8522,8522,8524,8517,0,0,0,0,0,0,0,0,0,0,0,0,8515,8516,8516,8525,8522,8522,8522,8524,8525,8522,8522,8522,8522,8522,8522,8522,8522,
8522,8522,8522,8522,8522,8522,8522,8522,8522,8522,8522,8522,8522,8522,8522,8522,8524,8516,8517,8521,8523,0,0,0,0,0,0,0,0,0,0,0,8515,8516,8516,8525,8522,8522,8522,8522,8522,8522,8522,8524,8516,8516,8525,8522,8522,8522,8523,0,0,0,0,0,0,0,0,0,0,0,0,8521,8522,8522,8522,8522,8522,8522,8522,8522,8522,8522,8522,8522,8522,8522,8522,8522
</data>
  </layer>
  <objectgroup id="52" name="Shadow Objects">
   <object id="620" gid="63769" x="342.5" y="275.75" width="20" height="20"/>
   <object id="621" gid="63769" x="181" y="334.5" width="20" height="20"/>
   <object id="623" gid="63769" x="314" y="391.5" width="20" height="20"/>
   <object id="624" gid="63773" x="382.5" y="297" width="28" height="28"/>
   <object id="625" gid="63773" x="163.5" y="256" width="28" height="28"/>
   <object id="630" gid="63769" x="584.5" y="472" width="20" height="20"/>
   <object id="631" gid="63781" x="346.5" y="154.5" width="44" height="44"/>
   <object id="632" gid="63773" x="383" y="132" width="28" height="28"/>
   <object id="633" gid="63773" x="459.5" y="150.5" width="28" height="28"/>
   <object id="634" gid="63789" x="348.5" y="170" width="20" height="20"/>
   <object id="635" gid="63777" x="589" y="562" width="36" height="36"/>
   <object id="636" gid="63777" x="489.5" y="564.5" width="36" height="36"/>
   <object id="637" gid="63777" x="513" y="635.5" width="36" height="36"/>
   <object id="638" gid="63784" x="594.5" y="647.5" width="56" height="56"/>
   <object id="639" gid="63777" x="627" y="697" width="36" height="36"/>
   <object id="640" gid="63777" x="551" y="823" width="36" height="36"/>
   <object id="641" gid="63777" x="624" y="819.5" width="36" height="36"/>
   <object id="644" gid="63773" x="534" y="793" width="28" height="28"/>
   <object id="645" gid="63769" x="493.5" y="756" width="20" height="20"/>
   <object id="646" gid="63769" x="555.5" y="707.5" width="20" height="20"/>
   <object id="647" gid="63769" x="664.5" y="674.5" width="20" height="20"/>
   <object id="648" gid="63770" x="450.5" y="729" width="24" height="24"/>
   <object id="649" gid="63777" x="498" y="689" width="36" height="36"/>
   <object id="650" gid="63769" x="581.5" y="866.5" width="20" height="20"/>
   <object id="651" gid="63781" x="606" y="210.5" width="44" height="44"/>
   <object id="652" gid="63769" x="819" y="195.5" width="20" height="20"/>
   <object id="653" gid="37813" x="807" y="143.5" width="24" height="14"/>
   <object id="654" gid="63805" x="880" y="285" width="52" height="52"/>
   <object id="655" gid="63770" x="873.5" y="486.5" width="24" height="24"/>
   <object id="656" gid="63837" x="985" y="468.5" width="52" height="28"/>
   <object id="657" gid="63769" x="1015" y="413.5" width="20" height="20"/>
   <object id="658" gid="63777" x="692.5" y="604" width="36" height="36"/>
   <object id="659" gid="63777" x="761.5" y="719" width="36" height="36"/>
   <object id="660" gid="63777" x="825" y="766.5" width="36" height="36"/>
   <object id="661" gid="63777" x="874.5" y="843.5" width="36" height="36"/>
   <object id="662" gid="63770" x="836.5" y="814" width="24" height="24"/>
   <object id="663" gid="63769" x="1050" y="694.5" width="20" height="20"/>
   <object id="664" gid="63766" x="1067.5" y="706.5" width="16" height="16"/>
   <object id="665" gid="63786" x="1088.5" y="694.5" width="16" height="16"/>
   <object id="666" gid="63786" x="1092.5" y="678" width="16" height="16"/>
   <object id="667" gid="63830" x="1069.5" y="657" width="32" height="16"/>
   <object id="668" gid="63830" x="1037.5" y="644" width="32" height="16"/>
   <object id="669" gid="63830" x="1068.5" y="638" width="32" height="16"/>
   <object id="670" gid="63769" x="987.5" y="718.5" width="20" height="20"/>
   <object id="671" gid="63830" x="1009" y="728.5" width="32" height="16"/>
   <object id="672" gid="63830" x="1063.5" y="732" width="32" height="16"/>
   <object id="673" gid="63786" x="1048.5" y="738.5" width="16" height="16"/>
   <object id="674" gid="63822" x="1009.5" y="666.5" width="16" height="32"/>
   <object id="675" gid="63769" x="1066.5" y="779.5" width="20" height="20"/>
   <object id="676" gid="63769" x="991.5" y="767.5" width="20" height="20"/>
   <object id="677" gid="63769" x="1146.5" y="693" width="20" height="20"/>
   <object id="678" gid="63766" x="1131" y="716" width="16" height="16"/>
   <object id="679" gid="63774" x="1170.5" y="681.5" width="32" height="32"/>
   <object id="680" gid="63770" x="1047.5" y="575" width="24" height="24"/>
   <object id="681" gid="63781" x="811" y="909" width="44" height="44"/>
   <object id="682" gid="63770" x="1081" y="956.5" width="24" height="24"/>
   <object id="683" gid="63769" x="1137" y="945.5" width="20" height="20"/>
   <object id="684" gid="63769" x="883.5" y="978.5" width="20" height="20"/>
   <object id="685" gid="63777" x="771.5" y="1013" width="36" height="36"/>
   <object id="686" gid="63769" x="980" y="1059.5" width="20" height="20"/>
   <object id="687" gid="63769" x="985" y="1181" width="20" height="20"/>
   <object id="688" gid="63770" x="916" y="1203" width="24" height="24"/>
   <object id="689" gid="63808" x="1209" y="600.5" width="24" height="40"/>
   <object id="690" gid="63813" x="1153" y="513" width="36" height="20"/>
   <object id="691" gid="63818" x="1157.5" y="566.5" width="52" height="28"/>
   <object id="692" gid="63813" x="1147.5" y="601" width="36" height="20"/>
   <object id="693" gid="63810" x="1182" y="324.5" width="32" height="16"/>
   <object id="694" gid="63766" x="1155" y="817.5" width="16" height="16"/>
   <object id="695" gid="63778" x="756.5" y="1211" width="40" height="40"/>
   <object id="696" gid="63781" x="600.5" y="1146.5" width="44" height="44"/>
   <object id="697" gid="63777" x="600" y="1187" width="36" height="36"/>
   <object id="698" gid="63797" x="449.5" y="1216.5" width="36" height="36"/>
   <object id="699" gid="63777" x="405.5" y="1222.5" width="36" height="36"/>
   <object id="700" gid="63773" x="366" y="1213" width="28" height="28"/>
   <object id="701" gid="63777" x="326.5" y="1195" width="36" height="36"/>
   <object id="702" gid="63769" x="516" y="1117.5" width="20" height="20"/>
   <object id="703" gid="63766" x="565.5" y="1082.5" width="16" height="16"/>
   <object id="704" gid="63818" x="533" y="1051.5" width="52" height="28"/>
   <object id="705" gid="63766" x="580.5" y="1058" width="16" height="16"/>
   <object id="706" gid="63789" x="495" y="1052" width="20" height="20"/>
   <object id="707" gid="63773" x="356.5" y="1073" width="28" height="28"/>
   <object id="708" gid="63801" x="245" y="1054" width="44" height="44"/>
   <object id="709" gid="63769" x="391" y="998.5" width="20" height="20"/>
   <object id="710" gid="63773" x="364.5" y="973.5" width="28" height="28"/>
   <object id="711" gid="63766" x="148" y="737.5" width="16" height="16"/>
   <object id="712" gid="63825" x="150.5" y="765.5" width="20" height="36"/>
   <object id="713" gid="63813" x="157" y="875" width="36" height="20"/>
   <object id="714" gid="63813" x="152.992" y="931.029" width="36" height="20"/>
   <object id="715" gid="63801" x="220.5" y="919.5" width="44" height="44"/>
   <object id="716" gid="63769" x="335.5" y="875" width="20" height="20"/>
   <object id="717" gid="63773" x="380" y="790" width="28" height="28"/>
   <object id="718" gid="63769" x="346" y="807" width="20" height="20"/>
   <object id="719" gid="63837" x="346.5" y="736" width="52" height="28"/>
   <object id="720" gid="63804" x="396" y="967" width="56" height="56"/>
   <object id="721" gid="63836" x="445" y="933.5" width="56" height="32"/>
   <object id="722" gid="63781" x="513.5" y="932" width="44" height="44"/>
   <object id="723" gid="63769" x="590" y="942" width="20" height="20"/>
   <object id="725" gid="63781" x="119" y="697.5" width="44" height="44"/>
   <object id="726" gid="63770" x="195" y="646.5" width="24" height="24"/>
   <object id="727" gid="63773" x="367.5" y="595" width="28" height="28"/>
   <object id="728" gid="63777" x="426.5" y="605.5" width="36" height="36"/>
   <object id="729" gid="63777" x="222" y="559" width="36" height="36"/>
   <object id="730" gid="63781" x="282" y="613" width="44" height="44"/>
   <object id="731" gid="63777" x="310" y="528" width="36" height="36"/>
   <object id="732" gid="63773" x="383" y="488.5" width="28" height="28"/>
   <object id="733" gid="63828" x="184.5" y="474.5" width="32" height="56"/>
   <object id="734" gid="63770" x="184" y="497" width="24" height="24"/>
   <object id="735" gid="63810" x="177.5" y="599" width="32" height="16"/>
   <object id="736" gid="63769" x="290.5" y="645" width="20" height="20"/>
   <object id="737" gid="63766" x="226.5" y="725.5" width="16" height="16"/>
   <object id="738" gid="63770" x="230.5" y="771" width="24" height="24"/>
   <object id="739" gid="63766" x="88.5" y="615.5" width="16" height="16"/>
   <object id="740" gid="63777" x="108" y="777.5" width="36" height="36"/>
   <object id="741" gid="63769" x="87.5" y="1015.5" width="20" height="20"/>
   <object id="742" gid="63770" x="188.5" y="1019.5" width="24" height="24"/>
   <object id="743" gid="63810" x="217.5" y="1079" width="32" height="16"/>
   <object id="746" gid="63837" x="562.5" y="1214.5" width="52" height="28"/>
   <object id="747" gid="63769" x="1029.5" y="1240.5" width="20" height="20"/>
   <object id="748" gid="63837" x="1087.5" y="1024.5" width="52" height="28"/>
   <object id="749" gid="63769" x="1134" y="869" width="20" height="20"/>
   <object id="750" gid="63770" x="1040" y="864" width="24" height="24"/>
   <object id="751" gid="63769" x="967" y="918" width="20" height="20"/>
   <object id="753" gid="63822" x="1000.5" y="696.5" width="16" height="32"/>
   <object id="754" gid="63766" x="606.5" y="125" width="16" height="16"/>
   <object id="755" gid="63770" x="574" y="126.5" width="24" height="24"/>
   <object id="756" gid="63769" x="470" y="105" width="20" height="20"/>
   <object id="772" gid="63769" x="383" y="359" width="20" height="20"/>
   <object id="773" gid="63769" x="318" y="359" width="20" height="20"/>
   <object id="774" gid="63769" x="921.667" y="567.333" width="20" height="20"/>
   <object id="775" gid="63769" x="826.333" y="566" width="20" height="20"/>
   <object id="787" gid="63789" x="224" y="839" width="20" height="20"/>
   <object id="788" gid="63789" x="540" y="1070" width="20" height="20"/>
   <object id="790" gid="63793" x="404.5" y="861" width="28" height="28"/>
   <object id="794" gid="63766" x="190" y="945" width="16" height="16"/>
   <object id="821" gid="63769" x="796" y="1034.5" width="20" height="20"/>
   <object id="822" gid="63810" x="992" y="516" width="32" height="16"/>
   <object id="823" gid="63819" x="1016.5" y="537" width="48" height="24"/>
   <object id="824" gid="63766" x="1103" y="513.5" width="16" height="16"/>
   <object id="825" gid="63766" x="1080.5" y="519.5" width="16" height="16"/>
   <object id="826" gid="63766" x="1091.5" y="505" width="16" height="16"/>
   <object id="841" gid="63770" x="342.5" y="961" width="24" height="24"/>
   <object id="842" gid="63769" x="327.5" y="778.5" width="20" height="20"/>
   <object id="843" gid="63770" x="124.5" y="1034" width="24" height="24"/>
   <object id="844" gid="63766" x="158" y="1023" width="16" height="16"/>
   <object id="845" gid="63822" x="173" y="1051.5" width="16" height="32"/>
   <object id="847" gid="63770" x="144" y="1048" width="24" height="24"/>
   <object id="848" gid="63766" x="712.5" y="428" width="16" height="16"/>
   <object id="849" gid="63790" x="857.5" y="190.5" width="24" height="24"/>
   <object id="851" gid="63777" x="543" y="519.25" width="36" height="36"/>
   <object id="973" gid="63803" x="578.5" y="781" width="64" height="64"/>
   <object id="993" gid="63769" x="131" y="614.5" width="20" height="20"/>
   <object id="996" gid="63781" x="306" y="462.5" width="44" height="44"/>
   <object id="1005" gid="63766" x="977" y="689.5" width="16" height="16"/>
   <object id="1009" gid="63766" x="233" y="1102.5" width="16" height="16"/>
   <object id="1012" gid="63769" x="2" y="82.5" width="20" height="20"/>
   <object id="1014" gid="63773" x="513.5" y="23" width="28" height="28"/>
  </objectgroup>
 </group>
 <layer id="3" name="RockSlopes2" width="80" height="80" visible="0">
  <data encoding="csv">
59604,59604,59604,59604,59604,59604,59604,59604,59604,59604,59604,59604,59604,59604,59604,59604,59604,59604,59604,59604,59604,59604,59604,59604,59604,59604,59604,59604,59604,59604,59604,59604,59604,59604,59604,59604,59604,59604,59604,59604,59604,59604,59604,59604,59604,59604,59604,59604,59604,59604,59604,59604,59604,59604,59604,59604,59604,59604,59604,59604,59604,59604,59604,59604,59604,59604,59604,59604,59604,59604,59604,59604,59604,59604,59604,59604,59604,59604,59604,59604,
59604,59604,59604,59604,59604,59604,59604,59604,59604,59604,59604,59604,59604,59604,59604,59604,59604,59604,59604,59604,59604,59604,59604,59604,59604,59604,59604,59604,59604,59604,59604,59604,59604,59604,59604,59604,59604,59604,59604,59604,59604,59604,59604,59604,59604,59604,59604,59604,59604,59604,59604,59604,59604,59604,59604,59604,59604,59604,59604,59604,59604,59604,59604,59604,59604,59604,59604,59604,59604,59604,59604,59604,59604,59604,59604,59604,59604,59604,59604,59604,
59604,59604,59604,59604,59604,59604,59604,59604,59604,59604,59604,59604,59604,59604,59604,59604,59604,59604,59604,59604,59604,59604,59604,59604,59604,59604,59604,59604,59604,59604,59604,59604,59604,59604,59604,59604,59604,59604,59604,59604,59604,59604,59604,59604,59604,59604,59604,59604,59604,59604,59606,59606,59606,59606,59606,59606,59606,59606,59606,59606,59606,59606,59606,59606,59606,59606,59606,59606,59604,59604,59604,59604,59604,59604,59604,59604,59604,59604,59604,59604,
59604,59604,59604,59604,59604,59604,59604,59604,59604,59604,59604,59604,59604,59604,59604,59604,59604,59604,59604,59604,59604,59604,59604,59604,59604,59604,59604,59604,59604,59604,59604,59604,59604,59604,59604,59604,59604,59604,59604,59604,59604,59604,59604,59604,59604,59604,59604,59604,59604,59604,59606,59605,59605,59605,59605,59605,59605,59605,59605,59605,59605,59605,59605,59605,59605,59605,59605,59606,59606,59606,59606,59606,59604,59604,59604,59604,59604,59604,59604,59604,
59604,59604,59604,59604,59604,59604,59604,59606,59606,59606,59606,59606,59606,59606,59606,59606,59606,59606,59606,59606,59606,59606,59606,59606,59606,59606,59606,59606,59606,59606,59604,59604,59604,59604,59604,59604,59604,59604,59606,59606,59606,59606,59606,59606,59606,59606,59606,59606,59606,59606,59606,59605,59605,59605,59605,59605,59605,59605,59605,59605,59605,59605,59605,59606,59604,59604,59605,59605,59605,59605,59605,59606,59604,59604,59604,59604,59604,59604,59604,59604,
59604,59604,59604,59604,59604,59604,59604,59606,59605,59605,59605,59605,59605,59605,59605,59605,59605,59605,59605,59605,59605,59605,59605,59605,59605,59605,59605,59605,59605,59606,59606,59606,59606,59606,59606,59604,59604,59604,59606,59605,59605,59605,59605,59605,59605,59605,59605,59605,59605,59605,59605,59605,59604,59604,59604,59604,59604,59604,59604,59604,59604,59604,59605,59606,59604,59604,59604,59604,59604,59604,59605,59606,59604,59604,59604,59604,59604,59604,59604,59604,
59604,59604,59604,59604,59604,59604,59604,59606,59605,59605,59605,59605,59605,59605,59605,59605,59605,59605,59605,59605,59605,59605,59605,59605,59605,59605,59605,59605,59605,59605,59605,59605,59605,59605,59606,59604,59604,59604,59606,59605,59605,59605,59605,59605,59605,59605,59605,59605,59605,59605,59605,59605,59604,59604,59604,59604,59604,59604,59604,59604,59604,59604,59605,59606,59606,59606,59606,59606,59606,59604,59605,59606,59604,59604,59604,59604,59604,59604,59604,59604,
59604,59604,59604,59604,59604,59604,59604,59606,59605,59605,59605,59605,59605,59605,59605,59605,59605,59605,59605,59605,59605,59605,59606,59604,59604,59604,59604,59604,59605,59605,59605,59605,59605,59605,59606,59606,59606,59606,59606,59605,59604,59604,59604,59604,59604,59604,59604,59604,59604,59604,59604,59604,59604,59604,59604,59604,59604,59604,59604,59604,59604,59604,59605,59605,59605,59605,59605,59605,59606,59604,59605,59606,59604,59604,59604,59604,59604,59604,59604,59604,
59604,59604,59604,59604,59604,59604,59604,59606,59605,59604,59604,59604,59604,59604,59604,59604,59604,59604,59604,59604,59604,59605,59606,59604,59604,59604,59604,59604,59604,59606,59605,59605,59605,59605,59605,59605,59605,59605,59605,59605,59604,59604,59604,59604,59604,59604,59604,59604,59604,59604,59604,59604,59604,59604,59604,59604,59604,59604,59604,59604,59604,59604,59604,59604,59604,59604,59604,59605,59606,59604,59605,59606,59604,59604,59604,59604,59604,59604,59604,59604,
59604,59604,59606,59606,59606,59606,59606,59606,59605,59604,59604,59604,59604,59604,59604,59604,59604,59604,59604,59604,59604,59605,59606,59604,59604,59604,59604,59604,59604,59606,59605,59604,59604,59605,59605,59605,59605,59605,59605,59605,59604,59604,59604,59604,59604,59604,59604,59604,59604,59604,59604,59604,59604,59604,59604,59604,59604,59604,59604,59604,59604,59604,59604,59604,59604,59604,59604,59605,59606,59606,59605,59606,59604,59604,59604,59604,59604,59604,59604,59604,
59604,59604,59606,59605,59605,59605,59605,59605,59605,59604,59604,59604,59604,59604,59604,59604,59604,59604,59604,59604,59604,59605,59606,59606,59606,59606,59604,59604,59604,59606,59605,59604,59604,59605,59605,59605,59605,59605,59606,59604,59604,59604,59604,59604,59604,59604,59604,59604,59604,59604,59604,59604,59604,59604,59604,59604,59604,59604,59604,59604,59604,59604,59604,59604,59604,59604,59604,59605,59605,59605,59605,59606,59604,59604,59604,59604,59604,59604,59604,59604,
59604,59604,59606,59605,59605,59605,59605,59605,59605,59604,59604,59604,59604,59604,59604,59604,59604,59604,59604,59604,59604,59605,59605,59605,59605,59606,59604,59604,59604,59606,59605,59604,59604,59604,59604,59604,59604,59605,59606,59604,59604,59604,59604,59604,59604,59604,59604,59604,59604,59604,59604,59604,59604,59604,59604,59604,59604,59604,59604,59604,59604,59604,59604,59604,59604,59604,59604,59604,59604,59604,59605,59606,59604,59604,59604,59604,59604,59604,59604,59604,
59604,59604,59606,59605,59604,59606,59605,59605,59605,59604,59604,59604,59604,59604,59604,59604,59604,59604,59604,59604,59604,59604,59604,59604,59605,59606,59604,59604,59604,59606,59605,59604,59604,59604,59604,59604,59604,59605,59606,59604,59604,59604,59604,59604,59604,59604,59604,59604,59604,59604,59604,59604,59604,59604,59604,59604,59604,59604,59604,59604,59604,59604,59604,59604,59604,59604,59604,59604,59604,59604,59605,59606,59606,59606,59606,59604,59604,59604,59604,59604,
59604,59604,59606,59605,59604,59606,59605,59604,59604,59604,59604,59604,59604,59604,59604,59604,59604,59604,59604,59604,59604,59604,59604,59604,59605,59606,59606,59606,59606,59606,59605,59604,59604,59604,59604,59604,59604,59607,59606,59604,59604,59604,59604,59604,59604,59604,59604,59604,59604,59604,59604,59604,59604,59604,59604,59604,59604,59604,59604,59604,59604,59604,59604,59604,59604,59604,59604,59604,59604,59604,59605,59605,59605,59605,59606,59604,59604,59604,59604,59604,
59604,59604,59606,59605,59604,59606,59605,59604,59604,59604,59604,59604,59604,59604,59604,59604,59604,59604,59604,59604,59604,59604,59604,59604,59605,59605,59605,59605,59605,59605,59605,59604,59604,59604,59604,59604,59604,59607,59606,59604,59604,59604,59604,59604,59604,59604,59604,59604,59604,59604,59604,59604,59604,59604,59604,59604,59604,59604,59604,59604,59604,59604,59604,59604,59604,59604,59604,59604,59604,59604,59605,59605,59605,59605,59606,59604,59604,59604,59604,59604,
59604,59604,59606,59605,59604,59606,59605,59604,59604,59604,59604,59604,59604,59604,59604,59604,59604,59604,59604,59604,59604,59604,59604,59604,59604,59604,59604,59604,59604,59604,59604,59604,59604,59604,59604,59604,59604,59607,59606,59604,59604,59604,59604,59604,59604,59604,59604,59604,59604,59604,59604,59604,59604,59604,59604,59604,59604,59604,59604,59604,59604,59604,59604,59604,59604,59604,59604,59604,59604,59604,59604,59604,59604,59605,59606,59604,59604,59604,59604,59604,
59604,59604,59606,59605,59604,59606,59605,59604,59604,59604,59604,59604,59604,59604,59604,59604,59604,59604,59604,59604,59604,59604,59604,59604,59604,59604,59604,59604,59604,59604,59604,59604,59604,59604,59604,59604,59604,59605,59606,59604,59604,59604,59604,59604,59604,59604,59604,59604,59604,59604,59604,59604,59604,59604,59604,59604,59604,59604,59604,59604,59604,59604,59604,59604,59604,59604,59604,59604,59604,59604,59604,59604,59604,59605,59606,59604,59604,59604,59604,59604,
59604,59604,59606,59605,59604,59606,59605,59604,59604,59604,59604,59604,59604,59604,59604,59604,59604,59604,59604,59604,59604,59604,59604,59604,59604,59604,59604,59604,59604,59604,59604,59604,59604,59604,59604,59604,59604,59605,59606,59604,59604,59604,59604,59604,59604,59604,59604,59604,59604,59604,59604,59604,59604,59604,59604,59604,59604,59604,59604,59604,59604,59604,59604,59604,59604,59604,59604,59604,59604,59604,59604,59604,59604,59605,59606,59604,59604,59604,59604,59604,
59604,59604,59606,59605,59604,59606,59605,59604,59604,59604,59604,59604,59604,59604,59604,59604,59604,59604,59604,59604,59604,59604,59604,59604,59604,59604,59604,59604,59604,59604,59604,59604,59604,59604,59604,59604,59604,59605,59606,59606,59604,59604,59604,59604,59604,59604,59604,59604,59604,59604,59604,59604,59604,59604,59604,59604,59604,59604,59604,59604,59604,59604,59604,59604,59604,59604,59604,59604,59604,59604,59604,59604,59604,59605,59606,59604,59604,59604,59604,59604,
59604,59604,59606,59605,59604,59606,59605,59605,59607,59607,59607,59605,59605,59604,59604,59604,59604,59604,59604,59604,59604,59604,59604,59604,59604,59604,59604,59604,59604,59604,59604,59604,59604,59604,59604,59604,59604,59605,59605,59606,59604,59604,59604,59604,59604,59604,59604,59604,59604,59604,59604,59604,59604,59604,59604,59604,59604,59604,59604,59604,59604,59604,59604,59604,59604,59604,59604,59604,59604,59604,59604,59604,59604,59605,59606,59604,59604,59604,59604,59604,
59604,59604,59606,59605,59604,59606,59606,59606,59606,59606,59606,59606,59605,59604,59606,59606,59606,59606,59606,59606,59604,59604,59604,59604,59604,59604,59604,59604,59604,59604,59604,59604,59604,59604,59604,59604,59604,59604,59605,59606,59604,59604,59604,59604,59604,59604,59604,59604,59604,59604,59604,59604,59604,59604,59604,59604,59604,59604,59604,59604,59604,59604,59604,59604,59604,59604,59604,59604,59604,59604,59604,59604,59605,59605,59606,59604,59604,59604,59604,59604,
59604,59604,59606,59605,59604,59604,59604,59604,59604,59604,59604,59606,59605,59606,59606,59605,59605,59605,59605,59606,59606,59606,59606,59606,59606,59606,59606,59606,59604,59604,59604,59604,59604,59604,59604,59604,59604,59604,59605,59606,59604,59604,59604,59604,59604,59604,59604,59604,59604,59604,59604,59604,59604,59604,59604,59604,59604,59604,59604,59604,59604,59604,59604,59604,59604,59604,59604,59604,59604,59604,59604,59604,59605,59606,59606,59604,59604,59604,59604,59604,
59604,59604,59606,59605,59605,59605,59604,59604,59604,59604,59604,59606,59605,59605,59605,59605,59604,59604,59605,59605,59605,59607,59607,59607,59605,59605,59605,59606,59606,59604,59604,59604,59604,59604,59604,59604,59604,59604,59605,59606,59604,59604,59604,59604,59604,59604,59604,59604,59604,59604,59604,59604,59604,59604,59604,59604,59604,59604,59604,59604,59604,59604,59604,59604,59604,59604,59604,59604,59604,59604,59604,59604,59605,59606,59606,59606,59604,59604,59604,59604,
59604,59604,59606,59606,59606,59605,59604,59604,59604,59604,59604,59606,59605,59604,59604,59604,59604,59604,59604,59604,59604,59604,59604,59604,59604,59604,59605,59605,59606,59604,59604,59604,59604,59604,59604,59604,59604,59604,59605,59606,59604,59604,59604,59604,59604,59604,59604,59604,59604,59604,59604,59604,59604,59604,59604,59604,59604,59604,59604,59604,59604,59604,59604,59604,59604,59604,59604,59604,59604,59604,59604,59604,59605,59605,59605,59606,59604,59604,59604,59604,
59606,59606,59606,59606,59606,59605,59604,59604,59604,59606,59606,59606,59605,59604,59604,59604,59604,59604,59604,59604,59604,59604,59604,59604,59604,59604,59604,59605,59606,59604,59604,59604,59604,59604,59604,59604,59604,59604,59605,59606,59604,59604,59604,59604,59604,59604,59604,59604,59604,59604,59604,59604,59604,59604,59604,59604,59604,59604,59604,59604,59604,59604,59604,59604,59604,59604,59604,59604,59604,59604,59604,59604,59605,59605,59605,59606,59604,59604,59604,59604,
59606,59605,59605,59605,59605,59605,59604,59604,59604,59606,59605,59605,59605,59604,59604,59604,59604,59604,59604,59604,59604,59604,59604,59604,59604,59604,59604,59605,59606,59604,59604,59604,59604,59604,59604,59604,59604,59604,59605,59606,59604,59604,59604,59604,59604,59604,59604,59604,59604,59604,59604,59604,59604,59604,59604,59604,59604,59604,59604,59604,59604,59604,59604,59604,59604,59604,59604,59604,59604,59604,59604,59604,59604,59604,59605,59606,59604,59604,59604,59604,
59606,59605,59605,59605,59605,59605,59604,59604,59604,59606,59605,59604,59604,59604,59604,59604,59604,59604,59604,59604,59604,59604,59604,59604,59604,59604,59604,59605,59606,59604,59604,59604,59604,59604,59604,59604,59604,59604,59605,59606,59604,59604,59604,59604,59604,59604,59604,59604,59604,59604,59604,59604,59604,59604,59604,59604,59604,59604,59604,59604,59604,59604,59604,59604,59604,59604,59604,59604,59604,59604,59604,59604,59604,59604,59605,59606,59604,59604,59604,59604,
59606,59605,59604,59604,59604,59604,59604,59604,59604,59606,59605,59604,59604,59604,59604,59604,59604,59604,59604,59604,59604,59604,59604,59604,59604,59604,59604,59607,59606,59604,59604,59604,59604,59604,59604,59604,59604,59604,59605,59606,59604,59604,59604,59604,59604,59604,59604,59604,59604,59604,59604,59604,59604,59604,59604,59604,59604,59604,59604,59604,59604,59604,59604,59604,59604,59604,59604,59604,59604,59604,59604,59604,59604,59604,59605,59606,59604,59604,59604,59604,
59606,59605,59604,59606,59606,59606,59606,59606,59606,59606,59605,59604,59604,59604,59604,59604,59604,59604,59604,59604,59604,59604,59604,59604,59604,59604,59604,59607,59606,59604,59604,59604,59604,59604,59604,59604,59604,59604,59605,59606,59604,59604,59604,59604,59604,59604,59604,59604,59604,59604,59604,59604,59604,59604,59604,59604,59604,59604,59604,59604,59604,59604,59604,59604,59604,59604,59604,59604,59604,59604,59604,59604,59604,59604,59605,59606,59604,59604,59604,59604,
59606,59605,59604,59606,59605,59605,59605,59605,59605,59605,59605,59604,59604,59604,59604,59604,59604,59604,59604,59604,59604,59604,59604,59604,59604,59604,59604,59607,59606,59604,59604,59604,59604,59604,59604,59604,59604,59604,59605,59606,59604,59604,59604,59604,59604,59604,59604,59604,59604,59604,59604,59604,59604,59604,59604,59604,59604,59604,59604,59604,59604,59604,59604,59604,59604,59604,59604,59604,59604,59604,59604,59605,59605,59605,59605,59606,59604,59604,59604,59604,
59606,59605,59604,59606,59605,59604,59604,59604,59604,59604,59604,59604,59604,59604,59604,59604,59604,59604,59604,59604,59604,59604,59604,59604,59604,59604,59604,59605,59606,59604,59604,59604,59604,59604,59604,59604,59604,59604,59605,59606,59604,59604,59604,59604,59604,59604,59604,59604,59604,59604,59604,59604,59604,59604,59604,59604,59604,59604,59604,59604,59604,59604,59604,59604,59604,59604,59604,59604,59604,59604,59604,59605,59606,59606,59605,59606,59604,59604,59604,59604,
59606,59605,59604,59606,59605,59604,59604,59604,59604,59604,59604,59604,59604,59604,59604,59604,59604,59604,59604,59604,59604,59604,59604,59604,59604,59604,59604,59605,59606,59604,59604,59604,59604,59604,59604,59604,59604,59604,59605,59606,59606,59606,59606,59606,59604,59604,59604,59604,59604,59604,59604,59604,59604,59604,59604,59604,59604,59604,59604,59604,59604,59604,59604,59604,59604,59604,59604,59604,59604,59604,59604,59605,59606,59604,59605,59606,59604,59604,59604,59604,
59606,59605,59604,59606,59605,59604,59604,59604,59604,59604,59604,59604,59604,59604,59604,59604,59604,59604,59604,59604,59604,59604,59604,59604,59604,59604,59604,59605,59606,59606,59606,59604,59604,59604,59604,59604,59604,59604,59605,59605,59605,59605,59605,59606,59604,59604,59604,59604,59604,59604,59604,59604,59604,59604,59604,59604,59604,59604,59604,59604,59604,59604,59604,59604,59604,59604,59604,59604,59604,59604,59604,59605,59606,59604,59605,59606,59606,59604,59604,59604,
59606,59605,59604,59606,59605,59604,59604,59604,59604,59604,59604,59604,59604,59604,59604,59604,59604,59604,59604,59604,59604,59604,59604,59604,59604,59604,59604,59605,59605,59605,59605,59606,59604,59604,59604,59604,59604,59604,59604,59604,59604,59604,59605,59606,59604,59604,59604,59604,59604,59604,59604,59604,59604,59604,59604,59604,59604,59604,59604,59604,59604,59604,59604,59604,59604,59604,59604,59604,59604,59604,59604,59605,59606,59604,59605,59605,59606,59606,59606,59604,
59606,59605,59604,59606,59605,59604,59604,59604,59604,59604,59604,59604,59604,59604,59604,59604,59604,59604,59604,59604,59604,59604,59604,59604,59604,59604,59604,59604,59604,59604,59605,59605,59606,59604,59604,59604,59604,59604,59604,59604,59604,59604,59605,59606,59604,59604,59604,59604,59604,59604,59604,59604,59604,59604,59604,59604,59604,59604,59604,59604,59604,59604,59604,59604,59604,59604,59604,59604,59604,59604,59604,59605,59606,59604,59604,59605,59605,59605,59606,59604,
59606,59605,59604,59606,59605,59604,59604,59604,59604,59604,59604,59604,59604,59604,59604,59604,59604,59604,59604,59604,59604,59604,59604,59604,59604,59604,59604,59604,59604,59604,59604,59605,59606,59604,59604,59604,59604,59604,59604,59604,59604,59604,59605,59606,59604,59604,59604,59604,59604,59604,59604,59604,59604,59604,59604,59604,59604,59604,59604,59604,59604,59604,59604,59604,59604,59604,59604,59604,59604,59604,59604,59605,59606,59604,59604,59604,59604,59605,59606,59604,
59606,59605,59604,59606,59605,59604,59604,59604,59604,59604,59604,59604,59604,59604,59604,59604,59604,59604,59604,59604,59604,59604,59604,59604,59604,59604,59604,59604,59604,59604,59604,59605,59606,59604,59604,59604,59604,59604,59604,59604,59604,59604,59605,59606,59604,59604,59604,59604,59604,59604,59604,59604,59604,59604,59604,59604,59604,59604,59604,59604,59604,59604,59604,59604,59604,59604,59604,59604,59604,59604,59604,59605,59606,59604,59604,59604,59604,59605,59606,59606,
59606,59605,59604,59606,59605,59605,59605,59604,59604,59604,59604,59604,59604,59604,59604,59604,59604,59604,59604,59604,59604,59604,59604,59604,59604,59604,59604,59604,59604,59604,59604,59605,59606,59604,59604,59604,59605,59605,59605,59605,59605,59605,59605,59605,59605,59605,59605,59604,59604,59604,59604,59604,59604,59604,59604,59604,59604,59604,59604,59604,59604,59604,59604,59604,59604,59604,59604,59604,59604,59604,59604,59605,59606,59604,59604,59604,59604,59605,59605,59606,
59606,59605,59604,59606,59606,59606,59605,59604,59604,59604,59604,59604,59604,59604,59604,59604,59604,59604,59604,59604,59604,59604,59604,59604,59604,59604,59604,59604,59604,59604,59604,59605,59606,59604,59604,59604,59605,59606,59606,59606,59606,59606,59606,59606,59606,59606,59605,59604,59604,59604,59604,59604,59604,59604,59604,59604,59604,59604,59604,59604,59604,59604,59604,59604,59605,59605,59605,59605,59605,59604,59604,59605,59606,59604,59604,59604,59604,59604,59605,59606,
59606,59605,59604,59604,59604,59606,59605,59604,59604,59604,59604,59604,59604,59604,59604,59604,59604,59604,59604,59604,59604,59604,59604,59604,59604,59604,59604,59604,59604,59604,59605,59605,59605,59605,59605,59605,59605,59606,59604,59604,59604,59604,59604,59604,59604,59606,59605,59604,59604,59604,59604,59604,59604,59604,59604,59604,59604,59604,59604,59604,59604,59604,59605,59605,59605,59606,59606,59606,59605,59604,59604,59605,59606,59606,59606,59606,59606,59604,59605,59606,
59606,59605,59604,59604,59604,59606,59605,59604,59604,59604,59604,59604,59604,59604,59604,59604,59604,59604,59604,59604,59604,59604,59604,59604,59604,59604,59604,59604,59604,59604,59605,59606,59606,59606,59606,59606,59606,59606,59604,59605,59605,59605,59605,59605,59604,59606,59605,59604,59604,59604,59604,59604,59604,59604,59604,59604,59604,59604,59604,59604,59604,59604,59605,59606,59606,59606,59604,59606,59605,59605,59604,59605,59605,59605,59605,59605,59606,59604,59605,59606,
59606,59605,59605,59605,59604,59606,59605,59604,59604,59604,59604,59604,59604,59604,59604,59604,59604,59604,59604,59604,59604,59604,59604,59604,59604,59604,59604,59604,59604,59604,59605,59606,59604,59604,59604,59604,59604,59604,59605,59605,59606,59606,59606,59605,59604,59606,59605,59604,59604,59604,59604,59604,59604,59604,59604,59604,59604,59604,59604,59604,59605,59605,59605,59606,59604,59604,59604,59606,59606,59605,59604,59604,59604,59604,59604,59605,59606,59604,59605,59606,
59606,59606,59606,59605,59604,59606,59605,59604,59604,59604,59604,59604,59604,59604,59604,59604,59604,59604,59604,59604,59604,59604,59604,59604,59604,59605,59605,59605,59605,59605,59605,59606,59604,59605,59605,59605,59605,59605,59605,59606,59606,59605,59605,59605,59604,59606,59605,59604,59604,59604,59604,59604,59604,59604,59604,59604,59604,59604,59604,59604,59605,59606,59606,59606,59604,59604,59604,59604,59606,59605,59604,59604,59604,59604,59604,59605,59606,59604,59605,59606,
59604,59604,59606,59605,59604,59606,59605,59604,59604,59604,59604,59604,59604,59604,59604,59604,59604,59604,59604,59604,59604,59604,59604,59604,59604,59605,59606,59606,59606,59606,59606,59606,59604,59605,59606,59606,59606,59606,59606,59606,59605,59605,59604,59604,59604,59606,59605,59604,59604,59604,59604,59604,59604,59604,59604,59604,59604,59604,59604,59604,59605,59605,59606,59604,59604,59604,59604,59606,59606,59605,59604,59604,59604,59604,59604,59605,59606,59604,59605,59606,
59604,59604,59606,59605,59604,59606,59605,59605,59605,59605,59605,59604,59604,59604,59604,59604,59604,59604,59604,59604,59604,59605,59605,59605,59605,59605,59606,59604,59604,59604,59604,59604,59604,59605,59606,59604,59604,59604,59604,59606,59605,59604,59606,59606,59606,59606,59605,59604,59604,59604,59604,59604,59604,59604,59604,59604,59604,59604,59604,59604,59604,59605,59606,59606,59606,59604,59604,59606,59605,59605,59604,59604,59604,59604,59604,59605,59606,59604,59605,59606,
59604,59604,59606,59605,59604,59606,59606,59606,59606,59606,59605,59604,59604,59604,59604,59604,59604,59604,59604,59604,59604,59605,59606,59606,59606,59605,59606,59604,59604,59604,59604,59604,59604,59605,59606,59604,59604,59604,59604,59606,59605,59604,59606,59605,59605,59605,59605,59604,59604,59604,59604,59604,59604,59604,59604,59604,59604,59604,59604,59604,59604,59605,59605,59605,59606,59606,59606,59606,59605,59604,59604,59604,59604,59604,59604,59605,59606,59604,59605,59606,
59604,59604,59606,59605,59604,59604,59604,59604,59604,59606,59605,59604,59604,59604,59604,59604,59604,59604,59604,59604,59604,59605,59606,59604,59604,59605,59606,59604,59604,59604,59604,59604,59604,59605,59606,59606,59606,59604,59604,59606,59605,59604,59606,59605,59604,59604,59604,59604,59604,59604,59604,59604,59604,59604,59604,59604,59604,59604,59604,59604,59604,59604,59604,59605,59605,59605,59605,59605,59605,59604,59604,59604,59604,59604,59604,59605,59606,59604,59605,59606,
59604,59604,59606,59605,59604,59604,59604,59604,59604,59606,59605,59604,59604,59604,59604,59604,59605,59607,59607,59607,59605,59605,59606,59604,59604,59605,59606,59604,59604,59604,59604,59604,59604,59605,59605,59605,59606,59606,59606,59606,59605,59604,59606,59605,59604,59604,59604,59604,59604,59604,59604,59604,59604,59604,59604,59604,59604,59604,59604,59604,59604,59604,59604,59604,59604,59604,59604,59604,59604,59604,59604,59604,59604,59604,59604,59605,59606,59604,59605,59606,
59604,59604,59606,59605,59605,59604,59604,59604,59604,59606,59605,59605,59605,59605,59605,59605,59605,59606,59606,59606,59606,59606,59606,59604,59604,59605,59606,59604,59604,59604,59604,59604,59604,59604,59604,59605,59605,59605,59605,59605,59605,59604,59606,59605,59604,59604,59604,59604,59604,59604,59604,59604,59604,59604,59604,59604,59604,59604,59604,59604,59604,59604,59604,59604,59604,59604,59604,59604,59604,59604,59604,59604,59604,59604,59604,59605,59606,59604,59605,59606,
59604,59604,59606,59606,59605,59605,59604,59604,59604,59606,59605,59606,59606,59606,59606,59606,59606,59606,59604,59604,59604,59604,59604,59604,59604,59605,59606,59606,59606,59606,59606,59606,59604,59604,59604,59604,59604,59604,59604,59604,59604,59604,59606,59605,59604,59604,59604,59604,59604,59604,59604,59604,59604,59604,59604,59604,59604,59604,59604,59604,59604,59604,59604,59604,59604,59604,59604,59604,59604,59604,59604,59604,59604,59604,59604,59605,59606,59604,59605,59606,
59604,59604,59604,59606,59606,59605,59604,59604,59604,59606,59605,59604,59604,59604,59604,59604,59604,59604,59604,59604,59604,59604,59604,59604,59604,59605,59605,59605,59605,59605,59605,59606,59604,59604,59604,59604,59604,59604,59604,59604,59604,59604,59606,59605,59604,59604,59604,59604,59604,59604,59604,59604,59604,59604,59604,59604,59604,59604,59604,59604,59604,59604,59604,59604,59604,59604,59604,59604,59604,59604,59604,59604,59604,59604,59604,59605,59606,59604,59605,59606,
59604,59604,59604,59604,59606,59605,59604,59606,59606,59606,59605,59604,59604,59604,59604,59604,59604,59604,59604,59604,59604,59604,59604,59604,59604,59605,59605,59605,59605,59605,59605,59606,59604,59604,59604,59604,59604,59604,59604,59604,59604,59604,59606,59605,59604,59604,59604,59604,59604,59604,59604,59604,59604,59604,59604,59604,59604,59604,59604,59604,59604,59604,59604,59604,59604,59604,59604,59604,59604,59604,59604,59604,59604,59604,59604,59605,59606,59604,59605,59606,
59604,59604,59604,59604,59606,59605,59604,59606,59605,59605,59605,59604,59604,59604,59604,59604,59604,59604,59604,59604,59604,59604,59604,59604,59604,59604,59604,59604,59604,59604,59605,59606,59606,59606,59606,59606,59604,59606,59606,59606,59606,59606,59606,59605,59604,59604,59604,59604,59604,59604,59604,59604,59604,59604,59604,59604,59604,59604,59604,59604,59604,59604,59604,59604,59604,59604,59604,59604,59604,59604,59604,59604,59604,59605,59605,59605,59606,59604,59605,59606,
59604,59604,59604,59604,59606,59605,59604,59606,59605,59604,59604,59604,59604,59604,59604,59604,59604,59604,59604,59604,59604,59604,59604,59604,59604,59604,59604,59604,59604,59604,59605,59605,59605,59605,59605,59606,59604,59606,59605,59605,59605,59605,59605,59605,59604,59604,59604,59604,59604,59604,59604,59604,59604,59604,59604,59604,59604,59604,59604,59604,59604,59604,59604,59604,59604,59604,59604,59604,59604,59604,59604,59604,59604,59605,59606,59606,59606,59604,59605,59606,
59604,59604,59604,59604,59606,59605,59604,59606,59605,59604,59604,59604,59604,59604,59604,59604,59604,59604,59604,59604,59604,59604,59604,59604,59604,59604,59604,59604,59604,59604,59605,59605,59605,59605,59605,59606,59606,59606,59605,59604,59604,59604,59604,59604,59604,59604,59604,59604,59604,59604,59604,59604,59604,59604,59604,59604,59604,59604,59604,59604,59604,59604,59604,59604,59604,59604,59604,59604,59604,59604,59604,59604,59604,59605,59606,59604,59604,59604,59605,59606,
59604,59604,59604,59604,59606,59605,59604,59606,59605,59604,59604,59604,59604,59604,59604,59604,59604,59604,59604,59604,59604,59604,59604,59604,59604,59604,59604,59604,59604,59604,59604,59604,59604,59604,59605,59605,59605,59605,59605,59604,59604,59604,59604,59604,59604,59604,59604,59604,59604,59604,59604,59604,59604,59604,59604,59604,59604,59604,59604,59604,59604,59604,59604,59604,59604,59604,59604,59604,59604,59604,59604,59604,59604,59605,59606,59604,59604,59604,59605,59606,
59604,59604,59604,59606,59606,59605,59604,59606,59605,59604,59604,59604,59604,59604,59604,59604,59604,59604,59604,59604,59604,59604,59604,59604,59604,59604,59604,59604,59604,59604,59604,59604,59604,59604,59605,59606,59604,59604,59604,59604,59604,59604,59604,59604,59604,59604,59604,59604,59604,59604,59604,59604,59604,59604,59604,59604,59604,59604,59604,59604,59604,59604,59604,59604,59604,59604,59604,59604,59604,59604,59605,59605,59605,59605,59606,59604,59605,59605,59605,59606,
59604,59604,59604,59606,59605,59605,59604,59606,59605,59604,59604,59604,59604,59604,59604,59604,59604,59604,59604,59604,59604,59604,59604,59604,59604,59604,59604,59604,59604,59604,59604,59604,59604,59604,59605,59606,59604,59604,59604,59604,59604,59604,59604,59604,59604,59604,59604,59604,59604,59604,59604,59604,59604,59604,59604,59604,59604,59604,59604,59604,59604,59604,59604,59604,59604,59604,59604,59604,59604,59604,59605,59606,59606,59606,59606,59604,59605,59606,59606,59606,
59604,59604,59604,59606,59605,59605,59604,59606,59605,59604,59604,59604,59604,59604,59604,59604,59604,59604,59604,59604,59604,59604,59604,59604,59604,59604,59604,59604,59604,59604,59604,59604,59604,59604,59605,59606,59604,59604,59604,59604,59604,59604,59604,59604,59604,59604,59604,59604,59604,59604,59604,59604,59604,59604,59604,59604,59604,59604,59604,59604,59604,59604,59604,59604,59604,59604,59604,59604,59604,59604,59605,59606,59604,59604,59604,59604,59605,59606,59604,59604,
59604,59604,59604,59606,59605,59604,59604,59606,59605,59604,59604,59604,59604,59604,59604,59604,59604,59604,59604,59604,59604,59604,59604,59604,59604,59604,59604,59604,59604,59604,59604,59604,59604,59604,59607,59606,59604,59604,59604,59604,59604,59604,59604,59604,59604,59604,59604,59604,59604,59604,59604,59604,59604,59604,59604,59604,59604,59604,59604,59604,59604,59604,59604,59604,59604,59604,59604,59604,59604,59604,59605,59606,59604,59604,59604,59604,59605,59606,59604,59604,
59604,59604,59606,59606,59605,59604,59604,59606,59605,59604,59604,59604,59604,59604,59604,59604,59604,59604,59604,59604,59604,59604,59604,59604,59604,59604,59604,59604,59604,59604,59604,59604,59604,59604,59607,59606,59604,59604,59604,59604,59604,59604,59604,59604,59604,59604,59604,59604,59604,59604,59604,59604,59604,59604,59604,59604,59604,59604,59604,59604,59604,59604,59604,59604,59604,59604,59604,59604,59604,59604,59605,59606,59604,59604,59604,59604,59605,59606,59604,59604,
59604,59604,59606,59605,59605,59604,59604,59606,59605,59604,59604,59604,59604,59604,59604,59604,59604,59604,59604,59604,59604,59604,59604,59604,59604,59604,59604,59604,59604,59604,59604,59604,59604,59604,59607,59606,59604,59604,59604,59604,59604,59604,59604,59604,59604,59604,59604,59604,59604,59604,59604,59604,59604,59604,59604,59604,59604,59604,59604,59604,59604,59604,59604,59604,59604,59604,59604,59604,59604,59604,59605,59606,59604,59604,59604,59604,59605,59606,59604,59604,
59604,59604,59606,59605,59605,59604,59604,59606,59605,59605,59605,59605,59605,59605,59604,59604,59604,59604,59604,59604,59604,59604,59604,59604,59604,59604,59604,59604,59604,59604,59604,59604,59604,59604,59605,59606,59606,59606,59606,59604,59604,59604,59604,59604,59604,59604,59604,59604,59604,59604,59604,59604,59604,59604,59604,59604,59604,59604,59604,59604,59604,59604,59604,59604,59604,59604,59604,59605,59605,59605,59605,59606,59604,59604,59604,59604,59605,59606,59604,59604,
59604,59604,59606,59605,59604,59604,59604,59606,59606,59606,59606,59606,59606,59605,59604,59604,59604,59604,59604,59604,59604,59604,59604,59604,59604,59604,59604,59604,59604,59604,59604,59604,59604,59604,59605,59605,59605,59605,59606,59604,59604,59604,59604,59604,59604,59604,59604,59604,59604,59604,59604,59604,59604,59604,59604,59604,59604,59604,59604,59604,59604,59604,59604,59604,59604,59604,59604,59605,59606,59606,59606,59606,59604,59604,59604,59604,59605,59606,59604,59604,
59604,59604,59606,59605,59604,59604,59604,59604,59604,59604,59604,59604,59606,59605,59604,59604,59604,59604,59604,59604,59604,59604,59604,59604,59604,59604,59604,59604,59604,59604,59604,59604,59604,59604,59604,59604,59604,59605,59606,59604,59604,59604,59604,59604,59604,59604,59604,59604,59604,59604,59604,59604,59604,59604,59604,59604,59604,59604,59604,59604,59604,59604,59604,59605,59605,59605,59605,59605,59606,59604,59604,59604,59604,59605,59605,59605,59605,59606,59604,59604,
59604,59604,59606,59605,59605,59605,59604,59604,59604,59604,59604,59604,59606,59605,59604,59604,59604,59604,59604,59604,59604,59604,59604,59604,59604,59604,59604,59604,59604,59604,59604,59604,59604,59604,59604,59604,59604,59605,59606,59604,59604,59604,59604,59604,59604,59604,59604,59604,59604,59604,59604,59604,59604,59604,59604,59604,59604,59604,59604,59604,59604,59604,59604,59605,59606,59606,59606,59606,59606,59604,59604,59604,59604,59605,59606,59606,59606,59606,59604,59604,
59604,59604,59606,59606,59606,59605,59604,59604,59604,59604,59604,59604,59606,59605,59605,59605,59604,59604,59604,59604,59604,59604,59604,59604,59604,59604,59604,59604,59604,59604,59604,59604,59604,59604,59604,59604,59604,59605,59606,59604,59604,59604,59604,59604,59604,59604,59604,59604,59604,59604,59604,59604,59604,59604,59604,59604,59604,59604,59604,59604,59604,59604,59604,59605,59606,59604,59604,59604,59604,59604,59605,59605,59605,59605,59606,59604,59604,59604,59604,59604,
59604,59604,59604,59604,59606,59605,59605,59605,59605,59605,59605,59604,59606,59606,59606,59605,59604,59604,59604,59604,59604,59604,59604,59604,59604,59604,59604,59604,59604,59604,59604,59604,59604,59604,59604,59604,59604,59605,59606,59604,59604,59604,59604,59604,59604,59604,59604,59604,59604,59604,59604,59604,59604,59604,59604,59604,59604,59604,59604,59604,59604,59604,59604,59605,59606,59604,59604,59604,59604,59604,59605,59606,59606,59606,59606,59604,59604,59604,59604,59604,
59604,59604,59604,59604,59606,59606,59606,59606,59606,59606,59605,59604,59604,59604,59606,59605,59604,59604,59604,59604,59604,59604,59604,59604,59604,59604,59604,59604,59604,59604,59604,59604,59604,59604,59604,59604,59604,59605,59606,59604,59604,59604,59604,59604,59604,59604,59604,59604,59604,59604,59604,59604,59604,59604,59604,59604,59604,59604,59604,59604,59604,59604,59604,59605,59606,59604,59604,59605,59605,59605,59605,59606,59604,59604,59604,59604,59604,59604,59604,59604,
59604,59604,59604,59604,59604,59604,59604,59604,59604,59606,59605,59605,59604,59604,59606,59605,59604,59604,59604,59604,59604,59604,59604,59604,59604,59604,59604,59604,59604,59604,59604,59604,59604,59604,59604,59604,59604,59605,59606,59604,59604,59604,59604,59604,59604,59604,59604,59604,59604,59604,59604,59604,59604,59604,59604,59604,59604,59604,59604,59604,59604,59604,59604,59605,59606,59604,59604,59605,59606,59606,59606,59606,59604,59604,59604,59604,59605,59605,59605,59605,
59604,59604,59604,59604,59604,59604,59604,59604,59606,59606,59606,59605,59604,59604,59606,59605,59604,59604,59604,59604,59604,59604,59604,59604,59604,59604,59604,59604,59604,59604,59604,59604,59604,59604,59604,59604,59604,59605,59606,59604,59604,59604,59604,59604,59604,59604,59604,59604,59604,59604,59604,59604,59604,59604,59604,59604,59604,59604,59604,59604,59604,59604,59604,59605,59606,59604,59604,59605,59606,59604,59604,59604,59604,59604,59604,59604,59605,59606,59606,59606,
59604,59604,59604,59604,59604,59604,59604,59604,59606,59605,59605,59605,59604,59604,59606,59605,59604,59604,59604,59604,59604,59604,59604,59604,59604,59604,59604,59604,59604,59604,59604,59604,59604,59604,59604,59604,59604,59605,59606,59604,59604,59604,59604,59604,59604,59604,59604,59604,59604,59604,59604,59604,59604,59604,59604,59604,59604,59604,59604,59604,59604,59604,59604,59605,59606,59604,59604,59605,59606,59604,59604,59604,59604,59604,59604,59604,59605,59606,59604,59604,
59604,59604,59604,59604,59604,59604,59604,59604,59606,59605,59605,59605,59604,59604,59606,59605,59605,59605,59605,59605,59605,59605,59605,59604,59604,59604,59604,59604,59604,59604,59604,59604,59604,59604,59604,59604,59604,59605,59606,59604,59604,59604,59604,59604,59604,59604,59604,59604,59604,59604,59604,59604,59604,59604,59604,59604,59604,59604,59604,59604,59604,59604,59604,59605,59606,59604,59604,59605,59606,59604,59604,59604,59605,59605,59605,59605,59605,59606,59604,59604,
59604,59604,59604,59604,59604,59604,59604,59604,59606,59605,59604,59604,59604,59604,59606,59606,59606,59606,59606,59606,59606,59606,59605,59604,59604,59604,59604,59604,59604,59604,59604,59604,59604,59604,59604,59604,59604,59605,59606,59604,59604,59604,59604,59605,59605,59605,59605,59605,59605,59605,59604,59604,59604,59604,59604,59604,59604,59604,59604,59604,59604,59604,59604,59605,59606,59604,59604,59605,59606,59604,59604,59604,59605,59606,59606,59606,59606,59606,59604,59604,
59604,59604,59604,59604,59604,59604,59604,59604,59606,59605,59605,59605,59604,59604,59604,59604,59604,59604,59604,59604,59604,59606,59605,59604,59604,59604,59604,59605,59605,59605,59605,59605,59605,59605,59605,59605,59605,59605,59605,59607,59607,59607,59605,59605,59606,59606,59606,59606,59606,59605,59604,59604,59604,59604,59604,59604,59604,59604,59604,59605,59605,59605,59605,59605,59606,59604,59604,59605,59606,59604,59604,59604,59605,59606,59604,59604,59604,59604,59604,59604,
59604,59604,59604,59604,59604,59604,59604,59604,59606,59606,59606,59605,59604,59604,59604,59604,59604,59604,59604,59604,59604,59606,59605,59604,59604,59604,59604,59605,59606,59606,59606,59606,59606,59606,59606,59606,59606,59606,59606,59606,59606,59606,59606,59606,59606,59604,59604,59604,59606,59605,59604,59604,59604,59604,59604,59604,59604,59604,59604,59605,59606,59606,59606,59606,59606,59604,59605,59605,59606,59604,59605,59605,59605,59606,59604,59604,59604,59604,59604,59604,
59604,59604,59604,59604,59604,59604,59604,59604,59604,59604,59606,59605,59604,59604,59604,59604,59604,59604,59604,59604,59604,59606,59605,59605,59605,59605,59605,59605,59606,59604,59604,59604,59604,59604,59604,59604,59604,59604,59604,59604,59604,59604,59604,59604,59604,59604,59604,59604,59606,59605,59605,59605,59605,59605,59605,59605,59605,59605,59605,59605,59606,59604,59604,59604,59604,59604,59605,59606,59606,59604,59605,59606,59606,59606,59604,59604,59604,59604,59604,59604,
59604,59604,59604,59604,59604,59604,59604,59604,59604,59604,59606,59605,59605,59605,59605,59605,59605,59605,59605,59605,59604,59606,59606,59606,59606,59606,59606,59606,59606,59604,59604,59604,59604,59604,59604,59604,59604,59604,59604,59604,59604,59604,59605,59605,59605,59605,59605,59604,59606,59606,59606,59606,59606,59606,59606,59606,59606,59606,59606,59606,59606,59604,59605,59605,59605,59605,59605,59606,59604,59604,59605,59606,59604,59604,59604,59604,59604,59604,59604,59604,
59604,59604,59604,59604,59604,59604,59604,59604,59604,59604,59606,59606,59606,59606,59606,59606,59606,59606,59606,59605,59604,59604,59604,59604,59604,59604,59604,59604,59604,59604,59604,59605,59605,59605,59605,59605,59605,59605,59605,59605,59605,59605,59605,59606,59606,59606,59605,59604,59604,59604,59604,59604,59604,59604,59604,59604,59604,59604,59604,59604,59604,59604,59605,59606,59606,59606,59606,59606,59604,59604,59605,59606,59604,59604,59604,59604,59604,59604,59604,59604,
59604,59604,59604,59604,59604,59604,59604,59604,59604,59604,59604,59604,59604,59604,59604,59604,59604,59604,59606,59605,59604,59604,59604,59604,59604,59604,59604,59604,59604,59604,59604,59605,59606,59606,59606,59606,59606,59606,59606,59606,59606,59606,59606,59606,59604,59606,59605,59604,59604,59604,59604,59604,59604,59604,59604,59604,59604,59604,59604,59604,59604,59604,59605,59606,59604,59604,59604,59604,59604,59604,59605,59606,59604,59604,59604,59604,59604,59604,59604,59604
</data>
 </layer>
 <layer id="43" name="RockSlopes2_Auto" width="80" height="80">
  <data encoding="csv">
0,0,0,0,0,0,0,0,0,0,0,0,0,0,0,0,0,0,0,0,0,0,0,0,0,0,0,0,0,0,0,0,0,0,0,0,0,0,0,0,0,0,0,0,0,0,0,0,0,0,0,0,0,0,0,0,0,0,0,0,0,0,0,0,0,0,0,0,0,0,0,0,0,0,0,0,0,0,0,0,
0,0,0,0,0,0,0,0,0,0,0,0,0,0,0,0,0,0,0,0,0,0,0,0,0,0,0,0,0,0,0,0,0,0,0,0,0,0,0,0,0,0,0,0,0,0,0,0,0,0,0,0,0,0,0,0,0,0,0,0,0,0,0,0,0,0,0,0,0,0,0,0,0,0,0,0,0,0,0,0,
0,0,0,0,0,0,0,0,0,0,0,0,0,0,0,0,0,0,0,0,0,0,0,0,0,0,0,0,0,0,0,0,0,0,0,0,0,0,0,0,0,0,0,0,0,0,0,0,0,0,0,0,0,0,0,0,0,0,0,0,0,0,0,0,0,0,0,0,0,0,0,0,0,0,0,0,0,0,0,0,
0,0,0,0,0,0,0,0,0,0,0,0,0,0,0,0,0,0,0,0,0,0,0,0,0,0,0,0,0,0,0,0,0,0,0,0,0,0,0,0,0,0,0,0,0,0,0,0,0,0,0,60629,60438,60438,60438,60438,60438,60438,60438,60438,60438,60438,60445,59798,59798,59798,59927,0,0,0,0,0,0,0,0,0,0,0,0,0,
0,0,0,0,0,0,0,0,0,0,0,0,0,0,0,0,0,0,0,0,0,0,0,0,0,0,0,0,0,0,0,0,0,0,0,0,0,0,0,0,0,0,0,0,0,0,0,0,0,0,0,60693,60502,60502,60502,60502,60502,60502,60502,60502,60502,60502,60509,0,0,0,59797,59798,59798,59798,59927,0,0,0,0,0,0,0,0,0,
0,0,0,0,0,0,0,0,61589,61334,61334,61334,61334,61334,61334,61334,61334,61334,61334,61334,61334,61349,60438,60438,60438,60438,60438,60438,60385,0,0,0,0,0,0,0,0,0,0,60629,60438,60438,60438,60438,60438,60438,60438,60438,60438,60438,60438,60439,0,0,0,0,0,0,0,0,0,0,59733,0,0,0,0,0,0,0,59733,0,0,0,0,0,0,0,0,0,
0,0,0,0,0,0,0,0,61653,61398,61398,61398,61398,61398,61398,61398,61398,61398,61398,61398,61398,61413,60502,60502,60502,60502,60502,60502,60449,60438,61351,61334,61334,61291,0,0,0,0,0,60693,60502,60502,60502,60502,60502,60502,60502,60502,60502,60502,60502,60503,0,0,0,0,0,0,0,0,0,0,59733,0,0,0,0,0,0,0,59733,0,0,0,0,0,0,0,0,0,
0,0,0,0,0,0,0,0,61717,61462,61462,61462,61462,61462,61462,61462,61462,61462,61462,61462,61462,61477,0,0,0,0,0,0,60513,60502,61415,61398,61398,61355,0,0,0,0,0,59735,0,0,0,0,0,0,0,0,0,0,0,0,0,0,0,0,0,0,0,0,0,0,59797,59798,59798,59798,59798,59927,0,0,59733,0,0,0,0,0,0,0,0,0,
0,0,0,0,0,0,0,0,59735,0,0,0,0,0,0,0,0,0,0,0,0,59733,0,0,0,0,0,0,0,0,61479,61462,61462,61419,61334,61334,61334,61349,60438,60439,0,0,0,0,0,0,0,0,0,0,0,0,0,0,0,0,0,0,0,0,0,0,0,0,0,0,0,59733,0,0,59733,0,0,0,0,0,0,0,0,0,
0,0,0,0,0,0,0,0,59735,0,0,0,0,0,0,0,0,0,0,0,0,59733,0,0,0,0,0,0,0,0,59735,0,0,61483,61398,61398,61398,61413,60502,60503,0,0,0,0,0,0,0,0,0,0,0,0,0,0,0,0,0,0,0,0,0,0,0,0,0,0,0,59733,0,0,59733,0,0,0,0,0,0,0,0,0,
0,0,0,60629,60438,60438,61351,61334,61335,0,0,0,0,0,0,0,0,0,0,0,0,59733,0,0,0,0,0,0,0,0,59735,0,0,61547,61462,61462,61462,61477,0,0,0,0,0,0,0,0,0,0,0,0,0,0,0,0,0,0,0,0,0,0,0,0,0,0,0,0,0,59797,59798,59798,59743,0,0,0,0,0,0,0,0,0,
0,0,0,60693,60502,60502,61415,61398,61399,0,0,0,0,0,0,0,0,0,0,0,0,59797,59798,59798,59927,0,0,0,0,0,59735,0,0,0,0,0,0,59733,0,0,0,0,0,0,0,0,0,0,0,0,0,0,0,0,0,0,0,0,0,0,0,0,0,0,0,0,0,0,0,0,59733,0,0,0,0,0,0,0,0,0,
0,0,0,59735,0,0,61479,61462,61463,0,0,0,0,0,0,0,0,0,0,0,0,0,0,0,59733,0,0,0,0,0,59735,0,0,0,0,0,0,59733,0,0,0,0,0,0,0,0,0,0,0,0,0,0,0,0,0,0,0,0,0,0,0,0,0,0,0,0,0,0,0,0,59733,0,0,0,0,0,0,0,0,0,
0,0,0,59735,0,0,59735,0,0,0,0,0,0,0,0,0,0,0,0,0,0,0,0,0,59733,0,0,0,0,0,59735,0,0,0,0,0,0,60060,0,0,0,0,0,0,0,0,0,0,0,0,0,0,0,0,0,0,0,0,0,0,0,0,0,0,0,0,0,0,0,0,60437,60438,60438,60631,0,0,0,0,0,0,
0,0,0,59735,0,0,59735,0,0,0,0,0,0,0,0,0,0,0,0,0,0,0,0,0,59797,59798,59798,59798,59798,59798,59799,0,0,0,0,0,0,60124,0,0,0,0,0,0,0,0,0,0,0,0,0,0,0,0,0,0,0,0,0,0,0,0,0,0,0,0,0,0,0,0,60501,60502,60502,60695,0,0,0,0,0,0,
0,0,0,59735,0,0,59735,0,0,0,0,0,0,0,0,0,0,0,0,0,0,0,0,0,0,0,0,0,0,0,0,0,0,0,0,0,0,60188,0,0,0,0,0,0,0,0,0,0,0,0,0,0,0,0,0,0,0,0,0,0,0,0,0,0,0,0,0,0,0,0,0,0,0,59733,0,0,0,0,0,0,
0,0,0,59735,0,0,59735,0,0,0,0,0,0,0,0,0,0,0,0,0,0,0,0,0,0,0,0,0,0,0,0,0,0,0,0,0,0,59733,0,0,0,0,0,0,0,0,0,0,0,0,0,0,0,0,0,0,0,0,0,0,0,0,0,0,0,0,0,0,0,0,0,0,0,59733,0,0,0,0,0,0,
0,0,0,59735,0,0,59735,0,0,0,0,0,0,0,0,0,0,0,0,0,0,0,0,0,0,0,0,0,0,0,0,0,0,0,0,0,0,59733,0,0,0,0,0,0,0,0,0,0,0,0,0,0,0,0,0,0,0,0,0,0,0,0,0,0,0,0,0,0,0,0,0,0,0,59733,0,0,0,0,0,0,
0,0,0,59735,0,0,59735,0,0,0,0,0,0,0,0,0,0,0,0,0,0,0,0,0,0,0,0,0,0,0,0,0,0,0,0,0,0,59733,0,0,0,0,0,0,0,0,0,0,0,0,0,0,0,0,0,0,0,0,0,0,0,0,0,0,0,0,0,0,0,0,0,0,0,59733,0,0,0,0,0,0,
0,0,0,59735,0,0,59989,60194,60067,60068,60069,60197,59671,0,0,0,0,0,0,0,0,0,0,0,0,0,0,0,0,0,0,0,0,0,0,0,0,59797,59927,0,0,0,0,0,0,0,0,0,0,0,0,0,0,0,0,0,0,0,0,0,0,0,0,0,0,0,0,0,0,0,0,0,0,59733,0,0,0,0,0,0,
0,0,0,59735,0,0,0,0,0,0,0,0,59735,0,0,0,0,0,0,0,0,0,0,0,0,0,0,0,0,0,0,0,0,0,0,0,0,0,59733,0,0,0,0,0,0,0,0,0,0,0,0,0,0,0,0,0,0,0,0,0,0,0,0,0,0,0,0,0,0,0,0,0,59669,59991,0,0,0,0,0,0,
0,0,0,59735,0,0,0,0,0,0,0,0,59735,0,0,59925,59798,59798,59927,0,0,0,0,0,0,0,0,0,0,0,0,0,0,0,0,0,0,0,59733,0,0,0,0,0,0,0,0,0,0,0,0,0,0,0,0,0,0,0,0,0,0,0,0,0,0,0,0,0,0,0,0,0,59733,0,0,0,0,0,0,0,
0,0,0,59989,59670,59671,0,0,0,0,0,0,59741,59798,59798,59799,0,0,59797,59798,60053,60054,60055,60056,60057,59798,59927,0,0,0,0,0,0,0,0,0,0,0,59733,0,0,0,0,0,0,0,0,0,0,0,0,0,0,0,0,0,0,0,0,0,0,0,0,0,0,0,0,0,0,0,0,0,59733,0,0,0,0,0,0,0,
0,0,0,0,0,59735,0,0,0,0,0,0,59735,0,0,0,0,0,0,0,0,0,0,0,0,0,59797,59927,0,0,0,0,0,0,0,0,0,0,59733,0,0,0,0,0,0,0,0,0,0,0,0,0,0,0,0,0,0,0,0,0,0,0,0,0,0,0,0,0,0,0,0,0,60437,60438,60631,0,0,0,0,0,
0,0,0,0,0,59735,0,0,0,0,0,0,59735,0,0,0,0,0,0,0,0,0,0,0,0,0,0,59733,0,0,0,0,0,0,0,0,0,0,59733,0,0,0,0,0,0,0,0,0,0,0,0,0,0,0,0,0,0,0,0,0,0,0,0,0,0,0,0,0,0,0,0,0,60501,60502,60695,0,0,0,0,0,
0,60629,60438,60438,60438,60439,0,0,0,0,59925,59798,59799,0,0,0,0,0,0,0,0,0,0,0,0,0,0,59733,0,0,0,0,0,0,0,0,0,0,59733,0,0,0,0,0,0,0,0,0,0,0,0,0,0,0,0,0,0,0,0,0,0,0,0,0,0,0,0,0,0,0,0,0,0,0,59733,0,0,0,0,0,
0,60693,60502,60502,60502,60503,0,0,0,0,59735,0,0,0,0,0,0,0,0,0,0,0,0,0,0,0,0,59733,0,0,0,0,0,0,0,0,0,0,59733,0,0,0,0,0,0,0,0,0,0,0,0,0,0,0,0,0,0,0,0,0,0,0,0,0,0,0,0,0,0,0,0,0,0,0,59733,0,0,0,0,0,
0,59735,0,0,0,0,0,0,0,0,59735,0,0,0,0,0,0,0,0,0,0,0,0,0,0,0,0,60060,0,0,0,0,0,0,0,0,0,0,59733,0,0,0,0,0,0,0,0,0,0,0,0,0,0,0,0,0,0,0,0,0,0,0,0,0,0,0,0,0,0,0,0,0,0,0,59733,0,0,0,0,0,
0,59735,0,0,0,0,0,0,0,0,59735,0,0,0,0,0,0,0,0,0,0,0,0,0,0,0,0,60124,0,0,0,0,0,0,0,0,0,0,59733,0,0,0,0,0,0,0,0,0,0,0,0,0,0,0,0,0,0,0,0,0,0,0,0,0,0,0,0,0,0,0,0,0,0,0,59733,0,0,0,0,0,
0,59735,0,0,59925,59798,59798,59798,59798,59798,59799,0,0,0,0,0,0,0,0,0,0,0,0,0,0,0,0,60188,0,0,0,0,0,0,0,0,0,0,59733,0,0,0,0,0,0,0,0,0,0,0,0,0,0,0,0,0,0,0,0,0,0,0,0,0,0,0,0,0,0,0,0,59669,59670,59670,59739,0,0,0,0,0,
0,59735,0,0,59735,0,0,0,0,0,0,0,0,0,0,0,0,0,0,0,0,0,0,0,0,0,0,59733,0,0,0,0,0,0,0,0,0,0,59733,0,0,0,0,0,0,0,0,0,0,0,0,0,0,0,0,0,0,0,0,0,0,0,0,0,0,0,0,0,0,0,0,59733,0,0,59733,0,0,0,0,0,
0,59735,0,0,59735,0,0,0,0,0,0,0,0,0,0,0,0,0,0,0,0,0,0,0,0,0,0,59733,0,0,0,0,0,0,0,0,0,0,59733,0,0,0,0,0,0,0,0,0,0,0,0,0,0,0,0,0,0,0,0,0,0,0,0,0,0,0,0,0,0,0,0,59733,0,0,59733,0,0,0,0,0,
0,59735,0,0,59735,0,0,0,0,0,0,0,0,0,0,0,0,0,0,0,0,0,0,0,0,0,0,59733,0,0,0,0,0,0,0,0,0,0,59797,59798,59798,59798,59927,0,0,0,0,0,0,0,0,0,0,0,0,0,0,0,0,0,0,0,0,0,0,0,0,0,0,0,0,59733,0,0,59733,0,0,0,0,0,
0,59735,0,0,59735,0,0,0,0,0,0,0,0,0,0,0,0,0,0,0,0,0,0,0,0,0,0,59797,59798,59798,59927,0,0,0,0,0,0,0,0,0,0,0,59733,0,0,0,0,0,0,0,0,0,0,0,0,0,0,0,0,0,0,0,0,0,0,0,0,0,0,0,0,59733,0,0,59797,59927,0,0,0,0,
0,59735,0,0,59735,0,0,0,0,0,0,0,0,0,0,0,0,0,0,0,0,0,0,0,0,0,0,0,0,0,59797,59927,0,0,0,0,0,0,0,0,0,0,59733,0,0,0,0,0,0,0,0,0,0,0,0,0,0,0,0,0,0,0,0,0,0,0,0,0,0,0,0,59733,0,0,0,59797,59798,59927,0,0,
0,59735,0,0,59735,0,0,0,0,0,0,0,0,0,0,0,0,0,0,0,0,0,0,0,0,0,0,0,0,0,0,59733,0,0,0,0,0,0,0,0,0,0,59733,0,0,0,0,0,0,0,0,0,0,0,0,0,0,0,0,0,0,0,0,0,0,0,0,0,0,0,0,59733,0,0,0,0,0,59733,0,0,
0,59735,0,0,59735,0,0,0,0,0,0,0,0,0,0,0,0,0,0,0,0,0,0,0,0,0,0,0,0,0,0,59733,0,0,0,0,0,0,0,0,0,0,59733,0,0,0,0,0,0,0,0,0,0,0,0,0,0,0,0,0,0,0,0,0,0,0,0,0,0,0,0,59733,0,0,0,0,0,59733,0,0,
0,59735,0,0,59989,59670,59671,0,0,0,0,0,0,0,0,0,0,0,0,0,0,0,0,0,0,0,0,0,0,0,0,59733,0,0,0,0,59669,59670,59670,59670,59670,59670,59751,59670,59670,59670,59671,0,0,0,0,0,0,0,0,0,0,0,0,0,0,0,0,0,0,0,0,0,0,0,0,59733,0,0,0,0,0,59797,59927,0,
0,59735,0,0,0,0,59735,0,0,0,0,0,0,0,0,0,0,0,0,0,0,0,0,0,0,0,0,0,0,0,0,59733,0,0,0,0,59733,0,0,0,0,0,0,0,0,0,59735,0,0,0,0,0,0,0,0,0,0,0,0,0,0,0,0,0,59669,59670,59670,59670,59671,0,0,59733,0,0,0,0,0,0,59733,0,
0,59735,0,0,0,0,59735,0,0,0,0,0,0,0,0,0,0,0,0,0,0,0,0,0,0,0,0,0,0,0,59669,59749,59670,59670,59670,59670,59991,0,0,0,0,0,0,0,0,0,59735,0,0,0,0,0,0,0,0,0,0,0,0,0,0,0,59669,59670,59991,0,0,0,59735,0,0,59733,0,0,0,0,0,0,59733,0,
0,59735,0,0,0,0,59735,0,0,0,0,0,0,0,0,0,0,0,0,0,0,0,0,0,0,0,0,0,0,0,59733,0,0,0,0,0,0,0,0,59669,59670,59670,59670,59671,0,0,59735,0,0,0,0,0,0,0,0,0,0,0,0,0,0,0,59733,0,0,0,0,0,59989,59671,0,59797,59798,59798,59798,59927,0,0,59733,0,
0,59989,59670,59671,0,0,59735,0,0,0,0,0,0,0,0,0,0,0,0,0,0,0,0,0,0,0,0,0,0,0,59733,0,0,0,0,0,0,0,59669,59991,0,0,0,59735,0,0,59735,0,0,0,0,0,0,0,0,0,0,0,0,0,59669,59670,59991,0,0,0,0,0,0,59735,0,0,0,0,0,59733,0,0,59733,0,
0,0,0,59735,0,0,59735,0,0,0,0,0,0,0,0,0,0,0,0,0,0,0,0,0,0,59669,59670,59670,59670,59670,59991,0,0,59669,59670,59670,59670,59670,59991,0,0,59925,59798,59799,0,0,59735,0,0,0,0,0,0,0,0,0,0,0,0,0,59733,0,0,0,0,0,0,0,0,59735,0,0,0,0,0,59733,0,0,59733,0,
0,0,0,59735,0,0,59735,0,0,0,0,0,0,0,0,0,0,0,0,0,0,0,0,0,0,59733,0,0,0,0,0,0,0,59733,0,0,0,0,0,0,59925,59799,0,0,0,0,59735,0,0,0,0,0,0,0,0,0,0,0,0,0,59797,59927,0,0,0,0,0,0,0,59735,0,0,0,0,0,59733,0,0,59733,0,
0,0,0,59735,0,0,59989,59670,59670,59670,59671,0,0,0,0,0,0,0,0,0,0,59669,59670,59670,59670,59739,0,0,0,0,0,0,0,59733,0,0,0,0,0,0,59735,0,0,0,0,0,59735,0,0,0,0,0,0,0,0,0,0,0,0,0,0,59733,0,0,0,0,0,0,59925,59799,0,0,0,0,0,59733,0,0,59733,0,
0,0,0,59735,0,0,0,0,0,0,59735,0,0,0,0,0,0,0,0,0,0,59733,0,0,0,59733,0,0,0,0,0,0,0,59733,0,0,0,0,0,0,59735,0,0,59925,59798,59798,59799,0,0,0,0,0,0,0,0,0,0,0,0,0,0,59797,59798,59927,0,0,0,0,59735,0,0,0,0,0,0,59733,0,0,59733,0,
0,0,0,59735,0,0,0,0,0,0,59735,0,0,0,0,0,0,0,0,0,0,59733,0,0,0,59733,0,0,0,0,0,0,0,59733,0,0,0,0,0,0,59735,0,0,59735,0,0,0,0,0,0,0,0,0,0,0,0,0,0,0,0,0,0,0,59797,59798,59798,59798,59798,59799,0,0,0,0,0,0,59733,0,0,59733,0,
0,0,0,59735,0,0,0,0,0,0,59735,0,0,0,0,0,60066,60067,60068,60069,60197,59991,0,0,0,59733,0,0,0,0,0,0,0,59797,59798,59927,0,0,0,0,59735,0,0,59735,0,0,0,0,0,0,0,0,0,0,0,0,0,0,0,0,0,0,0,0,0,0,0,0,0,0,0,0,0,0,0,59733,0,0,59733,0,
0,0,0,59989,59671,0,0,0,0,0,59737,59670,59670,59670,59670,59670,59991,0,0,0,0,0,0,0,0,59733,0,0,0,0,0,0,0,0,0,59797,59798,59798,59798,59798,59799,0,0,59735,0,0,0,0,0,0,0,0,0,0,0,0,0,0,0,0,0,0,0,0,0,0,0,0,0,0,0,0,0,0,0,59733,0,0,59733,0,
0,0,0,0,59989,59671,0,0,0,0,59735,0,0,0,0,0,0,0,0,0,0,0,0,0,0,59733,0,0,0,0,0,0,0,0,0,0,0,0,0,0,0,0,0,59735,0,0,0,0,0,0,0,0,0,0,0,0,0,0,0,0,0,0,0,0,0,0,0,0,0,0,0,0,0,0,0,59733,0,0,59733,0,
0,0,0,0,0,59735,0,0,0,0,59735,0,0,0,0,0,0,0,0,0,0,0,0,0,0,60437,60438,60438,60438,60438,60631,0,0,0,0,0,0,0,0,0,0,0,0,59735,0,0,0,0,0,0,0,0,0,0,0,0,0,0,0,0,0,0,0,0,0,0,0,0,0,0,0,0,0,0,0,59733,0,0,59733,0,
0,0,0,0,0,59735,0,0,0,0,59735,0,0,0,0,0,0,0,0,0,0,0,0,0,0,60501,60502,60502,60502,60502,60695,0,0,0,0,0,0,0,0,0,0,0,0,59735,0,0,0,0,0,0,0,0,0,0,0,0,0,0,0,0,0,0,0,0,0,0,0,0,0,0,0,0,0,0,0,59733,0,0,59733,0,
0,0,0,0,0,59735,0,0,59925,59798,59799,0,0,0,0,0,0,0,0,0,0,0,0,0,0,0,0,0,0,0,59733,0,0,0,0,0,0,0,0,0,0,0,0,59735,0,0,0,0,0,0,0,0,0,0,0,0,0,0,0,0,0,0,0,0,0,0,0,0,0,0,0,0,0,59669,59670,59991,0,0,59733,0,
0,0,0,0,0,59735,0,0,59735,0,0,0,0,0,0,0,0,0,0,0,0,0,0,0,0,0,0,0,0,0,60437,60438,60438,60438,60631,0,0,0,59925,59798,59798,59798,59798,59799,0,0,0,0,0,0,0,0,0,0,0,0,0,0,0,0,0,0,0,0,0,0,0,0,0,0,0,0,0,59733,0,0,0,0,59733,0,
0,0,0,0,0,59735,0,0,59735,0,0,0,0,0,0,0,0,0,0,0,0,0,0,0,0,0,0,0,0,0,60501,60502,60502,60502,60695,0,0,0,59735,0,0,0,0,0,0,0,0,0,0,0,0,0,0,0,0,0,0,0,0,0,0,0,0,0,0,0,0,0,0,0,0,0,0,59733,0,0,0,0,59733,0,
0,0,0,0,0,59735,0,0,59735,0,0,0,0,0,0,0,0,0,0,0,0,0,0,0,0,0,0,0,0,0,0,0,0,0,59745,59798,59798,59798,59799,0,0,0,0,0,0,0,0,0,0,0,0,0,0,0,0,0,0,0,0,0,0,0,0,0,0,0,0,0,0,0,0,0,0,59733,0,0,0,0,59733,0,
0,0,0,0,0,59735,0,0,59735,0,0,0,0,0,0,0,0,0,0,0,0,0,0,0,0,0,0,0,0,0,0,0,0,0,59733,0,0,0,0,0,0,0,0,0,0,0,0,0,0,0,0,0,0,0,0,0,0,0,0,0,0,0,0,0,0,0,0,0,0,0,59669,59670,59670,59991,0,0,59669,59670,59991,0,
0,0,0,0,60629,60439,0,0,59735,0,0,0,0,0,0,0,0,0,0,0,0,0,0,0,0,0,0,0,0,0,0,0,0,0,59733,0,0,0,0,0,0,0,0,0,0,0,0,0,0,0,0,0,0,0,0,0,0,0,0,0,0,0,0,0,0,0,0,0,0,0,59733,0,0,0,0,0,59733,0,0,0,
0,0,0,0,60693,60503,0,0,59735,0,0,0,0,0,0,0,0,0,0,0,0,0,0,0,0,0,0,0,0,0,0,0,0,0,59733,0,0,0,0,0,0,0,0,0,0,0,0,0,0,0,0,0,0,0,0,0,0,0,0,0,0,0,0,0,0,0,0,0,0,0,59733,0,0,0,0,0,59733,0,0,0,
0,0,0,0,59735,0,0,0,59735,0,0,0,0,0,0,0,0,0,0,0,0,0,0,0,0,0,0,0,0,0,0,0,0,0,60060,0,0,0,0,0,0,0,0,0,0,0,0,0,0,0,0,0,0,0,0,0,0,0,0,0,0,0,0,0,0,0,0,0,0,0,59733,0,0,0,0,0,59733,0,0,0,
0,0,0,0,59735,0,0,0,59735,0,0,0,0,0,0,0,0,0,0,0,0,0,0,0,0,0,0,0,0,0,0,0,0,0,60124,0,0,0,0,0,0,0,0,0,0,0,0,0,0,0,0,0,0,0,0,0,0,0,0,0,0,0,0,0,0,0,0,0,0,0,59733,0,0,0,0,0,59733,0,0,0,
0,0,0,60629,60439,0,0,0,59735,0,0,0,0,0,0,0,0,0,0,0,0,0,0,0,0,0,0,0,0,0,0,0,0,0,60188,0,0,0,0,0,0,0,0,0,0,0,0,0,0,0,0,0,0,0,0,0,0,0,0,0,0,0,0,0,0,0,0,0,0,0,59733,0,0,0,0,0,59733,0,0,0,
0,0,0,60693,60503,0,0,0,59989,59670,59670,59670,59670,59671,0,0,0,0,0,0,0,0,0,0,0,0,0,0,0,0,0,0,0,0,59733,0,0,0,0,0,0,0,0,0,0,0,0,0,0,0,0,0,0,0,0,0,0,0,0,0,0,0,0,0,0,0,0,59669,59670,59670,59991,0,0,0,0,0,59733,0,0,0,
0,0,0,59735,0,0,0,0,0,0,0,0,0,59735,0,0,0,0,0,0,0,0,0,0,0,0,0,0,0,0,0,0,0,0,59797,59798,59798,59927,0,0,0,0,0,0,0,0,0,0,0,0,0,0,0,0,0,0,0,0,0,0,0,0,0,0,0,0,0,59733,0,0,0,0,0,0,0,0,59733,0,0,0,
0,0,0,59735,0,0,0,0,0,0,0,0,0,59735,0,0,0,0,0,0,0,0,0,0,0,0,0,0,0,0,0,0,0,0,0,0,0,59733,0,0,0,0,0,0,0,0,0,0,0,0,0,0,0,0,0,0,0,0,0,0,0,0,0,59669,59670,59670,59670,59991,0,0,0,0,0,59669,59670,59670,59991,0,0,0,
0,0,0,59989,59670,59671,0,0,0,0,0,0,0,59735,0,0,0,0,0,0,0,0,0,0,0,0,0,0,0,0,0,0,0,0,0,0,0,59733,0,0,0,0,0,0,0,0,0,0,0,0,0,0,0,0,0,0,0,0,0,0,0,0,0,59733,0,0,0,0,0,0,0,0,0,59733,0,0,0,0,0,0,
0,0,0,0,0,59735,0,0,0,0,0,0,0,59989,59670,59671,0,0,0,0,0,0,0,0,0,0,0,0,0,0,0,0,0,0,0,0,0,59733,0,0,0,0,0,0,0,0,0,0,0,0,0,0,0,0,0,0,0,0,0,0,0,0,0,59733,0,0,0,0,0,0,59669,59670,59670,59991,0,0,0,0,0,0,
0,0,0,0,0,59989,59670,59670,59670,59670,59671,0,0,0,0,59735,0,0,0,0,0,0,0,0,0,0,0,0,0,0,0,0,0,0,0,0,0,59733,0,0,0,0,0,0,0,0,0,0,0,0,0,0,0,0,0,0,0,0,0,0,0,0,0,59733,0,0,0,0,0,0,59733,0,0,0,0,0,0,0,0,0,
0,0,0,0,0,0,0,0,0,0,59735,0,0,0,0,59735,0,0,0,0,0,0,0,0,0,0,0,0,0,0,0,0,0,0,0,0,0,59733,0,0,0,0,0,0,0,0,0,0,0,0,0,0,0,0,0,0,0,0,0,0,0,0,0,59733,0,0,0,59669,59670,59670,59991,0,0,0,0,0,0,0,0,0,
0,0,0,0,0,0,0,0,0,0,59989,59671,0,0,0,59735,0,0,0,0,0,0,0,0,0,0,0,0,0,0,0,0,0,0,0,0,0,59733,0,0,0,0,0,0,0,0,0,0,0,0,0,0,0,0,0,0,0,0,0,0,0,0,0,59733,0,0,0,59733,0,0,0,0,0,0,0,0,59669,59670,59670,59670,
0,0,0,0,0,0,0,0,0,0,0,59735,0,0,0,59735,0,0,0,0,0,0,0,0,0,0,0,0,0,0,0,0,0,0,0,0,0,59733,0,0,0,0,0,0,0,0,0,0,0,0,0,0,0,0,0,0,0,0,0,0,0,0,0,59733,0,0,0,59733,0,0,0,0,0,0,0,0,59733,0,0,0,
0,0,0,0,0,0,0,0,0,60629,60438,60439,0,0,0,59735,0,0,0,0,0,0,0,0,0,0,0,0,0,0,0,0,0,0,0,0,0,59733,0,0,0,0,0,0,0,0,0,0,0,0,0,0,0,0,0,0,0,0,0,0,0,0,0,59733,0,0,0,59733,0,0,0,0,0,0,0,0,59733,0,0,0,
0,0,0,0,0,0,0,0,0,60693,60502,60503,0,0,0,59989,59670,59670,59670,59670,59670,59670,59671,0,0,0,0,0,0,0,0,0,0,0,0,0,0,59733,0,0,0,0,0,0,0,0,0,0,0,0,0,0,0,0,0,0,0,0,0,0,0,0,0,59733,0,0,0,59733,0,0,0,0,59669,59670,59670,59670,59991,0,0,0,
0,0,0,0,0,0,0,0,0,59735,0,0,0,0,0,0,0,0,0,0,0,0,59735,0,0,0,0,0,0,0,0,0,0,0,0,0,0,59733,0,0,0,0,0,59669,59670,59670,59670,59670,59670,59671,0,0,0,0,0,0,0,0,0,0,0,0,0,59733,0,0,0,59733,0,0,0,0,59733,0,0,0,0,0,0,0,
0,0,0,0,0,0,0,0,0,59989,59670,59671,0,0,0,0,0,0,0,0,0,0,59735,0,0,0,0,59669,59670,59670,59670,59670,59670,59670,59670,59670,59670,59751,60194,60067,60068,60069,60197,59991,0,0,0,0,0,59735,0,0,0,0,0,0,0,0,0,59669,59670,59670,59670,59991,0,0,0,59733,0,0,0,0,59733,0,0,0,0,0,0,0,
0,0,0,0,0,0,0,0,0,0,0,59735,0,0,0,0,0,0,0,0,0,0,59735,0,0,0,0,59733,0,0,0,0,0,0,0,0,0,0,0,0,0,0,0,0,0,0,0,0,0,59735,0,0,0,0,0,0,0,0,0,59733,0,0,0,0,0,0,59669,59991,0,0,59669,59670,59991,0,0,0,0,0,0,0,
0,0,0,0,0,0,0,0,0,0,0,59735,0,0,0,0,0,0,0,0,0,0,59989,59670,59670,59670,59670,59991,0,0,0,0,0,0,0,0,0,0,0,0,0,0,0,0,0,0,0,0,0,59989,59670,59670,59670,59670,59670,59670,59670,59670,59670,59991,0,0,0,0,0,0,59733,0,0,0,59733,0,0,0,0,0,0,0,0,0,
0,0,0,0,0,0,0,0,0,0,0,59989,59670,59670,59670,59670,59670,59670,59670,59671,0,0,0,0,0,0,0,0,0,0,0,0,0,0,0,0,0,0,0,0,0,0,59669,59670,59670,59670,59671,0,0,0,0,0,0,0,0,0,0,0,0,0,0,0,59669,59670,59670,59670,59991,0,0,0,59733,0,0,0,0,0,0,0,0,0,
0,0,0,0,0,0,0,0,0,0,0,0,0,0,0,0,0,0,0,59735,0,0,0,0,0,0,0,0,0,0,0,59669,59670,59670,59670,59670,59670,59670,59670,59670,59670,59670,59991,0,0,0,59735,0,0,0,0,0,0,0,0,0,0,0,0,0,0,0,59733,0,0,0,0,0,0,0,59733,0,0,0,0,0,0,0,0,0,
0,0,0,0,0,0,0,0,0,0,0,0,0,0,0,0,0,0,0,59735,0,0,0,0,0,0,0,0,0,0,0,59733,0,0,0,0,0,0,0,0,0,0,0,0,0,0,59735,0,0,0,0,0,0,0,0,0,0,0,0,0,0,0,59733,0,0,0,0,0,0,0,59733,0,0,0,0,0,0,0,0,0
</data>
 </layer>
 <layer id="31" name="Rock slopes manual" width="80" height="80">
  <data encoding="csv">
0,0,0,0,0,0,0,0,0,0,0,0,0,0,0,0,0,0,0,0,0,0,0,0,0,0,0,0,0,0,0,0,0,0,0,0,0,0,0,0,0,0,61363,61334,61334,61334,61334,61334,61334,61427,61398,61398,61398,61398,61398,61398,61398,61398,61398,61398,61398,61398,61398,61398,61398,61398,61398,61398,61417,61334,61334,61334,61291,0,0,0,0,0,0,0,
0,0,0,0,61297,61334,61334,61334,61334,61353,0,0,0,0,0,0,0,0,0,0,61363,61334,61334,61334,61334,61334,61334,61334,61334,61334,61334,61334,61334,61334,61334,61334,61334,61334,61334,61334,61334,61334,61427,61398,61398,61398,61398,61398,61398,61491,61462,61462,61462,61462,61462,61462,61462,61462,61462,61462,61462,61462,61462,61462,61462,61462,61462,61462,61481,61398,61398,61398,61355,0,0,0,0,0,0,0,
0,0,0,0,61361,61398,61398,61398,61398,61417,61334,61334,61334,61334,61334,61334,61334,61334,61334,61334,61427,61398,61398,61398,61398,61398,61398,61398,61398,61398,61398,61398,61398,61398,61398,61398,61398,61398,61398,61398,61398,61398,61491,61462,61462,61462,61462,61462,61462,61555,0,0,0,0,0,0,0,0,0,0,0,0,0,0,0,0,0,0,61545,61462,61462,61462,61419,61334,61334,61334,61291,0,0,0,
0,0,0,61363,61425,61462,61462,61462,61462,61481,61398,61398,61398,61398,61398,61398,61398,61398,61398,61398,61491,61462,61462,61462,61462,61462,61462,61462,61462,61462,61462,61462,61462,61462,61462,61462,61462,61462,61462,61462,61462,61462,61555,0,0,0,0,0,0,0,0,0,0,0,0,0,0,0,0,0,0,0,0,0,0,0,0,0,0,0,0,0,61483,61398,61398,61398,61355,0,0,0,
0,61363,61334,61427,61489,0,0,0,0,61545,61462,61462,61462,61462,61462,61462,61462,61462,61462,61462,61555,0,0,0,0,0,0,0,0,0,0,0,0,0,0,0,0,0,0,0,0,0,0,0,0,0,0,0,0,0,0,0,0,0,0,0,0,0,0,0,0,0,0,0,0,0,0,0,0,0,0,0,61547,61462,61462,61462,61419,61358,61291,0,
61334,61427,61398,61491,61553,0,0,0,0,0,0,0,0,0,0,0,0,0,0,0,0,0,0,0,0,0,0,0,0,0,0,0,0,0,0,0,0,0,0,0,0,0,0,0,0,0,0,0,0,0,0,0,0,0,0,0,0,0,0,0,0,0,0,0,0,0,0,0,0,0,0,0,0,0,0,0,61483,61422,61355,0,
61398,61491,61462,61555,0,0,0,0,0,0,0,0,0,0,0,0,0,0,0,0,0,0,0,0,0,0,0,0,0,0,0,0,0,0,0,0,0,0,0,0,0,0,0,0,0,0,0,0,0,0,0,0,0,0,0,0,0,0,0,0,0,0,0,0,0,0,0,0,0,0,0,0,0,0,0,0,61547,61486,61419,61353,
61462,61555,0,0,0,0,0,0,0,0,0,0,0,0,0,0,0,0,0,0,0,0,0,0,0,0,0,0,0,0,0,0,0,0,0,0,0,0,0,0,0,0,0,0,0,0,0,0,0,0,0,0,0,0,0,0,0,0,0,0,0,0,0,0,0,0,0,0,0,0,0,0,0,0,0,0,0,0,61483,61417,
0,0,0,0,0,0,0,0,0,0,0,0,0,0,0,0,0,0,0,0,0,0,0,0,0,0,0,0,0,0,0,0,0,0,0,0,0,0,0,0,0,0,0,0,0,0,0,0,0,0,0,0,0,0,0,0,0,0,0,0,0,0,0,0,0,0,0,0,0,0,0,0,0,0,0,0,0,0,61547,61481,
0,0,0,0,0,0,0,0,0,0,0,0,0,0,0,0,0,0,0,0,0,0,0,0,0,0,0,0,0,0,0,0,0,0,0,0,0,0,0,0,0,0,0,0,0,0,0,0,0,0,0,0,0,0,0,0,0,0,0,0,0,0,0,0,0,0,0,0,0,0,0,0,0,0,0,0,0,0,0,61545,
0,0,0,0,0,0,0,0,0,0,0,0,0,0,0,0,0,0,0,0,0,0,0,0,0,0,0,0,0,0,0,0,0,0,0,0,0,0,0,0,0,0,0,0,0,0,0,0,0,0,0,0,0,0,0,0,0,0,0,0,0,0,0,0,0,0,0,0,0,0,0,0,0,0,0,0,0,0,0,0,
0,0,0,0,0,0,0,0,0,0,0,0,0,0,0,0,0,0,0,0,0,0,0,0,0,0,0,0,0,0,0,0,0,0,0,0,0,0,0,0,0,0,0,0,0,0,0,0,0,0,0,0,0,0,0,0,0,0,0,0,0,0,0,0,0,0,0,0,0,0,0,0,0,0,0,0,0,0,0,0,
0,0,0,0,0,0,0,0,0,0,0,0,0,0,0,0,0,0,0,0,0,0,0,0,0,0,0,0,0,0,0,0,0,0,0,0,0,0,0,0,0,0,0,0,0,0,0,0,0,0,0,0,0,0,0,0,0,0,0,0,0,0,0,0,0,0,0,0,0,0,0,0,0,0,0,0,0,0,0,0,
0,0,0,0,0,0,0,0,0,0,0,0,0,0,0,0,0,0,0,0,0,0,0,0,0,0,0,0,0,0,0,0,0,0,0,0,0,0,0,0,0,0,0,0,0,0,0,0,0,0,0,0,0,0,0,0,0,0,0,0,0,0,0,0,0,0,0,0,0,0,0,0,0,0,0,0,0,0,0,0,
0,0,0,0,0,0,0,0,0,0,0,0,0,0,0,0,0,0,0,0,0,0,0,0,0,0,0,0,0,0,0,0,0,0,0,0,0,0,0,0,0,0,0,0,0,0,0,0,0,0,0,0,0,0,0,0,0,0,0,0,0,0,0,0,0,0,0,0,0,0,0,0,0,0,0,0,0,0,0,0,
0,0,0,0,0,0,0,0,0,0,0,0,0,0,0,0,0,0,0,0,0,0,0,0,0,0,0,0,0,0,0,0,0,0,0,0,0,0,0,0,0,0,0,0,0,0,0,0,0,0,0,0,0,0,0,0,0,0,0,0,0,0,0,0,0,0,0,0,0,0,0,0,0,0,0,0,0,0,0,0,
0,0,0,0,0,0,0,0,0,0,0,0,0,0,0,0,0,0,0,0,0,0,0,0,0,0,0,0,0,0,0,0,0,0,0,0,0,0,0,0,0,0,0,0,0,0,0,0,0,0,0,0,0,0,0,0,0,0,0,0,0,0,0,0,0,0,0,0,0,0,0,0,0,0,0,0,0,0,0,0,
0,0,0,0,0,0,0,0,0,0,0,0,0,0,0,0,0,0,0,0,0,0,0,0,0,0,0,0,0,0,0,0,0,0,0,0,0,0,0,0,0,0,0,0,0,0,0,0,0,0,0,0,0,0,0,0,0,0,0,0,0,0,0,0,0,0,0,0,0,0,0,0,0,0,0,0,0,0,0,0,
0,0,0,0,0,0,0,0,0,0,0,0,0,0,0,0,0,0,0,0,0,0,0,0,0,0,0,0,0,0,0,0,0,0,0,0,0,0,0,0,0,0,0,0,0,0,0,0,0,0,0,0,0,0,0,0,0,0,0,0,0,0,0,0,0,0,0,0,0,0,0,0,0,0,0,0,0,0,0,0,
0,0,0,0,0,0,0,0,0,0,0,0,0,0,0,0,0,0,0,0,0,0,0,0,0,0,0,0,0,0,0,0,0,0,0,0,0,0,0,0,0,0,0,0,0,0,0,0,0,0,0,0,0,0,0,0,0,0,0,0,0,0,0,0,0,0,0,0,0,0,0,0,0,0,0,0,0,0,0,0,
0,0,0,0,0,0,0,0,0,0,0,0,0,0,0,0,0,0,0,0,0,0,0,0,0,0,0,0,0,0,0,0,0,0,0,0,0,0,0,0,0,0,0,0,0,0,0,0,0,0,0,0,0,0,0,0,0,0,0,0,0,0,0,0,0,0,0,0,0,0,0,0,0,0,0,0,0,0,0,0,
0,0,0,0,0,0,0,0,0,0,0,0,0,0,0,0,0,0,0,0,0,0,0,0,0,0,0,0,0,0,0,0,0,0,0,0,0,0,0,0,0,0,0,0,0,0,0,0,0,0,0,0,0,0,0,0,0,0,0,0,0,0,0,0,0,0,0,0,0,0,0,0,0,0,0,0,0,0,0,0,
0,0,0,0,0,0,0,0,0,0,0,0,0,0,0,0,0,0,0,0,0,0,0,0,0,0,0,0,0,0,0,0,0,0,0,0,0,0,0,0,0,0,0,0,0,0,0,0,0,0,0,0,0,0,0,0,0,0,0,0,0,0,0,0,0,0,0,0,0,0,0,0,0,0,0,0,0,0,0,0,
0,0,0,0,0,0,0,0,0,0,0,0,0,0,0,0,0,0,0,0,0,0,0,0,0,0,0,0,0,0,0,0,0,0,0,0,0,0,0,0,0,0,0,0,0,0,0,0,0,0,0,0,0,0,0,0,0,0,0,0,0,0,0,0,0,0,0,0,0,0,0,0,0,0,0,0,0,0,0,0,
0,0,0,0,0,0,0,0,0,0,0,0,0,0,0,0,0,0,0,0,0,0,0,0,0,0,0,0,0,0,0,0,0,0,0,0,0,0,0,0,0,0,0,0,0,0,0,0,0,0,0,0,0,0,0,0,0,0,0,0,0,0,0,0,0,0,0,0,0,0,0,0,0,0,0,0,0,0,0,0,
0,0,0,0,0,0,0,0,0,0,0,0,0,0,0,0,0,0,0,0,0,0,0,0,0,0,0,0,0,0,0,0,0,0,0,0,0,0,0,0,0,0,0,0,0,0,0,0,0,0,0,0,0,0,0,0,0,0,0,0,0,0,0,0,0,0,0,0,0,0,0,0,0,0,0,0,0,0,0,0,
0,0,0,0,0,0,0,0,0,0,0,0,0,0,0,0,0,0,0,0,0,0,0,0,0,0,0,0,0,0,0,0,0,0,0,0,0,0,0,0,0,0,0,0,0,0,0,0,0,0,0,0,0,0,0,0,0,0,0,0,0,0,0,0,0,0,0,0,0,0,0,0,0,0,0,0,0,0,0,0,
0,0,0,0,0,0,0,0,0,0,0,0,0,0,0,0,0,0,0,0,0,0,0,0,0,0,0,0,0,0,0,0,0,0,0,0,0,0,0,0,0,0,0,0,0,0,0,0,0,0,0,0,0,0,0,0,0,0,0,0,0,0,0,0,0,0,0,0,0,0,0,0,0,0,0,0,0,0,0,0,
0,0,0,0,0,0,0,0,0,0,0,0,0,0,0,0,0,0,0,0,0,0,0,0,0,0,0,0,0,0,0,0,0,0,0,0,0,0,0,0,0,0,0,0,0,0,0,0,0,0,0,0,0,0,0,0,0,0,0,0,0,0,0,0,0,0,0,0,0,0,0,0,0,0,0,0,0,0,0,0,
0,0,0,0,0,0,0,0,0,0,0,0,0,0,0,0,0,0,0,0,0,0,0,0,0,0,0,0,0,0,0,0,0,0,0,0,0,0,0,0,0,0,0,0,0,0,0,0,0,0,0,0,0,0,0,0,0,0,0,0,0,0,0,0,0,0,0,0,0,0,0,0,0,0,0,0,0,0,0,0,
0,0,0,0,0,0,0,0,0,0,0,0,0,0,0,0,0,0,0,0,0,0,0,0,0,0,0,0,0,0,0,0,0,0,0,0,0,0,0,0,0,0,0,0,0,0,0,0,0,0,0,0,0,0,0,0,0,0,0,0,0,0,0,0,0,0,0,0,0,0,0,0,0,0,0,0,0,0,0,0,
0,0,0,0,0,0,0,0,0,0,0,0,0,0,0,0,0,0,0,0,0,0,0,0,0,0,0,0,0,0,0,0,0,0,0,0,0,0,0,0,0,0,0,0,0,0,0,0,0,0,0,0,0,0,0,0,0,0,0,0,0,0,0,0,0,0,0,0,0,0,0,0,0,0,0,0,0,0,0,0,
0,0,0,0,0,0,0,0,0,0,0,0,0,0,0,0,0,0,0,0,0,0,0,0,0,0,0,0,0,0,0,0,0,0,0,0,0,0,0,0,0,0,0,0,0,0,0,0,0,0,0,0,0,0,0,0,0,0,0,0,0,0,0,0,0,0,0,0,0,0,0,0,0,0,0,0,0,0,0,0,
0,0,0,0,0,0,0,0,0,0,0,0,0,0,0,0,0,0,0,0,0,0,0,0,0,0,0,0,0,0,0,0,0,0,0,0,0,0,0,0,0,0,0,0,0,0,0,0,0,0,0,0,0,0,0,0,0,0,0,0,0,0,0,0,0,0,0,0,0,0,0,0,0,0,0,0,0,0,0,0,
0,0,0,0,0,0,0,0,0,0,0,0,0,0,0,0,0,0,0,0,0,0,0,0,0,0,0,0,0,0,0,0,0,0,0,0,0,0,0,0,0,0,0,0,0,0,0,0,0,0,0,0,0,0,0,0,0,0,0,0,0,0,0,0,0,0,0,0,0,0,0,0,0,0,0,0,0,0,0,0,
0,0,0,0,0,0,0,0,0,0,0,0,0,0,0,0,0,0,0,0,0,0,0,0,0,0,0,0,0,0,0,0,0,0,0,0,0,0,0,0,0,0,0,0,0,0,0,0,0,0,0,0,0,0,0,0,0,0,0,0,0,0,0,0,0,0,0,0,0,0,0,0,0,0,0,0,0,0,0,0,
0,0,0,0,0,0,0,0,0,0,0,0,0,0,0,0,0,0,0,0,0,0,0,0,0,0,0,0,0,0,0,0,0,0,0,0,0,0,0,0,0,0,0,0,0,0,0,0,0,0,0,0,0,0,0,0,0,0,0,0,0,0,0,0,0,0,0,0,0,0,0,0,0,0,0,0,0,0,0,0,
0,0,0,0,0,0,0,0,0,0,0,0,0,0,0,0,0,0,0,0,0,0,0,0,0,0,0,0,0,0,0,0,0,0,0,0,0,0,0,0,0,0,0,0,0,0,0,0,0,0,0,0,0,0,0,0,0,0,0,0,0,0,0,0,0,0,0,0,0,0,0,0,0,0,0,0,0,0,0,0,
0,0,0,0,0,0,0,0,0,0,0,0,0,0,0,0,0,0,0,0,0,0,0,0,0,0,0,0,0,0,0,0,0,0,0,0,0,0,0,0,0,0,0,0,0,0,0,0,0,0,0,0,0,0,0,0,0,0,0,0,0,0,0,0,0,0,0,0,0,0,0,0,0,0,0,0,0,0,0,0,
0,0,0,0,0,0,0,0,0,0,0,0,0,0,0,0,0,0,0,0,0,0,0,0,0,0,0,0,0,0,0,0,0,0,0,0,0,0,0,0,0,0,0,0,0,0,0,0,0,0,0,0,0,0,0,0,0,0,0,0,0,0,0,0,0,0,0,0,0,0,0,0,0,0,0,0,0,0,0,0,
0,0,0,0,0,0,0,0,0,0,0,0,0,0,0,0,0,0,0,0,0,0,0,0,0,0,0,0,0,0,0,0,0,0,0,0,0,0,0,0,0,0,0,0,0,0,0,0,0,0,0,0,0,0,0,0,0,0,0,0,0,0,0,0,0,0,0,0,0,0,0,0,0,0,0,0,0,0,0,0,
0,0,0,0,0,0,0,0,0,0,0,0,0,0,0,0,0,0,0,0,0,0,0,0,0,0,0,0,0,0,0,0,0,0,0,0,0,0,0,0,0,0,0,0,0,0,0,0,0,0,0,0,0,0,0,0,0,0,0,0,0,0,0,0,0,0,0,0,0,0,0,0,0,0,0,0,0,0,0,0,
0,0,0,0,0,0,0,0,0,0,0,0,0,0,0,0,0,0,0,0,0,0,0,0,0,0,0,0,0,0,0,0,0,0,0,0,0,0,0,0,0,0,0,0,0,0,0,0,0,0,0,0,0,0,0,0,0,0,0,0,0,0,0,0,0,0,0,0,0,0,0,0,0,0,0,0,0,0,0,0,
0,0,0,0,0,0,0,0,0,0,0,0,0,0,0,0,0,0,0,0,0,0,0,0,0,0,0,0,0,0,0,0,0,0,0,0,0,0,0,0,0,0,0,0,0,0,0,0,0,0,0,0,0,0,0,0,0,0,0,0,0,0,0,0,0,0,0,0,0,0,0,0,0,0,0,0,0,0,0,0,
0,0,0,0,0,0,0,0,0,0,0,0,0,0,0,0,0,0,0,0,0,0,0,0,0,0,0,0,0,0,0,0,0,0,0,0,0,0,0,0,0,0,0,0,0,0,0,0,0,0,0,0,0,0,0,0,0,0,0,0,0,0,0,0,0,0,0,0,0,0,0,0,0,0,0,0,0,0,0,0,
0,0,0,0,0,0,0,0,0,0,0,0,0,0,0,0,0,0,0,0,0,0,0,0,0,0,0,0,0,0,0,0,0,0,0,0,0,0,0,0,0,0,0,0,0,0,0,0,0,0,0,0,0,0,0,0,0,0,0,0,0,0,0,0,0,0,0,0,0,0,0,0,0,0,0,0,0,0,0,0,
0,0,0,0,0,0,0,0,0,0,0,0,0,0,0,0,0,0,0,0,0,0,0,0,0,0,0,0,0,0,0,0,0,0,0,0,0,0,0,0,0,0,0,0,0,0,0,0,0,0,0,0,0,0,0,0,0,0,0,0,0,0,0,0,0,0,0,0,0,0,0,0,0,0,0,0,0,0,0,0,
0,0,0,0,0,0,0,0,0,0,0,0,0,0,0,0,0,0,0,0,0,0,0,0,0,0,0,0,0,0,0,0,0,0,0,0,0,0,0,0,0,0,0,0,0,0,0,0,0,0,0,0,0,0,0,0,0,0,0,0,0,0,0,0,0,0,0,0,0,0,0,0,0,0,0,0,0,0,0,0,
0,0,0,0,0,0,0,0,0,0,0,0,0,0,0,0,0,0,0,0,0,0,0,0,0,0,0,0,0,0,0,0,0,0,0,0,0,0,0,0,0,0,0,0,0,0,0,0,0,0,0,0,0,0,0,0,0,0,0,0,0,0,0,0,0,0,0,0,0,0,0,0,0,0,0,0,0,0,0,0,
0,0,0,0,0,0,0,0,0,0,0,0,0,0,0,0,0,0,0,0,0,0,0,0,0,0,0,0,0,0,0,0,0,0,0,0,0,0,0,0,0,0,0,0,0,0,0,0,0,0,0,0,0,0,0,0,0,0,0,0,0,0,0,0,0,0,0,0,0,0,0,0,0,0,0,0,0,0,0,0,
0,0,0,0,0,0,0,0,0,0,0,0,0,0,0,0,0,0,0,0,0,0,0,0,0,0,0,0,0,0,0,0,0,0,0,0,0,0,0,0,0,0,0,0,0,0,0,0,0,0,0,0,0,0,0,0,0,0,0,0,0,0,0,0,0,0,0,0,0,0,0,0,0,0,0,0,0,0,0,0,
0,0,0,0,0,0,0,0,0,0,0,0,0,0,0,0,0,0,0,0,0,0,0,0,0,0,0,0,0,0,0,0,0,0,0,0,0,0,0,0,0,0,0,0,0,0,0,0,0,0,0,0,0,0,0,0,0,0,0,0,0,0,0,0,0,0,0,0,0,0,0,0,0,0,0,0,0,0,0,0,
0,0,0,0,0,0,0,0,0,0,0,0,0,0,0,0,0,0,0,0,0,0,0,0,0,0,0,0,0,0,0,0,0,0,0,0,0,0,0,0,0,0,0,0,0,0,0,0,0,0,0,0,0,0,0,0,0,0,0,0,0,0,0,0,0,0,0,0,0,0,0,0,0,0,0,0,0,0,0,0,
0,0,0,0,0,0,0,0,0,0,0,0,0,0,0,0,0,0,0,0,0,0,0,0,0,0,0,0,0,0,0,0,0,0,0,0,0,0,0,0,0,0,0,0,0,0,0,0,0,0,0,0,0,0,0,0,0,0,0,0,0,0,0,0,0,0,0,0,0,0,0,0,0,0,0,0,0,0,0,0,
0,0,0,0,0,0,0,0,0,0,0,0,0,0,0,0,0,0,0,0,0,0,0,0,0,0,0,0,0,0,0,0,0,0,0,0,0,0,0,0,0,0,0,0,0,0,0,0,0,0,0,0,0,0,0,0,0,0,0,0,0,0,0,0,0,0,0,0,0,0,0,0,0,0,0,0,0,0,0,0,
0,0,0,0,0,0,0,0,0,0,0,0,0,0,0,0,0,0,0,0,0,0,0,0,0,0,0,0,0,0,0,0,0,0,0,0,0,0,0,0,0,0,0,0,0,0,0,0,0,0,0,0,0,0,0,0,0,0,0,0,0,0,0,0,0,0,0,0,0,0,0,0,0,0,0,0,0,0,0,0,
0,0,0,0,0,0,0,0,0,0,0,0,0,0,0,0,0,0,0,0,0,0,0,0,0,0,0,0,0,0,0,0,0,0,0,0,0,0,0,0,0,0,0,0,0,0,0,0,0,0,0,0,0,0,0,0,0,0,0,0,0,0,0,0,0,0,0,0,0,0,0,0,0,0,0,0,0,0,0,0,
0,0,0,0,0,0,0,0,0,0,0,0,0,0,0,0,0,0,0,0,0,0,0,0,0,0,0,0,0,0,0,0,0,0,0,0,0,0,0,0,0,0,0,0,0,0,0,0,0,0,0,0,0,0,0,0,0,0,0,0,0,0,0,0,0,0,0,0,0,0,0,0,0,0,0,0,0,0,0,0,
0,0,0,0,0,0,0,0,0,0,0,0,0,0,0,0,0,0,0,0,0,0,0,0,0,0,0,0,0,0,0,0,0,0,0,0,0,0,0,0,0,0,0,0,0,0,0,0,0,0,0,0,0,0,0,0,0,0,0,0,0,0,0,0,0,0,0,0,0,0,0,0,0,0,0,0,0,0,0,0,
0,0,0,0,0,0,0,0,0,0,0,0,0,0,0,0,0,0,0,0,0,0,0,0,0,0,0,0,0,0,0,0,0,0,0,0,0,0,0,0,0,0,0,0,0,0,0,0,0,0,0,0,0,0,0,0,0,0,0,0,0,0,0,0,0,0,0,0,0,0,0,0,0,0,0,0,0,0,0,0,
0,0,0,0,0,0,0,0,0,0,0,0,0,0,0,0,0,0,0,0,0,0,0,0,0,0,0,0,0,0,0,0,0,0,0,0,0,0,0,0,0,0,0,0,0,0,0,0,0,0,0,0,0,0,0,0,0,0,0,0,0,0,0,0,0,0,0,0,0,0,0,0,0,0,0,0,0,0,0,0,
0,0,0,0,0,0,0,0,0,0,0,0,0,0,0,0,0,0,0,0,0,0,0,0,0,0,0,0,0,0,0,0,0,0,0,0,0,0,0,0,0,0,0,0,0,0,0,0,0,0,0,0,0,0,0,0,0,0,0,0,0,0,0,0,0,0,0,0,0,0,0,0,0,0,0,0,0,0,0,0,
0,0,0,0,0,0,0,0,0,0,0,0,0,0,0,0,0,0,0,0,0,0,0,0,0,0,0,0,0,0,0,0,0,0,0,0,0,0,0,0,0,0,0,0,0,0,0,0,0,0,0,0,0,0,0,0,0,0,0,0,0,0,0,0,0,0,0,0,0,0,0,0,0,0,0,0,0,0,0,0,
0,0,0,0,0,0,0,0,0,0,0,0,0,0,0,0,0,0,0,0,0,0,0,0,0,0,0,0,0,0,0,0,0,0,0,0,0,0,0,0,0,0,0,0,0,0,0,0,0,0,0,0,0,0,0,0,0,0,0,0,0,0,0,0,0,0,0,0,0,0,0,0,0,0,0,0,0,0,0,0,
0,0,0,0,0,0,0,0,0,0,0,0,0,0,0,0,0,0,0,0,0,0,0,0,0,0,0,0,0,0,0,0,0,0,0,0,0,0,0,0,0,0,0,0,0,0,0,0,0,0,0,0,0,0,0,0,0,0,0,0,0,0,0,0,0,0,0,0,0,0,0,0,0,0,0,0,0,0,0,0,
0,0,0,0,0,0,0,0,0,0,0,0,0,0,0,0,0,0,0,0,0,0,0,0,0,0,0,0,0,0,0,0,0,0,0,0,0,0,0,0,0,0,0,0,0,0,0,0,0,0,0,0,0,0,0,0,0,0,0,0,0,0,0,0,0,0,0,0,0,0,0,0,0,0,0,0,0,0,0,0,
0,0,0,0,0,0,0,0,0,0,0,0,0,0,0,0,0,0,0,0,0,0,0,0,0,0,0,0,0,0,0,0,0,0,0,0,0,0,0,0,0,0,0,0,0,0,0,0,0,0,0,0,0,0,0,0,0,0,0,0,0,0,0,0,0,0,0,0,0,0,0,0,0,0,0,0,0,0,0,0,
0,0,0,0,0,0,0,0,0,0,0,0,0,0,0,0,0,0,0,0,0,0,0,0,0,0,0,0,0,0,0,0,0,0,0,0,0,0,0,0,0,0,0,0,0,0,0,0,0,0,0,0,0,0,0,0,0,0,0,0,0,0,0,0,0,0,0,0,0,0,0,0,0,0,0,0,0,0,0,0,
0,0,0,0,0,0,0,0,0,0,0,0,0,0,0,0,0,0,0,0,0,0,0,0,0,0,0,0,0,0,0,0,0,0,0,0,0,0,0,0,0,0,0,0,0,0,0,0,0,0,0,0,0,0,0,0,0,0,0,0,0,0,0,0,0,0,0,0,0,0,0,0,0,0,0,0,0,0,0,0,
0,0,0,0,0,0,0,0,0,0,0,0,0,0,0,0,0,0,0,0,0,0,0,0,0,0,0,0,0,0,0,0,0,0,0,0,0,0,0,0,0,0,0,0,0,0,0,0,0,0,0,0,0,0,0,0,0,0,0,0,0,0,0,0,0,0,0,0,0,0,0,0,0,0,0,0,0,0,0,0,
0,0,0,0,0,0,0,0,0,0,0,0,0,0,0,0,0,0,0,0,0,0,0,0,0,0,0,0,0,0,0,0,0,0,0,0,0,0,0,0,0,0,0,0,0,0,0,0,0,0,0,0,0,0,0,0,0,0,0,0,0,0,0,0,0,0,0,0,0,0,0,0,0,0,0,0,0,0,0,0,
0,0,0,0,0,0,0,0,0,0,0,0,0,0,0,0,0,0,0,0,0,0,0,0,0,0,0,0,0,0,0,0,0,0,0,0,0,0,0,0,0,0,0,0,0,0,0,0,0,0,0,0,0,0,0,0,0,0,0,0,0,0,0,0,0,0,0,0,0,0,0,0,0,0,0,0,0,0,0,0,
0,0,0,0,0,0,0,0,0,0,0,0,0,0,0,0,0,0,0,0,0,0,0,0,0,0,0,0,0,0,0,0,0,0,0,0,0,0,0,0,0,0,0,0,0,0,0,0,0,0,0,0,0,0,0,0,0,0,0,0,0,0,0,0,0,0,0,0,0,0,0,0,0,0,0,0,0,0,0,0,
0,0,0,0,0,0,0,0,0,0,0,0,0,0,0,0,0,0,0,0,0,0,0,0,0,0,0,0,0,0,0,0,0,0,0,0,0,0,0,0,0,0,0,0,0,0,0,0,0,0,0,0,0,0,0,0,0,0,0,0,0,0,0,0,0,0,0,0,0,0,0,0,0,0,0,0,0,0,0,0,
0,0,0,0,0,0,0,0,0,0,0,0,0,0,0,0,0,0,0,0,0,0,0,0,0,0,0,0,0,0,0,0,0,0,0,0,0,0,0,0,0,0,0,0,0,0,0,0,0,0,0,0,0,0,0,0,0,0,0,0,0,0,0,0,0,0,0,0,0,0,0,0,0,0,0,0,0,0,0,0,
0,0,0,0,0,0,0,0,0,0,0,0,0,0,0,0,0,0,0,0,0,0,0,0,0,0,0,0,0,0,0,0,0,0,0,0,0,0,0,0,0,0,0,0,0,0,0,0,0,0,0,0,0,0,0,0,0,0,0,0,0,0,0,0,0,0,0,0,0,0,0,0,0,0,0,0,0,0,0,0,
0,0,0,0,0,0,0,0,0,0,0,0,0,0,0,0,0,0,0,0,0,0,0,0,0,0,0,0,0,0,0,0,0,0,0,0,0,0,0,0,0,0,0,0,0,0,0,0,0,0,0,0,0,0,0,0,0,0,0,0,0,0,0,0,0,0,0,0,0,0,0,0,0,0,0,0,0,0,0,0,
0,0,0,0,0,0,0,0,0,0,0,0,0,0,0,0,0,0,0,0,0,0,0,0,0,0,0,0,0,0,0,0,0,0,0,0,0,0,0,0,0,0,0,0,0,0,0,0,0,0,0,0,0,0,0,0,0,0,0,0,0,0,0,0,0,0,0,0,0,0,0,0,0,0,0,0,0,0,0,0,
0,0,0,0,0,0,0,0,0,0,0,0,0,0,0,0,0,0,0,0,0,0,0,0,0,0,0,0,0,0,0,0,0,0,0,0,0,0,0,0,0,0,0,0,0,0,0,0,0,0,0,0,0,0,0,0,0,0,0,0,0,0,0,0,0,0,0,0,0,0,0,0,0,0,0,0,0,0,0,0,
0,0,0,0,0,0,0,0,0,0,0,0,0,0,0,0,0,0,0,0,0,0,0,0,0,0,0,0,0,0,0,0,0,0,0,0,0,0,0,0,0,0,0,0,0,0,0,0,0,0,0,0,0,0,0,0,0,0,0,0,0,0,0,0,0,0,0,0,0,0,0,0,0,0,0,0,0,0,0,0
</data>
 </layer>
 <layer id="49" name="Wall" width="80" height="80">
  <data encoding="csv">
0,0,0,0,0,0,0,0,0,0,0,0,0,0,0,0,0,0,0,0,0,0,0,0,0,0,0,0,0,0,0,0,0,0,0,0,0,0,0,0,0,0,0,0,0,0,0,0,0,0,0,0,0,0,0,0,0,0,0,0,0,0,0,0,0,0,0,0,0,0,0,0,0,0,0,0,0,0,0,0,
0,0,0,0,0,0,0,0,0,0,0,0,0,0,0,0,0,0,0,0,0,0,0,0,0,0,0,0,0,0,0,0,0,0,0,0,0,0,0,0,0,0,0,0,0,0,0,0,0,0,0,0,0,0,0,0,0,0,0,0,0,0,0,0,0,0,0,0,0,0,0,0,0,0,0,0,0,0,0,0,
0,0,0,0,0,0,0,0,0,0,0,0,0,0,0,0,0,0,0,0,0,0,0,0,0,0,0,0,0,0,0,0,0,0,0,0,0,0,0,0,0,0,0,0,0,0,0,0,0,0,0,0,0,0,0,0,0,0,0,0,0,0,0,0,0,0,0,0,0,0,0,0,0,0,0,0,0,0,0,0,
0,0,0,0,0,0,0,0,0,0,0,0,0,0,0,0,0,0,0,0,0,0,0,0,0,0,0,0,0,0,0,0,0,0,0,0,0,0,0,0,0,0,0,0,0,0,0,0,0,0,0,0,0,0,0,0,0,0,0,0,0,0,0,0,0,0,0,0,0,0,0,0,0,0,0,0,0,0,0,0,
0,0,0,0,0,0,0,0,0,0,0,0,0,0,0,0,0,0,0,0,0,0,0,0,0,0,0,0,0,0,0,0,0,0,0,0,0,0,0,0,0,0,0,0,0,0,0,0,0,0,0,0,0,0,0,0,0,0,0,0,0,0,0,0,0,0,0,0,0,0,0,0,0,0,0,0,0,0,0,0,
0,0,0,0,0,0,0,0,0,0,0,0,0,0,0,0,0,0,0,0,0,0,0,0,0,0,0,0,0,0,0,0,0,0,0,0,0,0,0,0,0,0,0,0,0,0,0,0,0,0,0,0,0,0,0,0,0,0,0,0,0,0,0,0,0,0,0,0,0,0,0,0,0,0,0,0,0,0,0,0,
0,0,0,0,0,0,0,0,0,0,0,0,0,0,0,0,0,0,0,0,0,0,0,0,0,0,0,0,0,0,0,0,0,0,0,0,0,0,0,0,0,0,0,0,0,0,0,0,0,0,0,0,0,0,0,0,0,0,0,0,0,0,0,0,0,0,0,0,0,0,0,0,0,0,0,0,0,0,0,0,
0,0,0,0,0,0,0,0,0,0,0,0,0,0,0,0,0,0,0,0,0,0,0,0,0,0,0,0,0,0,0,0,0,0,0,0,0,0,0,0,0,0,0,0,0,0,0,0,0,0,0,0,0,0,0,0,0,0,0,0,0,0,0,0,0,0,0,0,0,0,0,0,0,0,0,0,0,0,0,0,
0,0,0,0,0,0,0,0,0,0,0,0,0,0,0,0,0,0,0,0,0,0,0,0,0,0,0,0,0,0,0,0,0,0,0,0,0,0,0,0,0,0,0,0,0,0,0,0,0,0,0,0,0,0,0,0,0,0,0,0,0,0,0,0,0,0,0,0,0,0,0,0,0,0,0,0,0,0,0,0,
0,0,0,0,0,0,0,0,0,0,0,0,0,0,0,0,0,0,0,0,0,0,0,0,0,0,0,0,0,0,0,0,0,0,0,0,0,0,0,0,0,0,0,0,0,0,0,0,0,0,0,0,0,0,0,0,0,0,0,0,0,0,0,0,0,0,0,0,0,0,0,0,0,0,0,0,0,0,0,0,
0,0,0,0,0,0,0,0,0,0,0,0,0,0,0,0,0,0,0,0,0,0,0,0,0,0,0,0,0,0,0,0,0,0,0,0,0,0,0,0,0,0,0,0,0,0,0,0,0,0,0,0,0,0,0,0,0,0,0,0,0,0,0,0,0,0,0,0,0,0,0,0,0,0,0,0,0,0,0,0,
0,0,0,0,0,0,0,0,0,0,0,0,0,0,0,0,0,0,0,0,0,0,0,0,0,0,0,0,0,0,0,0,0,0,0,0,0,0,0,0,0,0,0,0,0,0,0,0,0,0,0,0,0,0,0,0,0,0,0,0,0,0,0,0,0,0,0,0,0,0,0,0,0,0,0,0,0,0,0,0,
0,0,0,0,0,0,0,0,0,0,0,0,0,0,0,0,0,0,0,0,0,0,0,0,0,0,0,0,0,0,0,0,0,0,0,0,0,0,0,0,0,0,0,0,0,0,0,0,0,0,0,0,0,0,0,0,0,0,0,0,0,0,0,0,0,0,0,0,0,0,0,0,0,0,0,0,0,0,0,0,
0,0,0,0,0,0,0,0,0,0,0,0,0,0,0,0,0,0,0,0,0,0,0,0,0,0,0,0,0,0,0,0,0,0,0,0,0,0,0,0,0,0,0,0,0,0,0,0,0,0,0,0,0,0,0,0,0,0,0,0,0,0,0,0,0,0,0,0,0,0,0,0,0,0,0,0,0,0,0,0,
0,0,0,0,0,0,0,0,0,0,0,0,0,0,0,0,0,0,0,0,0,0,0,0,0,0,0,0,0,0,0,0,0,0,0,0,0,0,0,0,0,0,0,0,0,0,0,0,0,0,0,0,0,0,0,0,0,0,0,0,0,0,0,0,0,0,0,0,0,0,0,0,0,0,0,0,0,0,0,0,
0,0,0,0,0,0,0,0,0,0,0,0,0,0,0,0,0,0,0,0,0,0,0,0,0,0,0,0,0,0,0,0,0,0,0,0,0,0,0,0,0,0,0,0,0,0,0,0,0,0,0,0,0,0,0,0,0,0,0,0,0,0,0,0,0,0,0,0,0,0,0,0,0,0,0,0,0,0,0,0,
0,0,0,0,0,0,0,0,0,0,0,0,0,0,0,0,0,0,0,0,0,0,0,0,0,0,0,0,0,0,0,0,0,0,0,0,0,0,0,0,0,0,0,0,0,0,0,0,0,0,0,0,0,0,0,0,0,0,0,0,0,0,0,0,0,0,0,0,0,0,0,0,0,0,0,0,0,0,0,0,
0,0,0,0,0,0,0,0,0,0,0,0,0,0,0,0,0,0,0,0,0,0,0,0,0,0,0,0,0,0,0,0,0,0,0,0,0,0,0,0,0,0,0,0,0,0,0,0,0,0,0,0,0,0,0,0,0,0,0,0,0,0,0,0,0,0,0,0,0,0,0,0,0,0,0,0,0,0,0,0,
0,0,0,0,0,0,0,0,0,0,0,0,0,0,0,0,0,0,0,0,0,0,0,0,0,0,0,0,0,0,0,0,0,0,0,0,0,0,0,0,0,0,0,0,0,0,0,0,0,0,0,0,0,0,0,0,0,0,0,0,0,0,0,0,0,0,0,0,0,0,0,0,0,0,0,0,0,0,0,0,
0,0,0,0,0,0,0,0,0,0,0,0,0,0,0,0,0,0,0,0,0,0,0,0,0,0,0,0,0,0,0,0,0,0,0,0,0,0,0,0,0,0,0,0,0,0,0,0,0,0,0,0,0,0,0,0,0,0,0,0,0,0,0,0,0,0,0,0,0,0,0,0,0,0,0,0,0,0,0,0,
0,0,0,0,0,0,0,0,0,0,0,0,0,0,0,0,0,0,0,0,0,0,0,0,0,0,0,0,0,0,0,0,0,0,0,0,0,0,0,0,0,0,0,0,0,0,0,0,0,0,0,0,0,0,0,0,0,0,0,0,0,0,0,0,0,0,0,0,0,0,0,0,0,0,0,0,0,0,0,0,
0,0,0,0,0,0,0,0,0,0,0,0,0,0,0,0,0,0,0,0,0,0,0,0,0,0,0,0,0,0,0,0,0,0,0,0,0,0,0,0,0,0,0,0,0,0,0,0,0,0,0,0,0,0,0,0,0,0,0,0,0,0,0,0,0,0,0,0,0,0,0,0,0,0,0,0,0,0,0,0,
0,0,0,0,0,0,0,0,0,0,0,0,0,0,0,0,0,0,0,0,0,0,0,0,0,0,0,0,0,0,0,0,0,0,0,0,0,0,0,0,0,0,0,0,0,0,0,0,0,0,0,0,0,0,0,0,0,0,0,0,0,0,0,0,0,0,0,0,0,0,0,0,0,0,0,0,0,0,0,0,
0,0,0,0,0,0,0,0,0,0,0,0,0,0,0,0,0,0,0,0,0,0,0,0,0,0,0,0,0,0,0,0,0,0,0,0,0,0,0,0,0,0,0,0,0,0,0,0,0,0,0,0,0,0,0,0,0,0,0,0,0,0,0,0,0,0,0,0,0,0,0,0,0,0,0,0,0,0,0,0,
0,0,0,0,0,0,0,0,0,0,0,0,0,0,0,0,0,0,0,0,0,0,0,0,0,0,0,0,0,0,0,0,0,0,0,0,0,0,0,0,0,0,0,0,0,0,0,0,0,0,0,0,0,0,0,0,0,0,0,0,0,0,0,0,0,0,0,0,0,0,0,0,0,0,0,0,0,0,0,0,
0,0,0,0,0,0,0,0,0,0,0,0,0,0,0,0,0,0,0,0,0,0,0,0,0,0,0,0,0,0,0,0,0,0,0,0,0,0,0,0,0,0,0,0,0,0,0,0,0,0,0,0,0,0,0,0,0,0,0,0,0,0,0,0,0,0,0,0,0,0,0,0,0,0,0,0,0,0,0,0,
0,0,0,0,0,0,0,0,0,0,0,0,0,0,0,0,0,0,0,0,0,0,0,0,0,0,0,0,0,0,0,0,0,0,0,0,0,0,0,0,0,0,0,0,0,0,0,0,0,0,0,0,0,0,0,0,0,0,0,0,0,0,0,0,0,0,0,0,0,0,0,0,0,0,0,0,0,0,0,0,
0,0,0,0,0,0,0,0,0,0,0,0,0,0,0,0,0,0,0,0,0,0,0,0,0,0,0,0,0,0,0,0,0,0,0,0,0,0,0,0,0,0,0,0,0,0,0,0,0,0,0,0,0,0,0,0,0,0,0,0,0,0,0,0,0,0,0,0,0,0,0,0,0,0,0,0,0,0,0,0,
0,0,0,0,0,0,0,0,0,0,0,0,0,0,0,0,0,0,0,0,0,0,0,0,0,0,0,0,0,0,0,0,0,0,0,0,0,0,0,0,0,0,0,0,0,0,0,0,0,0,0,0,0,0,0,0,0,0,0,0,0,0,0,0,0,0,0,0,0,0,0,0,0,0,0,0,0,0,0,0,
0,0,0,0,0,0,0,0,0,0,0,0,0,0,0,0,0,0,0,0,0,0,0,0,0,0,0,0,0,0,0,0,0,0,0,0,0,0,0,0,0,0,0,0,0,0,0,0,0,0,0,0,0,0,0,0,0,0,0,0,0,0,0,0,0,0,0,0,0,0,0,0,0,0,0,0,0,0,0,0,
0,0,0,0,0,0,0,0,0,0,0,0,0,0,0,0,0,0,0,0,0,0,0,0,0,0,0,0,0,0,0,0,0,0,0,0,0,0,0,0,0,0,0,0,0,0,0,0,0,0,0,0,0,0,0,0,0,0,0,0,0,0,0,0,0,0,0,0,0,0,0,0,0,0,0,0,0,0,0,0,
0,0,0,0,0,0,0,0,0,0,0,0,0,0,0,0,0,0,0,0,0,0,0,0,0,0,0,0,0,0,0,0,0,0,0,0,0,0,0,0,0,0,0,0,0,0,0,0,0,0,0,0,0,0,0,0,0,0,0,0,0,0,0,0,0,0,0,0,0,0,0,0,0,0,0,0,0,0,0,0,
0,0,0,0,0,0,0,0,0,0,0,0,0,0,0,0,0,0,0,0,0,0,0,0,0,0,0,0,0,0,0,0,0,0,0,0,0,0,0,0,0,0,0,0,0,0,0,0,0,0,0,0,0,0,0,0,0,0,0,0,0,0,0,0,0,0,63703,63713,63730,63713,63718,0,0,0,0,0,0,0,0,0,
0,0,0,0,0,0,0,0,0,0,0,0,0,0,0,0,0,0,0,0,0,0,0,0,0,0,0,0,0,0,0,0,0,0,0,0,0,0,0,0,0,0,0,0,0,0,0,0,0,0,0,0,0,0,0,0,0,0,0,0,0,0,63703,63713,63730,63713,63714,0,0,0,0,0,0,0,0,0,0,0,0,0,
0,0,0,0,0,0,0,0,0,0,0,0,0,0,0,0,0,0,0,0,0,0,0,0,0,0,0,0,0,0,0,0,0,0,0,0,0,0,0,0,0,0,0,63719,63713,63730,63713,63730,63713,63704,0,0,0,0,0,0,0,0,0,0,0,0,63708,0,0,0,0,0,0,0,0,0,0,0,0,0,0,0,0,0,
0,0,0,0,0,0,0,0,0,0,0,0,0,0,0,0,0,0,0,0,0,0,0,0,0,0,0,0,0,0,0,0,0,0,0,0,0,0,0,0,0,0,0,0,0,0,0,0,0,63712,63713,63718,0,0,0,0,0,0,63719,63713,63730,63713,63714,0,0,0,0,0,0,0,0,0,0,0,0,0,0,0,0,0,
0,0,0,0,0,0,0,0,0,0,0,0,0,0,0,0,0,0,0,0,0,0,0,0,0,0,0,0,0,0,0,0,0,0,0,0,0,0,0,0,0,0,0,0,0,0,0,0,0,0,0,0,0,0,0,0,0,0,0,0,0,0,0,0,0,0,0,0,0,0,0,0,0,0,0,0,0,0,0,0,
0,0,0,0,0,0,0,0,0,0,0,0,0,0,0,0,0,0,0,0,0,0,0,0,0,0,0,0,0,0,0,0,0,0,0,0,0,0,0,0,0,0,0,0,0,0,0,0,0,0,0,0,0,0,0,0,0,0,0,0,0,0,0,0,0,0,0,0,0,0,0,0,0,0,0,0,0,0,0,0,
0,0,0,0,0,0,0,0,0,0,0,0,0,0,0,0,0,0,0,0,0,0,0,0,0,0,0,0,0,0,0,0,0,0,0,0,0,0,0,0,0,0,0,0,0,0,0,0,0,0,0,0,0,0,0,0,0,0,0,0,0,0,0,0,0,0,0,0,0,0,0,0,0,0,0,0,0,0,0,0,
0,0,0,0,0,0,0,0,0,0,0,0,0,0,0,0,0,0,0,0,0,0,0,0,0,0,0,0,0,0,0,0,0,0,0,0,0,0,0,0,0,0,0,0,0,0,0,0,0,0,0,0,0,0,0,0,0,0,0,0,0,0,0,0,0,0,0,0,0,0,0,0,0,0,0,0,0,0,0,0,
0,0,0,0,0,0,0,0,0,0,0,0,0,0,0,0,0,0,0,0,0,0,0,0,0,0,0,0,0,0,0,0,0,0,0,0,0,0,0,0,0,0,0,0,0,0,0,0,0,0,0,0,0,0,0,0,0,0,0,0,0,0,0,0,0,0,0,0,0,0,0,0,0,0,0,0,0,0,0,0,
0,0,0,0,0,0,0,0,0,0,0,0,0,0,0,0,0,0,0,0,0,0,0,0,0,0,0,0,0,0,0,0,0,0,0,0,0,0,0,0,0,0,0,0,0,0,0,0,0,0,0,0,0,0,0,0,0,0,0,0,0,0,0,0,0,0,0,0,0,0,0,0,0,0,0,0,0,0,0,0,
0,0,0,0,0,0,0,0,0,0,0,0,0,0,0,0,0,0,0,0,0,0,0,0,0,0,0,0,0,0,0,0,0,0,0,0,0,0,0,0,0,0,0,0,0,0,0,0,0,0,0,0,0,0,0,0,0,0,0,0,0,0,0,0,0,0,0,0,0,0,0,0,0,0,0,0,0,0,0,0,
0,0,0,0,0,0,0,0,0,0,0,0,0,0,0,0,0,0,0,0,0,0,0,0,0,0,0,0,0,0,0,0,0,0,0,0,0,0,0,0,0,0,0,0,0,0,0,0,0,0,0,0,0,0,0,0,0,0,0,0,0,0,0,0,0,0,0,0,0,0,0,0,0,0,0,0,0,0,0,0,
0,0,0,0,0,0,0,0,0,0,0,0,0,0,0,0,0,0,0,0,0,0,0,0,0,0,0,0,0,0,0,0,0,0,0,0,0,0,0,0,0,0,0,0,0,0,0,1,2,2,3,0,0,0,0,0,0,0,0,0,0,0,0,0,0,0,0,0,0,0,0,0,0,0,0,0,0,0,0,0,
0,0,0,0,0,0,0,0,0,0,0,0,0,0,0,0,0,0,0,0,0,0,0,0,0,0,0,0,0,0,0,0,0,0,0,0,0,0,0,0,0,0,0,0,0,0,0,7,8,8,9,0,0,0,0,0,0,0,0,0,0,0,0,0,0,0,0,0,0,0,0,0,0,0,0,0,0,0,0,0,
0,0,0,0,0,0,0,0,0,0,0,0,0,0,0,0,0,0,0,0,0,0,0,0,0,0,0,0,0,0,0,0,0,0,0,0,0,0,0,0,0,0,0,0,1,2,2,11,8,8,9,0,0,0,0,0,0,0,0,0,0,0,0,0,0,0,0,0,0,0,0,0,0,0,0,0,0,0,0,0,
0,0,0,0,0,0,0,0,0,0,0,0,0,0,0,0,0,0,0,0,0,0,0,0,0,0,0,0,0,0,0,0,0,0,0,0,0,0,0,0,0,0,0,0,7,8,8,8,8,8,9,0,0,0,0,0,0,0,0,0,0,0,0,0,0,0,0,0,0,0,0,0,0,0,0,0,0,0,0,0,
0,0,0,0,0,0,0,0,0,0,0,0,0,0,0,0,0,0,0,0,0,0,0,0,0,0,0,0,0,0,0,0,0,0,0,0,0,0,0,0,0,0,0,0,7,8,8,8,8,8,9,0,0,0,0,0,0,0,0,0,0,0,0,0,0,0,0,0,0,0,0,0,0,0,0,0,0,0,0,0,
0,0,0,0,0,0,0,0,0,0,0,0,0,0,0,0,0,0,0,0,0,0,0,0,0,0,0,0,0,0,0,0,0,0,0,0,0,0,0,0,0,0,0,0,7,8,8,8,8,8,9,0,0,0,0,0,0,0,0,0,0,0,0,0,0,0,0,0,0,0,0,0,0,0,0,0,0,0,0,0,
0,0,0,0,0,0,0,0,0,0,0,0,0,0,0,0,0,0,0,0,0,0,0,0,0,0,0,0,0,0,0,0,0,0,0,0,0,0,0,0,0,0,0,0,7,8,8,8,8,8,9,0,0,0,0,0,0,0,0,0,0,0,0,0,0,0,0,0,0,0,0,0,0,0,0,0,0,0,0,0,
0,0,0,0,0,0,0,0,0,0,0,0,0,0,0,0,0,0,0,0,0,0,0,0,0,0,0,0,0,0,0,0,0,0,0,0,0,0,0,0,0,0,0,0,7,8,8,8,8,8,9,0,0,0,0,0,0,0,0,0,0,0,0,0,0,0,0,0,0,0,0,0,0,0,0,0,0,0,0,0,
0,0,0,0,0,0,0,0,0,0,0,0,0,0,0,0,0,0,0,0,0,0,0,0,0,0,0,0,0,0,0,0,0,0,0,0,0,0,0,0,0,0,0,0,7,8,8,8,8,8,9,0,0,0,0,0,0,0,0,0,0,0,0,0,0,0,0,0,0,0,0,0,0,0,0,0,0,0,0,0,
0,0,0,0,0,0,0,0,0,0,0,0,0,0,0,0,0,0,0,0,0,0,0,0,0,0,0,0,0,0,0,0,0,0,0,0,0,0,0,0,0,0,0,0,7,8,8,8,8,4,15,0,0,0,0,0,0,0,0,0,0,0,0,0,0,0,0,0,0,0,0,0,0,0,0,0,0,0,0,0,
0,0,0,0,0,0,0,0,0,0,0,0,0,0,0,0,0,0,0,0,0,0,0,0,0,0,0,0,0,0,0,0,0,0,0,0,0,0,0,0,0,0,0,0,7,8,8,8,8,9,0,0,0,0,0,0,0,0,0,0,0,0,0,0,0,0,0,0,0,0,0,0,0,0,0,0,0,0,0,0,
0,0,0,0,0,0,0,0,0,0,0,0,0,0,0,0,0,0,0,0,0,0,0,0,0,0,0,0,0,0,0,0,0,0,0,0,0,0,0,0,0,0,0,0,13,14,19,8,20,15,0,0,0,0,0,0,0,0,0,0,0,0,0,0,0,0,0,0,0,0,0,0,0,0,0,0,0,0,0,0,
0,0,0,0,0,0,0,0,0,0,0,0,0,0,0,0,0,0,0,0,0,0,0,0,0,0,0,0,0,0,0,0,0,0,0,0,0,0,0,0,0,0,0,0,0,0,0,0,0,0,0,0,0,0,0,0,0,0,0,0,0,0,0,0,0,0,0,0,0,0,0,0,0,0,0,0,0,0,0,0,
0,0,0,0,0,0,0,0,0,0,0,0,0,0,0,0,0,0,0,0,0,0,0,0,0,0,0,0,0,0,0,0,0,0,0,0,0,0,0,0,0,0,0,0,0,0,0,0,0,0,0,0,0,0,0,0,0,0,0,0,0,0,0,0,0,0,0,0,0,0,0,0,0,0,0,0,0,0,0,0,
0,0,0,0,0,0,0,0,0,0,0,0,0,0,0,0,0,0,0,0,0,0,0,0,0,0,0,0,0,0,0,0,0,0,0,0,0,0,0,0,0,0,0,0,0,0,0,0,0,0,0,0,0,0,0,0,0,0,0,0,0,0,0,0,0,0,0,0,0,0,0,0,0,0,0,0,0,0,0,0,
0,0,0,0,0,0,0,0,0,0,0,0,0,0,0,0,0,0,0,0,0,0,0,0,0,0,0,0,0,0,0,0,0,0,0,0,0,0,0,0,0,0,0,0,0,0,0,0,0,0,0,0,0,0,0,0,0,0,0,0,0,0,0,0,0,0,0,0,0,0,0,0,0,0,0,0,0,0,0,0,
0,0,0,0,0,0,0,0,0,0,0,0,0,0,0,0,0,0,0,0,0,0,0,0,0,0,0,0,0,0,0,0,0,0,0,0,0,0,0,0,0,0,0,0,0,0,0,0,0,0,0,0,0,0,0,0,0,0,0,0,0,0,0,0,0,0,0,0,0,0,0,0,0,0,0,0,0,0,0,0,
0,0,0,0,0,0,0,0,0,0,0,0,0,0,0,0,0,0,0,0,0,0,0,0,0,0,0,0,0,0,0,0,0,0,0,0,0,0,0,0,0,0,0,0,0,0,0,0,0,0,0,0,0,0,0,0,0,0,0,0,0,0,0,0,0,0,0,0,0,0,0,0,0,0,0,0,0,0,0,0,
0,0,0,0,0,0,0,0,0,0,0,0,0,0,0,0,0,0,0,0,0,0,0,0,0,0,0,0,0,0,0,0,0,0,0,0,0,0,0,0,0,0,0,0,0,0,0,0,0,0,0,0,0,0,0,0,0,0,0,0,0,0,0,0,0,0,0,0,0,0,0,0,0,0,0,0,0,0,0,0,
0,0,0,0,0,0,0,0,0,0,0,0,0,0,0,0,0,0,0,0,0,0,0,0,0,0,0,0,0,0,0,0,0,0,0,0,0,0,0,0,0,0,0,0,0,0,0,0,0,0,0,0,0,0,0,0,0,0,0,0,0,0,0,0,0,0,0,0,0,0,0,0,0,0,0,0,0,0,0,0,
0,0,0,0,0,0,0,0,0,0,0,0,0,0,0,0,0,0,0,0,0,0,0,0,0,0,0,0,0,0,0,0,0,0,0,0,0,0,0,0,0,0,0,0,0,0,0,0,0,0,0,0,0,0,0,0,0,0,0,0,0,0,0,0,0,0,0,0,0,0,0,0,0,0,0,0,0,0,0,0,
0,0,0,0,0,0,0,0,0,0,0,0,0,0,0,0,0,0,0,0,0,0,0,0,0,0,0,0,0,0,0,0,0,0,0,0,0,0,0,0,0,0,0,0,0,0,0,0,0,0,0,0,0,0,0,0,0,0,0,0,0,0,0,0,0,0,0,0,0,0,0,0,0,0,0,0,0,0,0,0,
0,0,0,0,0,0,0,0,0,0,0,0,0,0,0,0,0,0,0,0,0,0,0,0,0,0,0,0,0,0,0,0,0,0,0,0,0,0,0,0,0,0,0,0,0,0,0,0,0,0,0,0,0,0,0,0,0,0,0,0,0,0,0,0,0,0,0,0,0,0,0,0,0,0,0,0,0,0,0,0,
0,0,0,0,0,0,0,0,0,0,0,0,0,0,0,0,0,0,0,0,0,0,0,0,0,0,0,0,0,0,0,0,0,0,0,0,0,0,0,0,0,0,0,0,0,0,0,0,0,0,0,0,0,0,0,0,0,0,0,0,0,0,0,0,0,0,0,0,0,0,0,0,0,0,0,0,0,0,0,0,
0,0,0,0,0,0,0,0,0,0,0,0,0,0,0,0,0,0,0,0,0,0,0,0,0,0,0,0,0,0,0,0,0,0,0,0,0,0,0,0,0,0,0,0,0,0,0,0,0,0,0,0,0,0,0,0,0,0,0,0,0,0,0,0,0,0,0,0,0,0,0,0,0,0,0,0,0,0,0,0,
0,0,0,0,0,0,0,0,0,0,0,0,0,0,0,0,0,0,0,0,0,0,0,0,0,0,0,0,0,0,0,0,0,0,0,0,0,0,0,0,0,0,0,0,0,0,0,0,0,0,0,0,0,0,0,0,0,0,0,0,0,0,0,0,0,0,0,0,0,0,0,0,0,0,0,0,0,0,0,0,
0,0,0,0,0,0,0,0,0,0,0,0,0,0,0,0,0,0,0,0,0,0,0,0,0,0,0,0,0,0,0,0,0,0,0,0,0,0,0,0,0,0,0,0,0,0,0,0,0,0,0,0,0,0,0,0,0,0,0,0,0,0,0,0,0,0,0,0,0,0,0,0,0,0,0,0,0,0,0,0,
0,0,0,0,0,0,0,0,0,0,0,0,0,0,0,0,0,0,0,0,0,0,0,0,0,0,0,0,0,0,0,0,0,0,0,0,0,0,0,0,0,0,0,0,0,0,0,0,0,0,0,0,0,0,0,0,0,0,0,0,0,0,0,0,0,0,0,0,0,0,0,0,0,0,0,0,0,0,0,0,
0,0,0,0,0,0,0,0,0,0,0,0,0,0,0,0,0,0,0,0,0,0,0,0,0,0,0,0,0,0,0,0,0,0,0,0,0,0,0,0,0,0,0,0,0,0,0,0,0,0,0,0,0,0,0,0,0,0,0,0,0,0,0,0,0,0,0,0,0,0,0,0,0,0,0,0,0,0,0,0,
0,0,0,0,0,0,0,0,0,0,0,0,0,0,0,0,0,0,0,0,0,0,0,0,0,0,0,0,0,0,0,0,0,0,0,0,0,0,0,0,0,0,0,0,0,0,0,0,0,0,0,0,0,0,0,0,0,0,0,0,0,0,0,0,0,0,0,0,0,0,0,0,0,0,0,0,0,0,0,0,
0,0,0,0,0,0,0,0,0,0,0,0,0,0,0,0,0,0,0,0,0,0,0,0,0,0,0,0,0,0,0,0,0,0,0,0,0,0,0,0,0,0,0,0,0,0,0,0,0,0,0,0,0,0,0,0,0,0,0,0,0,0,0,0,0,0,0,0,0,0,0,0,0,0,0,0,0,0,0,0,
0,0,0,0,0,0,0,0,0,0,0,0,0,0,0,0,0,0,0,0,0,0,0,0,0,0,0,0,0,0,0,0,0,0,0,0,0,0,0,0,0,0,0,0,0,0,0,0,0,0,0,0,0,0,0,0,0,0,0,0,0,0,0,0,0,0,0,0,0,0,0,0,0,0,0,0,0,0,0,0,
0,0,0,0,0,0,0,0,0,0,0,0,0,0,0,0,0,0,0,0,0,0,0,0,0,0,0,0,0,0,0,0,0,0,0,0,0,0,0,0,0,0,0,0,0,0,0,0,0,0,0,0,0,0,0,0,0,0,0,0,0,0,0,0,0,0,0,0,0,0,0,0,0,0,0,0,0,0,0,0,
0,0,0,0,0,0,0,0,0,0,0,0,0,0,0,0,0,0,0,0,0,0,0,0,0,0,0,0,0,0,0,0,0,0,0,0,0,0,0,0,0,0,0,0,0,0,0,0,0,0,0,0,0,0,0,0,0,0,0,0,0,0,0,0,0,0,0,0,0,0,0,0,0,0,0,0,0,0,0,0,
0,0,0,0,0,0,0,0,0,0,0,0,0,0,0,0,0,0,0,0,0,0,0,0,0,0,0,0,0,0,0,0,0,0,0,0,0,0,0,0,0,0,0,0,0,0,0,0,0,0,0,0,0,0,0,0,0,0,0,0,0,0,0,0,0,0,0,0,0,0,0,0,0,0,0,0,0,0,0,0,
0,0,0,0,0,0,0,0,0,0,0,0,0,0,0,0,0,0,0,0,0,0,0,0,0,0,0,0,0,0,0,0,0,0,0,0,0,0,0,0,0,0,0,0,0,0,0,0,0,0,0,0,0,0,0,0,0,0,0,0,0,0,0,0,0,0,0,0,0,0,0,0,0,0,0,0,0,0,0,0
</data>
 </layer>
 <objectgroup id="42" name="Object Layer 2">
  <object id="599" gid="37227" x="557.5" y="1111" width="30" height="22"/>
  <object id="899" gid="38093" x="269" y="1062.33" width="19" height="26"/>
  <object id="912" gid="38510" x="482.667" y="1162.33" width="29" height="28"/>
  <object id="924" gid="38511" x="175" y="790.333" width="27" height="26"/>
 </objectgroup>
 <layer id="53" name="Tall Grass" width="80" height="80">
  <data encoding="csv">
0,0,0,0,0,0,0,0,0,0,0,0,0,0,0,0,0,0,0,0,0,0,0,0,0,0,0,0,0,0,0,0,0,0,0,0,0,0,0,0,0,0,0,0,0,0,0,0,0,0,0,0,0,0,0,0,0,0,0,0,0,0,0,0,0,0,0,0,0,0,0,0,0,0,0,0,0,0,0,0,
0,0,0,0,0,0,0,0,0,0,0,0,0,0,0,0,0,0,0,0,0,0,0,0,0,0,0,0,0,0,0,0,0,0,0,0,0,0,0,0,0,0,0,0,0,0,0,0,0,0,0,0,0,0,0,0,0,0,0,0,0,0,0,0,0,0,0,0,0,0,0,0,0,0,0,0,0,0,0,0,
0,0,0,0,0,0,0,0,0,0,0,0,0,0,0,0,0,0,0,0,0,0,0,0,0,0,0,0,0,0,0,0,0,0,0,0,0,0,0,0,0,0,0,0,0,0,0,0,0,0,0,0,0,0,0,0,0,0,0,0,0,0,0,0,0,0,0,0,0,0,0,0,0,0,0,0,0,0,0,0,
0,0,0,0,0,0,0,0,0,0,0,0,0,0,0,0,0,0,0,0,0,0,0,0,0,0,0,0,0,0,0,0,0,0,0,0,0,0,0,0,0,0,0,0,0,0,0,0,0,0,0,0,0,0,0,0,0,0,0,0,0,0,0,0,0,0,0,0,0,0,0,0,0,0,0,0,0,0,0,0,
0,0,0,0,0,0,0,0,0,0,0,0,0,0,0,0,0,0,0,0,0,0,0,0,0,0,0,0,0,0,0,0,0,0,0,0,0,0,0,0,0,0,0,0,0,0,0,0,0,0,0,0,0,0,0,0,0,0,0,0,0,0,0,0,0,0,0,0,0,0,0,0,0,0,0,0,0,0,0,0,
0,0,0,0,0,0,0,0,0,0,0,0,0,0,0,0,0,0,0,0,0,0,0,0,0,0,0,0,0,0,0,0,0,0,0,0,0,0,0,0,0,0,0,0,0,0,0,0,0,0,0,0,0,0,0,0,0,0,0,0,0,0,0,0,0,0,0,0,0,0,0,0,0,0,0,0,0,0,0,0,
0,0,0,0,0,0,0,0,0,0,0,0,0,0,0,0,0,0,0,0,0,0,0,0,0,0,0,0,0,0,0,0,0,0,0,0,0,0,0,0,0,0,0,0,0,0,0,0,0,0,0,0,0,0,0,0,0,0,0,0,0,0,0,0,0,0,0,0,0,0,0,0,0,0,0,0,0,0,0,0,
0,0,0,0,0,0,0,0,0,0,0,0,0,0,0,0,0,0,0,0,0,0,0,0,0,0,0,0,0,0,0,0,0,0,0,0,0,0,0,0,0,0,0,0,0,0,0,0,0,0,0,0,0,0,0,0,0,0,0,0,0,0,0,0,0,0,0,0,0,0,0,0,0,0,0,0,0,0,0,0,
0,0,0,0,0,0,0,0,0,0,0,0,0,0,0,0,0,0,0,0,0,0,0,0,0,0,0,0,0,0,0,0,0,0,0,0,0,0,0,0,0,0,0,0,0,0,0,0,0,0,0,0,0,0,0,0,0,0,0,0,0,0,0,0,0,0,0,0,0,0,0,0,0,0,0,0,0,0,0,0,
0,0,0,0,0,0,0,0,0,0,0,0,0,0,0,0,0,0,0,0,0,0,0,0,0,0,0,0,0,0,0,8714,8716,0,0,0,0,0,0,0,0,0,0,0,0,0,0,0,0,0,0,0,0,0,0,0,0,0,0,0,0,0,0,0,0,0,0,0,0,0,0,0,0,0,0,0,0,0,0,0,
0,0,0,0,0,0,0,0,0,0,0,0,0,0,0,0,0,0,0,0,0,0,0,0,0,0,0,0,0,0,0,8720,8743,8716,0,0,0,0,0,0,0,0,0,0,0,0,0,0,0,0,0,0,0,0,0,0,0,0,0,0,0,0,0,0,0,0,0,0,0,0,0,0,0,0,0,0,0,0,0,0,
0,0,0,0,0,0,0,0,0,0,0,0,0,0,0,0,0,0,0,0,0,0,0,0,0,0,0,0,0,0,0,8720,8771,8722,0,8714,8716,0,0,0,0,0,0,0,0,0,0,0,0,0,0,0,0,0,0,0,0,0,0,0,0,0,0,0,0,0,0,0,0,0,0,0,0,0,0,0,0,0,0,0,
0,0,0,0,0,0,0,0,0,0,0,0,0,0,0,0,0,0,0,0,8594,8595,8595,8596,0,0,0,0,0,0,0,8720,8737,8728,0,8726,8728,0,0,0,0,0,0,0,0,0,0,0,0,0,0,0,0,0,0,0,0,0,0,0,0,0,0,0,0,0,0,0,0,0,0,0,0,0,0,0,0,0,0,0,
0,0,0,0,0,0,0,0,0,0,0,0,0,0,0,0,0,0,0,0,8600,8649,8601,8602,0,0,0,0,0,0,0,8726,8728,0,0,0,0,0,0,0,0,0,0,0,0,0,0,0,0,0,0,0,0,0,0,0,0,0,0,0,0,0,0,0,0,0,0,0,0,0,0,0,0,0,0,0,0,0,0,0,
0,0,0,0,0,0,0,0,8714,8716,0,0,0,0,0,0,0,0,0,0,8606,8618,8652,8602,0,0,0,0,0,0,0,0,0,0,0,0,0,0,0,0,0,0,0,0,0,0,0,0,0,0,0,0,0,0,0,0,0,0,0,0,0,0,0,0,0,0,0,0,0,0,0,0,0,0,0,0,0,0,0,0,
0,0,0,0,0,0,0,0,8726,8728,0,0,0,0,0,0,0,0,0,0,0,8606,8618,8623,8596,0,0,0,0,0,0,0,0,0,0,0,0,0,0,0,0,0,0,0,0,0,0,0,0,0,0,0,0,0,0,0,0,0,0,0,0,0,0,0,0,0,0,0,0,0,0,0,0,0,0,0,0,0,0,0,
0,0,0,0,0,0,0,0,0,0,0,0,0,0,0,0,0,0,0,0,0,0,8606,8607,8608,0,0,0,0,0,0,0,0,0,0,0,0,0,0,0,0,0,0,0,0,0,0,0,0,0,0,0,0,0,0,0,0,0,0,0,0,0,0,0,0,0,0,0,0,0,0,0,0,0,0,0,0,0,0,0,
0,0,0,0,0,0,0,0,0,0,0,0,0,0,0,0,0,0,0,0,0,0,0,0,0,0,0,0,0,0,0,0,0,0,0,0,0,0,0,0,0,0,0,0,0,0,0,0,0,0,0,0,0,0,0,0,0,0,0,0,0,0,0,0,0,0,0,0,0,0,0,0,0,0,0,0,0,0,0,0,
0,0,0,0,0,0,0,0,0,0,0,0,0,8714,8716,0,0,0,0,0,0,0,0,0,0,0,0,0,0,0,0,0,0,0,0,0,0,0,0,0,0,0,0,0,0,0,0,0,0,0,0,0,0,0,0,0,0,0,0,0,0,0,0,0,0,0,0,0,0,0,0,0,0,0,0,0,0,0,0,0,
0,0,0,0,0,0,0,0,0,0,0,0,0,8720,8743,8716,0,0,0,0,0,0,0,0,0,0,0,0,0,0,0,0,0,0,0,0,0,0,0,0,0,0,0,0,0,0,0,0,0,0,0,0,0,0,0,0,0,0,0,0,0,0,0,0,0,0,0,0,0,0,0,0,0,0,0,0,0,0,0,0,
0,0,0,0,0,0,0,0,0,0,0,0,0,8720,8737,8728,0,0,0,0,0,0,0,0,0,0,0,0,0,0,0,0,0,0,0,0,8714,8716,0,0,0,0,0,0,0,0,0,0,0,0,0,0,0,0,0,0,0,0,0,0,0,0,0,0,0,0,0,0,0,0,0,0,0,0,0,0,0,0,0,0,
0,0,0,0,0,0,0,0,0,0,0,0,0,8726,8728,0,0,0,0,0,0,0,0,0,0,0,0,0,0,0,0,0,0,0,0,0,8720,8722,0,0,0,0,0,0,0,0,0,0,0,0,0,0,0,0,0,0,0,0,0,0,0,0,0,0,0,0,0,0,0,0,0,0,0,0,0,0,0,0,0,0,
0,0,0,0,0,0,0,0,0,0,0,0,0,0,0,0,0,0,0,0,0,0,0,0,0,0,0,0,0,0,0,0,0,0,0,0,8726,8728,0,0,8714,8715,8715,8716,0,0,0,0,0,0,0,0,0,0,0,0,0,0,0,0,0,0,0,0,0,0,0,0,0,0,0,0,0,0,0,0,0,0,0,0,
0,0,0,0,0,0,0,0,0,0,0,0,0,0,0,0,0,0,0,0,0,0,0,0,0,0,0,0,0,0,0,0,0,0,0,0,0,0,0,8714,8744,8765,8737,8728,0,0,0,0,0,0,0,0,0,0,0,0,0,0,0,0,0,0,0,0,0,0,0,0,0,0,0,0,0,0,0,0,0,0,0,0,
0,0,0,0,0,0,0,0,0,0,0,0,0,0,0,0,0,0,0,0,0,0,0,0,0,0,0,0,0,0,0,0,0,0,0,0,0,0,0,8720,8771,8737,8728,0,0,0,0,0,0,0,0,0,0,0,0,0,0,0,0,0,0,0,0,0,0,0,0,0,0,0,0,0,0,0,0,0,0,0,0,0,
0,0,0,0,0,0,0,0,0,0,0,0,0,0,0,0,0,0,0,0,0,0,0,0,0,0,0,0,0,0,0,0,0,0,0,0,0,0,0,8726,8727,8728,0,0,0,0,0,0,0,0,0,0,0,0,0,0,0,0,0,0,0,0,0,0,0,0,0,0,0,0,0,0,0,0,0,0,0,0,0,0,
0,0,0,0,0,0,0,0,0,0,0,0,0,0,0,0,0,0,0,0,0,0,0,0,0,0,0,0,0,0,0,0,0,0,0,0,0,0,0,8594,8595,8596,0,0,0,0,0,0,0,0,0,0,0,0,0,0,0,0,0,0,0,0,0,0,0,0,0,0,0,0,0,0,0,0,0,0,0,0,0,0,
0,0,0,0,0,0,0,0,0,0,0,0,0,0,0,0,0,0,0,0,0,0,0,0,0,0,0,0,0,0,0,0,0,0,0,0,0,0,0,8606,8618,8623,8596,0,0,0,0,0,0,0,0,0,0,0,0,0,0,0,0,0,0,0,0,0,0,0,0,0,0,0,0,0,0,0,0,0,0,0,0,0,
0,0,0,0,0,0,0,0,0,0,0,0,0,0,0,0,0,0,0,0,0,0,0,0,0,0,0,0,0,0,0,0,0,0,0,0,0,0,0,0,8606,8618,8623,8595,8595,8596,0,0,0,0,0,0,0,0,0,0,0,0,0,0,0,0,0,0,0,0,0,0,0,0,0,0,0,0,0,0,0,0,0,0,
0,0,0,0,0,0,0,0,0,0,0,0,0,0,0,0,0,0,0,0,0,0,0,0,0,0,0,0,0,0,0,0,0,0,0,0,0,0,0,0,0,8600,8648,8601,8617,8608,0,0,0,0,0,0,0,0,0,0,0,0,0,0,0,0,0,0,0,0,0,0,0,0,0,0,0,0,0,0,0,0,0,0,
0,0,0,0,0,0,0,0,8534,8536,0,0,0,0,0,0,0,0,0,0,0,0,0,0,0,0,0,0,0,0,0,0,0,0,0,0,0,0,0,0,0,8606,8607,8607,8608,0,0,0,0,0,0,0,0,0,0,0,0,0,0,0,0,0,0,0,0,0,0,0,0,0,0,0,0,0,0,0,0,0,0,0,
0,0,0,0,0,8534,8536,0,8546,8548,0,0,0,0,0,0,0,0,0,0,0,0,0,0,0,0,0,0,0,0,0,0,0,0,0,0,0,0,0,0,0,0,0,0,0,0,0,0,0,0,0,0,0,0,0,0,0,0,0,0,0,0,0,0,0,0,0,0,0,0,0,0,0,0,0,0,0,0,0,0,
0,0,0,0,0,8540,8542,0,0,0,0,0,0,0,0,0,0,0,0,0,0,0,0,0,0,0,0,0,0,0,0,0,0,0,0,0,0,0,0,0,0,0,0,0,0,0,0,0,0,0,0,0,0,0,0,0,0,0,0,0,0,0,0,0,0,0,0,0,0,0,0,0,0,0,0,0,0,0,0,0,
0,0,0,0,0,8546,8548,0,0,0,0,0,0,0,0,0,0,0,0,0,0,0,0,0,0,0,0,0,0,0,0,0,0,0,0,0,0,0,0,0,0,0,0,0,0,0,0,0,0,0,0,0,0,0,0,0,0,0,0,0,0,0,0,0,0,0,0,0,0,0,0,0,0,0,0,0,0,0,0,0,
0,0,0,0,0,0,0,0,0,0,0,0,0,0,0,0,0,0,0,0,0,0,0,0,0,0,0,8534,8535,8536,0,0,0,0,0,0,0,0,0,0,0,0,0,0,0,0,0,0,0,0,0,0,0,0,0,0,0,0,0,0,0,0,0,0,0,0,0,0,0,8594,8596,0,0,0,0,0,0,0,0,0,
0,0,0,0,0,0,0,0,0,0,0,0,0,0,0,0,0,0,0,0,0,0,0,0,0,0,0,8546,8558,8563,8536,0,0,0,0,0,0,0,0,0,0,0,0,0,0,0,0,0,0,0,0,0,0,0,0,0,0,0,0,0,0,0,0,8714,8716,0,0,0,8594,8624,8602,0,0,0,0,0,0,0,0,0,
0,0,0,0,0,0,0,0,0,0,0,0,0,0,0,0,0,0,0,0,0,0,0,0,0,0,0,0,8546,8558,8542,0,0,0,0,0,0,0,0,0,0,0,0,0,0,0,0,0,0,0,0,0,0,0,0,0,0,0,0,0,0,0,0,8726,8728,0,0,0,8606,8607,8608,0,0,0,0,0,0,0,0,0,
0,0,0,0,0,0,0,0,0,0,0,0,0,0,0,0,0,0,0,0,0,0,0,0,0,0,0,0,0,8540,8542,0,0,0,0,0,0,0,0,0,0,0,8714,8715,8716,0,0,0,0,0,0,0,0,0,0,0,0,0,0,0,0,0,0,0,0,0,0,0,0,0,0,0,0,0,0,8714,8716,0,0,0,
0,0,0,0,0,0,0,0,0,0,0,0,0,0,0,0,0,0,0,0,0,0,0,0,0,0,0,0,8534,8573,8548,0,0,0,0,0,0,0,0,0,0,8714,8744,8762,8743,8716,0,0,0,0,0,0,0,0,0,0,0,0,0,0,0,0,0,0,0,0,0,0,0,0,0,0,8594,8596,0,8726,8754,8716,0,0,
0,0,0,0,0,0,0,0,0,0,0,0,0,0,0,0,0,0,0,0,0,0,0,0,0,0,8534,8535,8564,8542,0,8594,8595,8595,8596,0,8714,8715,8716,0,0,8726,8727,8727,8738,8722,0,0,0,0,0,0,0,0,0,0,0,0,0,0,0,0,0,0,0,0,0,0,0,0,0,0,8606,8608,0,0,8726,8728,0,0,
0,0,0,0,0,0,0,0,0,0,0,0,0,0,0,0,0,0,0,0,0,0,0,8534,8535,8535,8564,8582,8586,8542,0,8606,8607,8618,8623,8596,8726,8727,8728,0,0,0,0,0,8726,8728,0,0,0,0,0,0,0,0,0,0,0,0,0,0,0,0,0,0,0,0,0,0,0,0,0,0,0,0,0,0,0,0,0,0,
0,0,0,0,0,0,0,0,0,0,0,0,0,0,0,0,0,0,0,0,0,0,8534,8564,8557,8547,8547,8547,8547,8548,0,0,0,8606,8607,8608,0,0,0,0,0,0,0,0,0,0,0,0,0,0,0,0,0,0,0,0,0,8714,8716,0,0,0,0,0,0,0,0,0,0,0,0,0,0,0,0,0,8594,8596,0,0,
0,0,0,0,0,0,0,0,0,0,8534,8536,0,0,0,0,0,0,0,0,0,8534,8564,8541,8542,0,8714,8715,8715,8716,0,0,0,0,0,0,0,0,0,0,0,0,0,0,8594,8596,0,0,0,0,0,0,0,0,0,0,0,8720,8743,8716,0,0,0,0,0,0,0,0,0,0,0,0,0,0,0,0,8600,8602,0,0,
0,0,0,0,0,0,0,0,0,0,8546,8548,0,0,0,0,0,0,0,0,0,8546,8547,8547,8548,0,8720,8737,8727,8728,0,8714,8716,0,0,0,0,0,0,0,0,0,8594,8595,8624,8602,0,0,0,0,0,0,0,0,0,0,0,8726,8738,8722,0,0,0,0,0,0,0,0,0,0,0,0,0,0,0,0,8606,8608,0,0,
0,0,0,0,0,0,0,0,0,0,0,0,0,0,0,0,0,0,0,0,0,0,0,0,0,0,8726,8728,0,0,8714,8744,8722,0,0,8594,8595,8595,8596,0,0,8594,8633,8607,8607,8608,0,0,0,0,0,0,0,0,0,0,0,0,8726,8728,0,0,0,0,0,0,0,0,0,0,0,0,0,8714,8716,0,0,0,0,0,
0,0,0,0,0,0,0,0,0,0,0,0,0,0,0,0,0,0,0,8534,8536,0,0,0,0,0,0,0,0,0,8726,8727,8728,0,8594,8624,8617,8607,8634,8596,0,8606,8608,0,0,0,0,8594,8595,8595,8596,0,0,0,0,0,0,0,0,0,0,0,0,0,0,0,0,0,0,0,0,0,8714,8744,8722,0,0,0,0,0,
0,0,0,0,0,0,0,0,0,0,0,0,0,0,0,0,0,0,0,8546,8548,0,0,0,0,0,8594,8596,0,0,0,0,0,0,8606,8607,8608,0,8606,8608,0,0,0,0,0,0,0,8600,8601,8601,8602,0,0,0,0,0,0,0,0,0,0,0,0,0,0,0,0,0,0,0,0,0,8720,8772,8722,0,0,0,0,0,
0,0,0,0,0,0,0,0,0,0,0,0,0,0,0,0,0,0,0,0,0,0,0,0,0,0,8600,8623,8596,0,0,0,0,0,0,0,0,0,0,0,0,0,0,0,8594,8595,8595,8624,8647,8648,8602,0,0,0,0,0,0,0,0,0,0,0,0,0,0,0,0,0,0,0,0,0,8726,8738,8722,0,0,0,0,0,
0,0,0,0,0,0,0,0,0,0,0,0,0,0,0,0,0,0,0,0,0,0,0,0,0,0,8600,8601,8623,8595,8595,8596,0,0,0,0,0,0,0,0,0,0,0,0,8600,8641,8645,8617,8607,8618,8602,0,0,0,0,0,0,0,0,0,0,0,0,0,0,0,0,0,8714,8716,0,0,0,8726,8728,0,0,0,0,0,
0,0,0,0,0,0,0,0,0,0,0,8534,8535,8535,8535,8536,0,0,0,0,0,0,0,8714,8716,0,8606,8607,8607,8607,8607,8634,8596,0,0,0,0,0,0,0,0,0,0,0,8600,8645,8601,8602,8594,8624,8602,0,0,0,0,0,0,0,0,0,0,0,0,0,0,0,0,8714,8753,8728,0,0,0,0,0,0,0,0,0,0,
0,0,0,0,0,0,0,0,0,0,0,8540,8541,8557,8547,8548,0,0,0,0,0,0,8714,8744,8722,0,0,0,0,0,0,8600,8623,8596,0,0,0,0,0,0,0,0,0,0,8600,8649,8649,8602,8600,8641,8602,0,0,0,0,0,0,0,0,0,0,8714,8716,8594,8596,0,8714,8744,8722,0,0,0,0,0,0,0,0,0,0,0,
0,0,0,0,0,0,0,0,0,0,0,8540,8557,8548,0,0,0,0,0,0,0,0,8726,8727,8728,0,0,0,0,0,0,8600,8645,8602,0,0,0,0,0,0,0,0,0,0,8600,8651,8617,8608,8600,8650,8602,0,0,0,0,0,0,0,0,0,8714,8744,8722,8606,8608,0,8726,8727,8728,0,0,0,0,0,0,0,0,0,0,0,
0,0,0,0,0,0,0,0,0,0,0,8546,8548,0,0,0,0,0,0,0,0,0,0,0,0,0,0,8714,8715,8716,0,8606,8607,8608,0,0,0,0,0,0,0,0,0,0,8600,8617,8608,0,8600,8617,8608,0,0,0,0,0,0,0,0,0,8720,8767,8722,0,0,0,0,0,0,0,0,0,0,0,0,0,0,0,0,0,
0,0,0,0,0,0,0,0,0,0,0,0,0,0,0,0,0,0,0,0,0,0,0,8714,8716,0,8714,8744,8766,8722,0,0,0,0,0,0,0,0,0,0,0,0,0,0,8606,8608,8594,8596,8600,8602,0,0,0,0,0,0,0,0,0,0,8720,8765,8722,0,0,0,0,8714,8716,0,0,0,0,0,0,0,0,0,0,0,
0,0,0,0,0,0,0,0,0,0,0,0,0,0,0,0,0,0,0,0,0,0,0,8726,8728,0,8726,8727,8727,8728,0,0,0,0,0,0,0,0,0,0,0,0,0,0,0,0,8606,8608,8606,8608,0,0,0,0,0,0,0,0,0,8714,8744,8768,8743,8716,0,0,8714,8744,8743,8716,0,0,0,0,0,0,8714,8716,0,0,
0,0,0,0,0,0,0,0,0,0,0,0,0,0,0,0,0,0,0,0,0,0,0,0,0,0,0,0,0,8714,8715,8716,0,0,0,0,0,0,0,0,0,0,0,0,0,0,0,0,0,0,0,0,0,0,0,0,0,0,0,8726,8727,8727,8738,8722,0,0,8720,8761,8737,8728,0,0,0,0,0,0,8726,8728,0,0,
0,0,0,0,0,0,0,0,0,0,0,0,0,0,0,0,0,0,0,0,0,8714,8715,8715,8716,0,0,0,0,8726,8727,8728,0,0,0,0,0,0,0,0,0,0,0,0,0,0,0,0,0,0,0,0,0,0,0,0,0,0,0,0,0,0,8726,8728,0,0,8726,8727,8728,0,0,0,0,0,0,0,0,0,0,0,
0,0,0,0,0,0,0,0,0,0,0,0,0,0,0,0,0,0,0,0,8714,8744,8767,8737,8728,0,0,0,0,0,0,0,0,0,0,0,0,0,0,0,0,0,0,0,0,0,0,0,0,0,0,0,0,0,0,0,8714,8716,0,0,0,0,0,0,0,0,0,0,0,0,0,0,8714,8716,0,0,0,0,0,0,
0,0,0,0,0,0,0,0,0,8714,8716,0,0,0,0,0,0,0,0,0,8726,8727,8727,8728,0,0,0,0,0,0,0,0,0,0,0,0,0,0,0,0,0,0,0,0,0,0,0,0,0,0,0,0,0,0,0,0,8726,8728,0,0,0,0,0,0,0,0,0,0,0,0,0,0,8720,8722,0,0,0,0,0,0,
0,0,0,0,0,0,0,0,0,8720,8743,8715,8715,8715,8716,0,0,0,0,0,0,0,0,0,8714,8716,0,0,0,0,0,0,0,0,0,0,0,0,0,0,0,0,0,0,0,0,0,0,0,0,0,0,0,0,0,0,0,0,0,0,8594,8596,0,0,0,0,0,8714,8715,8716,0,8714,8744,8722,8714,8716,0,0,0,0,
0,0,0,0,0,0,0,0,0,8720,8762,8772,8761,8764,8743,8716,0,0,0,0,0,0,0,8714,8753,8728,0,0,0,0,0,0,0,0,0,0,0,0,0,0,0,0,0,0,0,0,0,0,0,0,0,0,0,0,0,0,0,0,0,8594,8624,8602,0,0,0,8714,8715,8744,8761,8722,0,8726,8727,8728,8720,8722,0,0,0,0,
0,0,0,0,0,0,0,0,0,8726,8727,8727,8727,8727,8738,8722,0,0,0,0,0,0,0,8726,8728,0,0,0,0,0,0,0,0,0,0,0,0,0,0,0,0,0,0,0,0,0,0,0,0,0,0,0,0,0,0,0,0,0,0,8606,8607,8608,0,0,0,8720,8737,8727,8727,8728,0,0,0,8714,8744,8722,0,0,0,0,
0,0,0,0,0,0,0,0,0,0,0,0,0,0,8726,8728,0,0,0,0,0,0,0,0,0,0,0,0,0,0,0,0,0,0,0,0,0,0,0,8534,8535,8536,0,0,0,0,0,0,0,0,0,0,0,0,0,0,0,0,0,0,0,0,0,8714,8715,8744,8722,0,0,0,0,0,0,8720,8761,8722,0,0,0,0,
0,0,0,0,0,0,0,0,0,0,0,0,0,0,0,0,0,0,0,0,0,0,0,0,0,0,0,0,0,0,0,0,0,0,0,0,0,0,8534,8564,8557,8548,0,0,0,0,0,0,0,0,0,0,0,0,0,0,0,0,0,0,0,0,0,8726,8727,8727,8728,0,0,0,0,0,0,8726,8727,8728,0,0,0,0,
0,0,0,0,0,0,0,0,0,0,0,0,0,0,8714,8715,8716,0,0,0,0,0,0,0,0,0,0,0,0,0,0,0,0,0,0,0,0,0,8546,8558,8542,0,0,0,0,0,0,8534,8536,0,0,0,0,0,0,0,0,0,0,0,0,0,0,0,0,0,0,0,0,0,0,8594,8596,0,0,0,0,0,0,0,
0,0,0,0,0,0,0,0,0,0,0,0,0,0,8726,8727,8728,0,0,0,0,0,0,0,0,8714,8715,8716,0,0,0,0,0,0,0,0,0,0,0,8546,8548,0,0,0,0,0,8534,8564,8563,8536,0,0,0,0,0,0,0,0,0,0,0,0,0,0,0,0,0,0,0,0,0,8606,8608,0,0,0,0,0,0,0,
0,0,0,0,0,0,0,0,0,0,0,0,0,0,0,0,8714,8715,8715,8716,0,0,0,0,8714,8744,8737,8728,0,0,0,0,0,0,0,0,0,0,0,0,0,0,0,0,0,0,8540,8589,8557,8548,0,0,0,0,0,0,0,0,0,0,0,0,0,0,0,0,0,0,8714,8716,0,0,0,0,0,0,0,0,0,0,
0,0,0,0,0,0,0,0,0,0,0,0,0,0,0,0,8720,8770,8768,8743,8715,8715,8716,0,8726,8727,8728,0,0,0,0,0,0,0,0,0,0,0,8534,8535,8536,0,0,0,0,0,8546,8547,8548,0,0,0,0,0,0,0,0,8714,8715,8716,0,0,0,0,0,0,0,0,8726,8728,0,0,0,0,0,0,0,0,0,0,
0,0,0,0,0,0,0,0,0,0,0,0,0,0,0,0,8720,8766,8770,8770,8762,8768,8722,0,0,0,0,0,0,0,0,0,0,0,0,0,0,0,8546,8547,8548,0,0,0,0,0,0,0,0,0,8534,8536,0,0,0,0,0,8720,8771,8722,0,0,0,0,0,0,0,0,0,0,0,0,0,0,0,0,0,0,0,0,
0,0,0,0,0,0,0,0,0,0,0,0,0,0,0,0,8720,8762,8721,8772,8766,8764,8743,8716,0,0,0,0,0,0,0,0,0,0,8714,8715,8716,0,0,0,0,0,0,0,0,0,0,0,8534,8536,8546,8548,0,0,0,0,0,8720,8769,8743,8716,0,0,0,0,0,0,0,0,0,0,0,0,0,0,0,0,0,0,0,
0,0,0,0,0,0,0,0,0,0,0,0,0,0,0,0,8720,8765,8766,8771,8721,8770,8764,8743,8716,0,0,0,0,0,0,0,0,8714,8744,8772,8722,0,0,0,0,0,0,0,0,0,8534,8535,8573,8548,0,0,0,0,0,0,0,8726,8738,8764,8722,0,0,0,0,0,0,0,0,0,0,0,0,0,0,0,0,0,0,0,
0,0,0,0,0,0,0,0,0,0,0,0,0,0,0,0,8726,8727,8727,8727,8727,8727,8727,8738,8722,0,0,0,0,0,0,0,8714,8744,8771,8761,8722,0,0,0,0,0,0,8534,8535,8536,8546,8547,8548,0,0,0,0,0,0,0,0,0,8720,8767,8722,0,0,0,0,0,0,0,0,0,0,0,0,0,0,0,0,0,0,0,
0,0,0,0,0,0,0,0,0,0,0,0,0,0,0,0,0,0,0,0,0,0,0,8720,8722,0,0,0,0,0,0,8714,8744,8763,8769,8771,8722,0,0,0,0,0,0,8546,8547,8548,0,0,0,0,0,8594,8596,0,0,0,0,0,8726,8727,8728,0,0,0,0,0,0,0,0,0,0,0,0,0,0,0,0,0,0,0,
0,0,0,0,0,0,0,0,0,0,0,0,8714,8716,0,0,0,0,0,0,0,0,0,8726,8728,0,0,0,0,0,0,8726,8727,8727,8727,8727,8728,0,0,0,0,0,0,0,0,0,0,0,0,0,8594,8624,8602,0,0,0,0,0,0,0,0,0,0,0,0,0,0,0,0,0,0,0,0,0,0,0,0,0,0,0,
0,0,0,0,0,0,0,0,0,0,0,0,8720,8743,8716,0,0,0,0,0,0,0,0,0,0,0,0,0,0,0,0,0,0,0,0,0,0,0,0,0,0,0,0,0,0,0,0,0,0,0,8606,8607,8608,0,0,0,0,0,0,0,0,0,0,0,0,0,0,0,0,0,0,0,0,0,0,0,0,0,0,0,
0,0,0,0,0,0,0,0,0,0,0,0,8720,8767,8743,8715,8716,0,0,0,0,0,0,0,0,0,0,0,0,0,0,0,0,0,0,0,0,0,0,0,0,0,0,0,0,0,0,0,0,0,0,0,0,0,0,0,0,0,0,0,0,0,0,0,0,0,0,0,0,0,0,0,0,0,0,0,0,0,0,0,
0,0,0,0,0,0,0,0,0,0,0,0,8726,8727,8727,8727,8728,0,0,0,0,0,0,0,0,0,0,0,0,0,0,0,0,0,0,0,0,0,0,0,0,0,0,0,0,0,0,0,0,0,0,0,0,0,0,0,0,0,0,0,0,0,0,0,0,0,0,0,0,0,0,0,0,0,0,0,0,0,0,0,
0,0,0,0,0,0,0,0,0,0,0,0,0,0,0,0,0,0,0,0,0,0,0,0,0,0,0,0,0,0,0,0,0,0,0,0,0,0,0,0,0,0,0,0,0,0,0,0,0,0,0,0,0,0,0,0,0,0,0,0,0,0,0,0,0,0,0,0,0,0,0,0,0,0,0,0,0,0,0,0,
0,0,0,0,0,0,0,0,0,0,0,0,0,0,0,0,0,0,0,0,0,0,0,0,0,0,0,0,0,0,0,0,0,0,0,0,0,0,0,0,0,0,0,0,0,0,0,0,0,0,0,0,0,0,0,0,0,0,0,0,0,0,0,0,0,0,0,0,0,0,0,0,0,0,0,0,0,0,0,0,
0,0,0,0,0,0,0,0,0,0,0,0,0,0,0,0,0,0,0,0,0,0,0,0,0,0,0,0,0,0,0,0,0,0,0,0,0,0,0,0,0,0,0,0,0,0,0,0,0,0,0,0,0,0,0,0,0,0,0,0,0,0,0,0,0,0,0,0,0,0,0,0,0,0,0,0,0,0,0,0
</data>
 </layer>
 <objectgroup id="4" name="Object Layer 1">
  <object id="9" gid="38605" x="1027" y="148" width="64" height="77"/>
  <object id="10" gid="38604" x="981" y="149" width="47" height="63"/>
  <object id="11" gid="38610" x="1043" y="193" width="47" height="63"/>
  <object id="12" gid="38607" x="1006" y="182" width="64" height="77"/>
  <object id="13" gid="38607" x="599" y="193" width="64" height="77"/>
  <object id="16" gid="38605" x="1116" y="416" width="64" height="77"/>
  <object id="17" gid="38606" x="1150" y="434.5" width="47" height="63"/>
  <object id="18" gid="38610" x="1109" y="437" width="47" height="63"/>
  <object id="20" gid="38604" x="1125" y="463" width="47" height="63"/>
  <object id="21" gid="38589" x="1107" y="447.5" width="32" height="23"/>
  <object id="22" gid="38591" x="1073" y="311" width="15" height="12"/>
  <object id="23" gid="38594" x="980.5" y="160" width="31" height="28"/>
  <object id="24" gid="38594" x="1098.5" y="189.5" width="31" height="28"/>
  <object id="25" gid="38595" x="784" y="129" width="15" height="12"/>
  <object id="26" gid="38602" x="600" y="177.5" width="31" height="28"/>
  <object id="28" gid="38588" x="634.5" y="173" width="28" height="15"/>
  <object id="29" gid="38588" x="688.5" y="184.5" width="28" height="15"/>
  <object id="32" gid="38606" x="783.5" y="133.5" width="47" height="63"/>
  <object id="33" gid="38606" x="611.5" y="351.5" width="47" height="63"/>
  <object id="34" gid="38605" x="639.5" y="333" width="64" height="77"/>
  <object id="35" gid="38602" x="635" y="326.5" width="31" height="28"/>
  <object id="37" gid="38600" x="672.5" y="327.5" width="28" height="15"/>
  <object id="38" gid="38600" x="870" y="476" width="28" height="15"/>
  <object id="39" gid="38589" x="928" y="414" width="32" height="23"/>
  <object id="40" gid="38589" x="702.5" y="909" width="32" height="23"/>
  <object id="48" gid="38605" x="678" y="589.667" width="64" height="77"/>
  <object id="49" gid="38594" x="688.333" y="574.667" width="31" height="28"/>
  <object id="50" gid="38592" x="1089.33" y="534.667" width="28" height="15"/>
  <object id="53" gid="38645" x="1131.67" y="857.667" width="27" height="29"/>
  <object id="54" gid="38645" x="770.333" y="637" width="27" height="29"/>
  <object id="55" gid="38642" x="1037.33" y="853.333" width="24" height="15"/>
  <object id="56" gid="38644" x="983.667" y="758.333" width="27" height="46"/>
  <object id="63" gid="38644" x="575.667" y="857.667" width="27" height="46"/>
  <object id="73" gid="38603" x="600.667" y="623.667" width="64" height="77"/>
  <object id="74" gid="38610" x="544.333" y="801.333" width="47" height="63"/>
  <object id="75" gid="38605" x="244.667" y="364.333" width="64" height="77"/>
  <object id="77" gid="38603" x="163.333" y="455" width="64" height="77"/>
  <object id="78" gid="38602" x="241.667" y="381.333" width="31" height="28"/>
  <object id="79" gid="38606" x="195" y="384.667" width="47" height="63"/>
  <object id="80" gid="38607" x="107.333" y="689" width="64" height="77"/>
  <object id="81" gid="38604" x="67" y="497.833" width="47" height="63"/>
  <object id="82" gid="38610" x="398.333" y="401.333" width="47" height="63"/>
  <object id="83" gid="38605" x="276.667" y="595" width="64" height="77"/>
  <object id="84" gid="38606" x="213" y="542" width="47" height="63"/>
  <object id="86" gid="38610" x="419" y="588" width="47" height="63"/>
  <object id="87" gid="38604" x="165" y="763.333" width="47" height="63"/>
  <object id="88" gid="38590" x="105.667" y="698" width="31" height="28"/>
  <object id="89" gid="38588" x="321" y="438.667" width="28" height="15"/>
  <object id="92" gid="38593" x="172.667" y="468.667" width="32" height="23"/>
  <object id="93" gid="38595" x="269" y="372" width="15" height="12"/>
  <object id="106" gid="38605" x="337" y="132.833" width="64" height="77"/>
  <object id="107" gid="38602" x="307.833" y="148.167" width="31" height="28"/>
  <object id="111" gid="38644" x="525" y="86.3333" width="27" height="46"/>
  <object id="114" gid="38429" x="346.333" y="73.6667" width="14" height="14"/>
  <object id="115" gid="38430" x="605.667" y="119" width="14" height="13"/>
  <object id="116" gid="38430" x="775" y="67" width="14" height="13"/>
  <object id="120" gid="38602" x="1001" y="42.6667" width="31" height="28"/>
  <object id="121" gid="38601" x="721.333" y="64" width="32" height="23"/>
  <object id="125" gid="38603" x="100.5" y="226.5" width="64" height="77"/>
  <object id="126" gid="38604" x="153.5" y="240" width="47" height="63"/>
  <object id="127" gid="38606" x="96" y="265" width="47" height="63"/>
  <object id="128" gid="38606" x="415.5" y="150.5" width="47" height="63"/>
  <object id="175" gid="38603" x="502.5" y="911.5" width="64" height="77"/>
  <object id="176" gid="38602" x="355.5" y="1217" width="31" height="28"/>
  <object id="177" gid="38602" x="140" y="878.75" width="31" height="28"/>
  <object id="179" gid="38600" x="200" y="777.75" width="28" height="15"/>
  <object id="180" gid="38601" x="372.25" y="730.25" width="32" height="23"/>
  <object id="182" gid="38600" x="438.25" y="933" width="28" height="15"/>
  <object id="183" gid="38601" x="466.333" y="1175.17" width="32" height="23"/>
  <object id="185" gid="38644" x="509.667" y="1106.33" width="27" height="46"/>
  <object id="187" gid="38590" x="303.667" y="440" width="31" height="28"/>
  <object id="188" gid="38595" x="329.667" y="448" width="15" height="12"/>
  <object id="189" gid="38593" x="361.333" y="587.333" width="32" height="23"/>
  <object id="190" gid="38592" x="156" y="515.333" width="28" height="15"/>
  <object id="192" gid="38593" x="70" y="584" width="32" height="23"/>
  <object id="193" gid="38588" x="192" y="636.667" width="28" height="15"/>
  <object id="194" gid="38591" x="171" y="569.333" width="15" height="12"/>
  <object id="195" gid="38589" x="222" y="766" width="32" height="23"/>
  <object id="196" gid="38610" x="71.6667" y="93.3333" width="47" height="63"/>
  <object id="197" gid="38603" x="88" y="132.333" width="64" height="77"/>
  <object id="198" gid="38605" x="30.6667" y="147" width="64" height="77"/>
  <object id="199" gid="38604" x="66.3333" y="161.333" width="47" height="63"/>
  <object id="200" gid="38607" x="-13.3333" y="171" width="64" height="77"/>
  <object id="201" gid="38606" x="14.3333" y="202.667" width="47" height="63"/>
  <object id="202" gid="38606" x="-11" y="28" width="47" height="63"/>
  <object id="203" gid="38607" x="18.6667" y="57.6667" width="64" height="77"/>
  <object id="204" gid="38607" x="168" y="23" width="64" height="77"/>
  <object id="205" gid="38594" x="198.333" y="31.3333" width="31" height="28"/>
  <object id="206" gid="38594" x="289" y="18" width="31" height="28"/>
  <object id="207" gid="38595" x="249" y="11.3333" width="15" height="12"/>
  <object id="208" gid="38606" x="323" y="14" width="47" height="63"/>
  <object id="209" gid="38606" x="577" y="8" width="47" height="63"/>
  <object id="210" gid="38607" x="404.667" y="11.6667" width="64" height="77"/>
  <object id="211" gid="38589" x="431.333" y="22" width="32" height="23"/>
  <object id="212" gid="38588" x="150" y="12.6667" width="28" height="15"/>
  <object id="213" gid="38588" x="-4" y="42" width="28" height="15"/>
  <object id="214" gid="38602" x="63" y="17.3333" width="31" height="28"/>
  <object id="215" gid="38601" x="594.667" y="22" width="32" height="23"/>
  <object id="216" gid="38600" x="469.333" y="8" width="28" height="15"/>
  <object id="217" gid="38600" x="59.3333" y="155.333" width="28" height="15"/>
  <object id="222" gid="38426" x="619" y="12.3333" width="30" height="29"/>
  <object id="223" gid="38426" x="-2.33333" y="204.333" width="30" height="29"/>
  <object id="224" gid="38424" x="42.6667" y="397.333" width="33" height="28"/>
  <object id="225" gid="38603" x="-30.6667" y="244.333" width="64" height="77"/>
  <object id="226" gid="38604" x="14.3333" y="266" width="47" height="63"/>
  <object id="227" gid="38607" x="12" y="323" width="64" height="77"/>
  <object id="228" gid="38610" x="-17" y="298.667" width="47" height="63"/>
  <object id="229" gid="38650" x="-18" y="361" width="64" height="77"/>
  <object id="230" gid="38657" x="7" y="398" width="47" height="63"/>
  <object id="231" gid="38605" x="-40.6667" y="425.667" width="64" height="77"/>
  <object id="232" gid="38656" x="-25.5" y="469.5" width="64" height="77"/>
  <object id="233" gid="38610" x="-25.5" y="509.5" width="47" height="63"/>
  <object id="234" gid="38650" x="-37" y="559" width="64" height="77"/>
  <object id="235" gid="38604" x="-14.5" y="594" width="47" height="63"/>
  <object id="237" gid="38607" x="-22" y="636.5" width="64" height="77"/>
  <object id="238" gid="38651" x="-13" y="681" width="47" height="63"/>
  <object id="239" gid="38657" x="18" y="704" width="47" height="63"/>
  <object id="240" gid="38603" x="-21" y="745" width="64" height="77"/>
  <object id="241" gid="38650" x="5.5" y="784.5" width="64" height="77"/>
  <object id="242" gid="38604" x="-26" y="809.5" width="47" height="63"/>
  <object id="243" gid="38657" x="48" y="823.5" width="47" height="63"/>
  <object id="244" gid="38603" x="-0.5" y="850" width="64" height="77"/>
  <object id="245" gid="38610" x="-17.5" y="895.5" width="47" height="63"/>
  <object id="246" gid="38607" x="35.5" y="894" width="64" height="77"/>
  <object id="247" gid="38606" x="14" y="935.5" width="47" height="63"/>
  <object id="248" gid="38656" x="-13.5" y="980" width="64" height="77"/>
  <object id="249" gid="38657" x="18.5" y="1018.5" width="47" height="63"/>
  <object id="250" gid="38603" x="-16.5" y="1042.5" width="64" height="77"/>
  <object id="251" gid="38607" x="24.5" y="1093" width="64" height="77"/>
  <object id="252" gid="38606" x="-13" y="1097" width="47" height="63"/>
  <object id="253" gid="38605" x="63.5" y="1134.5" width="64" height="77"/>
  <object id="254" gid="38606" x="119" y="1107.5" width="47" height="63"/>
  <object id="255" gid="38603" x="21.5" y="1163.5" width="64" height="77"/>
  <object id="256" gid="38657" x="-14.5" y="1184.5" width="47" height="63"/>
  <object id="257" gid="38651" x="72" y="1185.5" width="47" height="63"/>
  <object id="258" gid="38607" x="107.5" y="1232" width="64" height="77"/>
  <object id="259" gid="38610" x="112.5" y="1170.5" width="47" height="63"/>
  <object id="260" gid="38610" x="145.5" y="1268" width="47" height="63"/>
  <object id="261" gid="38656" x="36.5" y="1229" width="64" height="77"/>
  <object id="262" gid="38610" x="7" y="1245.5" width="47" height="63"/>
  <object id="263" gid="38604" x="77" y="1264" width="47" height="63"/>
  <object id="264" gid="38607" x="29.5" y="1306.5" width="64" height="77"/>
  <object id="265" gid="38604" x="-26" y="1301" width="47" height="63"/>
  <object id="266" gid="38603" x="105.5" y="1319" width="64" height="77"/>
  <object id="267" gid="38657" x="168.5" y="1308" width="47" height="63"/>
  <object id="268" gid="38650" x="207" y="1290.5" width="64" height="77"/>
  <object id="269" gid="38604" x="261" y="1311.5" width="47" height="63"/>
  <object id="270" gid="38604" x="511" y="1308" width="47" height="63"/>
  <object id="272" gid="38650" x="540.667" y="1307" width="64" height="77"/>
  <object id="273" gid="38610" x="591" y="1325.33" width="47" height="63"/>
  <object id="274" gid="38656" x="624" y="1308.33" width="64" height="77"/>
  <object id="275" gid="38605" x="674.667" y="1297" width="64" height="77"/>
  <object id="276" gid="38606" x="695" y="1334" width="47" height="63"/>
  <object id="277" gid="38657" x="100.333" y="760.667" width="47" height="63"/>
  <object id="278" gid="38605" x="1126" y="123.667" width="64" height="77"/>
  <object id="279" gid="38651" x="1167.67" y="162" width="47" height="63"/>
  <object id="280" gid="38656" x="1183.33" y="140.333" width="64" height="77"/>
  <object id="281" gid="38603" x="1130" y="199.667" width="64" height="77"/>
  <object id="282" gid="38650" x="1215.33" y="198.333" width="64" height="77"/>
  <object id="283" gid="38606" x="1189.67" y="224" width="47" height="63"/>
  <object id="284" gid="38607" x="1230" y="265" width="64" height="77"/>
  <object id="285" gid="38603" x="1188" y="295" width="64" height="77"/>
  <object id="286" gid="38657" x="1238.33" y="322.667" width="47" height="63"/>
  <object id="287" gid="38604" x="1219" y="357.333" width="47" height="63"/>
  <object id="288" gid="38605" x="1242" y="409" width="64" height="77"/>
  <object id="289" gid="38650" x="1209.33" y="454.333" width="64" height="77"/>
  <object id="290" gid="38657" x="1241" y="492.667" width="47" height="63"/>
  <object id="291" gid="38603" x="1190.67" y="512.333" width="64" height="77"/>
  <object id="292" gid="38605" x="1236" y="556.333" width="64" height="77"/>
  <object id="293" gid="38604" x="1235" y="593.333" width="47" height="63"/>
  <object id="294" gid="38607" x="1257.33" y="643" width="64" height="77"/>
  <object id="295" gid="38606" x="1243" y="674.667" width="47" height="63"/>
  <object id="296" gid="38603" x="1254.67" y="731.667" width="64" height="77"/>
  <object id="297" gid="38657" x="1245.67" y="764" width="47" height="63"/>
  <object id="298" gid="38650" x="1246.67" y="818.333" width="64" height="77"/>
  <object id="299" gid="38605" x="1263.33" y="883" width="64" height="77"/>
  <object id="300" gid="38604" x="1241.67" y="926" width="47" height="63"/>
  <object id="301" gid="38603" x="1219.33" y="967.667" width="64" height="77"/>
  <object id="302" gid="38657" x="1253" y="1004.67" width="47" height="63"/>
  <object id="303" gid="38650" x="1254" y="1053.67" width="64" height="77"/>
  <object id="304" gid="38604" x="1217" y="1024.67" width="47" height="63"/>
  <object id="305" gid="38605" x="1168.67" y="1059" width="64" height="77"/>
  <object id="306" gid="38603" x="1216" y="1088.33" width="64" height="77"/>
  <object id="307" gid="38657" x="1252.33" y="1102" width="47" height="63"/>
  <object id="308" gid="38603" x="1150.67" y="1113" width="64" height="77"/>
  <object id="309" gid="38604" x="1183" y="1145.33" width="47" height="63"/>
  <object id="310" gid="38607" x="1094.67" y="1137" width="64" height="77"/>
  <object id="311" gid="38606" x="1070.33" y="1158.67" width="47" height="63"/>
  <object id="312" gid="38650" x="1098.67" y="1197" width="64" height="77"/>
  <object id="313" gid="38610" x="1127.67" y="1163.33" width="47" height="63"/>
  <object id="314" gid="38657" x="1071.67" y="1228.67" width="47" height="63"/>
  <object id="315" gid="38603" x="1074" y="1273" width="64" height="77"/>
  <object id="316" gid="38651" x="1073.67" y="1318.67" width="47" height="63"/>
  <object id="317" gid="38605" x="1007.33" y="1315" width="64" height="77"/>
  <object id="318" gid="38657" x="1037.67" y="1284.67" width="47" height="63"/>
  <object id="319" gid="38644" x="875" y="969" width="27" height="46"/>
  <object id="321" gid="38644" x="978" y="1170" width="27" height="46"/>
  <object id="323" gid="38642" x="1287" y="1162" width="24" height="15"/>
  <object id="324" gid="38605" x="658.667" y="1063" width="64" height="77"/>
  <object id="325" gid="38606" x="693" y="1086" width="47" height="63"/>
  <object id="326" gid="38607" x="696.667" y="1051" width="64" height="77"/>
  <object id="327" gid="38607" x="652" y="1103.67" width="64" height="77"/>
  <object id="328" gid="38604" x="690.333" y="1113.33" width="47" height="63"/>
  <object id="329" gid="38604" x="762.333" y="992.667" width="47" height="63"/>
  <object id="331" gid="38607" x="593.5" y="1130" width="64" height="77"/>
  <object id="332" gid="38604" x="590" y="1171.5" width="47" height="63"/>
  <object id="334" gid="38426" x="121" y="656.5" width="30" height="29"/>
  <object id="335" gid="38427" x="172.5" y="487.5" width="27" height="27"/>
  <object id="336" gid="38426" x="309.5" y="511" width="30" height="29"/>
  <object id="337" gid="38425" x="385.5" y="479" width="15" height="30"/>
  <object id="338" gid="38431" x="228" y="718" width="11" height="13"/>
  <object id="339" gid="38429" x="289.5" y="635" width="14" height="14"/>
  <object id="340" gid="38428" x="176.5" y="591" width="28" height="14"/>
  <object id="341" gid="38429" x="419" y="410.5" width="14" height="14"/>
  <object id="352" gid="38605" x="747.5" y="1192.5" width="64" height="77"/>
  <object id="353" gid="38651" x="770" y="1264.5" width="47" height="63"/>
  <object id="354" gid="38594" x="745" y="1270.5" width="31" height="28"/>
  <object id="355" gid="38594" x="741.5" y="1185.5" width="31" height="28"/>
  <object id="356" gid="38594" x="104.5" y="753.5" width="31" height="28"/>
  <object id="358" gid="38592" x="60.5" y="210.5" width="28" height="15"/>
  <object id="378" gid="38607" x="500.5" y="619.5" width="64" height="77"/>
  <object id="379" gid="38593" x="553" y="606.5" width="32" height="23"/>
  <object id="380" gid="38590" x="648" y="546.5" width="31" height="28"/>
  <object id="381" gid="38592" x="625.5" y="536" width="28" height="15"/>
  <object id="382" gid="38594" x="580.5" y="496.5" width="31" height="28"/>
  <object id="383" gid="38604" x="580.5" y="542.5" width="47" height="63"/>
  <object id="384" gid="38650" x="475.5" y="545.5" width="64" height="77"/>
  <object id="386" gid="38592" x="514" y="614.5" width="28" height="15"/>
  <object id="387" gid="38594" x="647.5" y="592.5" width="31" height="28"/>
  <object id="388" gid="38590" x="435" y="531.5" width="31" height="28"/>
  <object id="389" gid="38591" x="443.5" y="1210" width="15" height="12"/>
  <object id="390" gid="38591" x="509" y="886.5" width="15" height="12"/>
  <object id="391" gid="38591" x="607" y="532" width="15" height="12"/>
  <object id="392" gid="38591" x="563.5" y="387.5" width="15" height="12"/>
  <object id="395" gid="38644" x="471" y="1299" width="27" height="46"/>
  <object id="398" gid="38645" x="1027" y="1232" width="27" height="29"/>
  <object id="399" gid="38590" x="196" y="1226" width="31" height="28"/>
  <object id="400" gid="38592" x="31" y="455" width="28" height="15"/>
  <object id="401" gid="38605" x="800.667" y="888.333" width="64" height="77"/>
  <object id="402" gid="38651" x="865" y="826" width="47" height="63"/>
  <object id="403" gid="38603" x="748.667" y="699.667" width="64" height="77"/>
  <object id="404" gid="38657" x="815.667" y="750" width="47" height="63"/>
  <object id="414" gid="38658" x="1076.5" y="945" width="26" height="27"/>
  <object id="458" gid="38605" x="1231.5" y="1138.5" width="64" height="77"/>
  <object id="459" gid="38604" x="1221" y="1185.5" width="47" height="63"/>
  <object id="460" gid="38607" x="1244" y="1234" width="64" height="77"/>
  <object id="461" gid="38606" x="1209.5" y="1246" width="47" height="63"/>
  <object id="462" gid="38605" x="1232" y="1294.5" width="64" height="77"/>
  <object id="463" gid="38605" x="1187" y="1319" width="64" height="77"/>
  <object id="464" gid="38604" x="1136" y="1302" width="47" height="63"/>
  <object id="465" gid="38607" x="1158.5" y="1265.5" width="64" height="77"/>
  <object id="466" gid="38604" x="1177" y="1213" width="47" height="63"/>
  <object id="467" gid="38605" x="1229.33" y="23.3333" width="64" height="77"/>
  <object id="468" gid="38605" x="1255.67" y="90.6667" width="64" height="77"/>
  <object id="470" gid="38606" x="1224" y="56.3333" width="47" height="63"/>
  <object id="471" gid="38607" x="1182.67" y="27" width="64" height="77"/>
  <object id="472" gid="38606" x="1153.67" y="18.6667" width="47" height="63"/>
  <object id="473" gid="38593" x="1166.33" y="33" width="32" height="23"/>
  <object id="474" gid="38594" x="1247.67" y="69.6667" width="31" height="28"/>
  <object id="475" gid="36286" x="148.5" y="204.5" width="173" height="144"/>
  <object id="476" gid="36272" x="644" y="181.5" width="134" height="128"/>
  <object id="477" gid="36276" x="1030" y="453.5" width="102" height="112"/>
  <object id="478" gid="36520" x="994.5" y="305" width="185" height="142"/>
  <object id="479" gid="36548" x="835" y="179.5" width="155" height="137"/>
  <object id="480" gid="36514" x="692.5" y="414" width="155" height="144"/>
  <object id="481" gid="36023" x="528.5" y="381.5" width="62" height="60"/>
  <object id="482" gid="36034" x="396" y="269" width="90" height="60"/>
  <object id="486" gid="37246" x="145.5" y="212.5" width="30" height="22"/>
  <object id="487" gid="37457" x="323.5" y="160" width="16" height="20"/>
  <object id="488" gid="37917" x="294" y="186" width="16" height="15"/>
  <object id="489" gid="37233" x="284.5" y="176.5" width="16" height="14"/>
  <object id="490" gid="37459" x="280.5" y="193" width="16" height="25"/>
  <object id="491" gid="37232" x="347.5" y="165" width="16" height="31"/>
  <object id="492" gid="37398" x="379" y="121.5" width="14" height="19"/>
  <object id="493" gid="37399" x="389.5" y="128" width="16" height="22"/>
  <object id="494" gid="37400" x="460.5" y="138" width="20" height="25"/>
  <object id="496" gid="37162" x="403.5" y="170" width="20" height="16"/>
  <object id="497" gid="37161" x="445.5" y="194.5" width="30" height="16"/>
  <object id="498" gid="37159" x="468.5" y="166" width="14" height="14"/>
  <object id="499" gid="37159" x="416" y="194" width="14" height="14"/>
  <object id="500" gid="37398" x="480.5" y="246" width="14" height="19"/>
  <object id="501" gid="37681" x="476.5" y="256.5" width="24" height="15"/>
  <object id="502" gid="37228" x="518.5" y="380" width="16" height="31"/>
  <object id="503" gid="37244" x="577.5" y="391.5" width="16" height="21"/>
  <object id="504" gid="37460" x="525" y="393.5" width="16" height="30"/>
  <object id="505" gid="37513" x="382" y="284.5" width="22" height="38"/>
  <object id="506" gid="37119" x="984" y="189.5" width="22" height="37"/>
  <object id="513" gid="37434" x="778.5" y="144.5" width="16" height="14"/>
  <object id="516" gid="37230" x="888.5" y="271.5" width="16" height="21"/>
  <object id="517" gid="37437" x="906" y="255.5" width="24" height="29"/>
  <object id="518" gid="37116" x="878.5" y="255" width="22" height="28"/>
  <object id="519" gid="36228" x="900" y="397.5" width="56" height="75"/>
  <object id="521" gid="37228" x="1035.5" y="446" width="16" height="31"/>
  <object id="525" gid="37214" x="1153.5" y="504" width="30" height="26"/>
  <object id="530" gid="37247" x="1012.5" y="268" width="16" height="31"/>
  <object id="532" gid="37913" x="1069" y="631" width="24" height="29"/>
  <object id="533" gid="37634" x="986.5" y="710" width="16" height="20"/>
  <object id="537" gid="37398" x="1065" y="698" width="14" height="19"/>
  <object id="547" gid="37851" x="1154.33" y="812" width="13" height="13"/>
  <object id="552" gid="36253" x="623.667" y="927" width="94" height="107"/>
  <object id="558" gid="37631" x="447.667" y="1202" width="30" height="26"/>
  <object id="562" gid="37228" x="150.333" y="757.667" width="16" height="31"/>
  <object id="568" gid="37851" x="71" y="372" width="13" height="13"/>
  <object id="570" gid="37115" x="81" y="221" width="22" height="28"/>
  <object id="577" gid="38426" x="599.5" y="1269.5" width="30" height="28"/>
  <object id="579" gid="37401" x="406.5" y="1210.5" width="24" height="31"/>
  <object id="580" gid="37398" x="368.5" y="1196" width="14" height="19"/>
  <object id="582" gid="38425" x="360" y="1061.5" width="15" height="29"/>
  <object id="586" gid="37400" x="381" y="776.5" width="20" height="25"/>
  <object id="589" gid="37851" x="533" y="891" width="13" height="13"/>
  <object id="594" gid="38429" x="578" y="1050" width="14" height="13"/>
  <object id="598" gid="37434" x="269" y="1034" width="16" height="14"/>
  <object id="609" gid="38427" x="499" y="676" width="27" height="27"/>
  <object id="617" gid="37225" x="749.792" y="429.167" width="22" height="26"/>
  <object id="619" gid="37116" x="739.625" y="414.5" width="22" height="28"/>
  <object id="757" gid="38060" x="1215.5" y="528.5" width="29" height="21"/>
  <object id="759" gid="38059" x="1118.33" y="886.333" width="29" height="21"/>
  <object id="760" gid="38062" x="1020.67" y="1043.33" width="23" height="20"/>
  <object id="761" gid="38059" x="453" y="1037.13" width="29" height="21"/>
  <object id="762" gid="38061" x="56.75" y="910" width="23" height="20"/>
  <object id="764" gid="37918" x="672" y="413.5" width="16" height="25"/>
  <object id="766" gid="37921" x="635.5" y="474" width="22" height="43"/>
  <object id="767" gid="37923" x="686.5" y="443" width="17" height="27"/>
  <object id="780" gid="38058" x="124" y="1025.67" width="12" height="26"/>
  <object id="782" gid="37851" x="157.333" y="1017.67" width="13" height="13"/>
  <object id="786" gid="37213" x="158.067" y="917.676" width="20" height="19"/>
  <object id="805" gid="38057" x="746.5" y="538.5" width="29" height="11"/>
  <object id="828" gid="38654" x="1155" y="459" width="31" height="28"/>
  <object id="830" gid="37233" x="650" y="187.5" width="16" height="14"/>
  <object id="831" gid="37915" x="271" y="207.5" width="14" height="21"/>
  <object id="832" gid="37633" x="540" y="97.5" width="26" height="20"/>
  <object id="833" gid="37229" x="611" y="99.5" width="16" height="21"/>
  <object id="834" gid="37905" x="833" y="335.5" width="30" height="32"/>
  <object id="835" gid="38054" x="141" y="893.5" width="16" height="22"/>
  <object id="836" gid="38052" x="502" y="923.5" width="14" height="14"/>
  <object id="837" gid="38055" x="344" y="953.5" width="20" height="25"/>
  <object id="838" gid="38053" x="326" y="769.5" width="14" height="19"/>
  <object id="853" gid="37161" x="548.455" y="483.818" width="30" height="16"/>
  <object id="854" gid="37163" x="571.091" y="517.273" width="20" height="16"/>
  <object id="855" gid="37159" x="527.182" y="512.273" width="14" height="14"/>
  <object id="856" gid="38511" x="86" y="13.5" width="27" height="26"/>
  <object id="857" gid="38519" x="205.5" y="10.5" width="24" height="23"/>
  <object id="858" gid="38426" x="391" y="9" width="29" height="28"/>
  <object id="859" gid="38523" x="802.5" y="49" width="24" height="46"/>
  <object id="860" gid="38511" x="1125.5" y="64" width="27" height="26"/>
  <object id="863" gid="38100" x="1156" y="312.5" width="12" height="14"/>
  <object id="864" gid="38510" x="72" y="202" width="29" height="28"/>
  <object id="865" gid="38096" x="1127" y="509" width="12" height="30"/>
  <object id="867" gid="38384" x="1159" y="551.5" width="44" height="26"/>
  <object id="868" gid="38508" x="1151" y="483" width="33" height="27"/>
  <object id="869" gid="38102" x="1148" y="591" width="28" height="19"/>
  <object id="870" gid="38091" x="1221" y="590" width="12" height="22"/>
  <object id="871" gid="38511" x="1173" y="669.5" width="27" height="26"/>
  <object id="872" gid="38097" x="1062.25" y="725.75" width="28" height="19"/>
  <object id="873" gid="38090" x="1048.75" y="730.25" width="12" height="14"/>
  <object id="874" gid="38099" x="1009.5" y="724.75" width="28" height="18"/>
  <object id="875" gid="38095" x="1087" y="689" width="12" height="14"/>
  <object id="876" gid="38091" x="1091.5" y="672.75" width="12" height="22"/>
  <object id="877" gid="38094" x="1068.25" y="652" width="28" height="16"/>
  <object id="878" gid="38092" x="1035.5" y="633" width="28" height="19"/>
  <object id="879" gid="38096" x="999" y="687" width="12" height="30"/>
  <object id="880" gid="38103" x="1005.5" y="653.5" width="18" height="20"/>
  <object id="881" gid="38200" x="1028.25" y="680.25" width="16" height="26"/>
  <object id="882" gid="38201" x="1005.75" y="786.5" width="24" height="14"/>
  <object id="883" gid="38384" x="1088.33" y="1008" width="44" height="26"/>
  <object id="884" gid="38201" x="1013.33" y="977" width="24" height="14"/>
  <object id="885" gid="38200" x="966.333" y="910.333" width="16" height="26"/>
  <object id="886" gid="38508" x="728" y="1231" width="33" height="27"/>
  <object id="887" gid="38515" x="756.333" y="1197" width="11" height="12"/>
  <object id="888" gid="38521" x="775.333" y="1207" width="15" height="12"/>
  <object id="889" gid="38511" x="749.667" y="1255.67" width="27" height="26"/>
  <object id="890" gid="38510" x="764" y="1238.67" width="29" height="28"/>
  <object id="891" gid="38384" x="563" y="1201.33" width="44" height="26"/>
  <object id="892" gid="38384" x="536.667" y="1035.67" width="44" height="26"/>
  <object id="893" gid="38362" x="159.667" y="866.333" width="26" height="31"/>
  <object id="894" gid="38200" x="182" y="881" width="16" height="26"/>
  <object id="895" gid="38198" x="221.667" y="903.333" width="19" height="54"/>
  <object id="896" gid="38519" x="231" y="912" width="24" height="23"/>
  <object id="897" gid="38118" x="191.333" y="936" width="18" height="21"/>
  <object id="898" gid="38202" x="244" y="1024" width="30" height="45"/>
  <object id="902" gid="38508" x="320.333" y="1170.67" width="33" height="27"/>
  <object id="903" gid="38118" x="391.667" y="1200.33" width="18" height="21"/>
  <object id="904" gid="38104" x="215" y="1074.33" width="28" height="18"/>
  <object id="905" gid="38511" x="160" y="1182.33" width="27" height="26"/>
  <object id="906" gid="38199" x="487.333" y="1039.67" width="21" height="54"/>
  <object id="907" gid="38115" x="539.667" y="1059.33" width="18" height="29"/>
  <object id="908" gid="38201" x="565.667" y="1044" width="24" height="14"/>
  <object id="909" gid="38118" x="567.333" y="1074" width="18" height="21"/>
  <object id="914" gid="38513" x="344.667" y="720.667" width="14" height="13"/>
  <object id="915" gid="38097" x="364" y="716.333" width="28" height="19"/>
  <object id="916" gid="38141" x="359.333" y="760" width="26" height="42"/>
  <object id="917" gid="38361" x="403.667" y="849" width="26" height="31"/>
  <object id="918" gid="38383" x="432" y="925" width="77" height="61"/>
  <object id="919" gid="38118" x="468.667" y="925.667" width="18" height="21"/>
  <object id="920" gid="38090" x="534.667" y="919.333" width="12" height="14"/>
  <object id="921" gid="38198" x="363" y="956.667" width="19" height="54"/>
  <object id="922" gid="38512" x="355.667" y="893" width="28" height="13"/>
  <object id="923" gid="38117" x="223" y="829" width="18" height="29"/>
  <object id="926" gid="38194" x="389.667" y="927.667" width="58" height="77"/>
  <object id="927" gid="37914" x="233" y="892" width="24" height="29"/>
  <object id="928" gid="38144" x="589.5" y="932" width="30" height="62"/>
  <object id="929" gid="38233" x="794.5" y="1023" width="18" height="23"/>
  <object id="930" gid="38385" x="112" y="1043" width="11" height="38"/>
  <object id="931" gid="38120" x="139.5" y="1041.5" width="28" height="21"/>
  <object id="932" gid="38374" x="172.5" y="1044.5" width="12" height="29"/>
  <object id="933" gid="38150" x="133" y="1020" width="9" height="14"/>
  <object id="934" gid="38513" x="80" y="949" width="14" height="13"/>
  <object id="935" gid="38364" x="1130.5" y="709.5" width="12" height="31"/>
  <object id="936" gid="38142" x="996" y="203" width="28" height="22"/>
  <object id="937" gid="38144" x="896" y="259" width="30" height="62"/>
  <object id="938" gid="38143" x="998" y="401.5" width="30" height="62"/>
  <object id="939" gid="38403" x="1125" y="357.5" width="28" height="32"/>
  <object id="940" gid="38105" x="985" y="453.5" width="44" height="42"/>
  <object id="941" gid="38400" x="991.5" y="509" width="30" height="23"/>
  <object id="942" gid="38401" x="1018.5" y="525.5" width="43" height="23"/>
  <object id="943" gid="38397" x="1082" y="509.5" width="9" height="12"/>
  <object id="944" gid="38396" x="1103" y="507" width="14" height="14"/>
  <object id="945" gid="38398" x="1090" y="496.5" width="27" height="22"/>
  <object id="946" gid="38391" x="1087" y="485.5" width="56" height="46"/>
  <object id="947" gid="38201" x="797" y="541" width="24" height="14"/>
  <object id="948" gid="38200" x="774.5" y="528.5" width="16" height="26"/>
  <object id="949" gid="38365" x="820" y="424" width="35" height="44"/>
  <object id="950" gid="38364" x="710" y="420.5" width="12" height="31"/>
  <object id="951" gid="38145" x="804.5" y="185" width="46" height="62"/>
  <object id="952" gid="38064" x="858" y="177" width="24" height="19"/>
  <object id="953" gid="38113" x="761.5" y="189.5" width="25" height="27"/>
  <object id="954" gid="38088" x="779.5" y="167" width="16" height="29"/>
  <object id="955" gid="38508" x="557.5" y="78" width="33" height="27"/>
  <object id="956" gid="38198" x="178.5" y="324.5" width="19" height="54"/>
  <object id="957" gid="38146" x="327" y="264.5" width="46" height="78"/>
  <object id="958" gid="38271" x="320" y="349" width="74" height="60"/>
  <object id="959" gid="38210" x="459.5" y="280.5" width="16" height="21"/>
  <object id="960" gid="38213" x="467" y="273.5" width="20" height="20"/>
  <object id="961" gid="38112" x="513" y="359" width="13" height="29"/>
  <object id="962" gid="38121" x="544" y="506.5" width="30" height="54"/>
  <object id="963" gid="38102" x="645.5" y="572.5" width="28" height="19"/>
  <object id="964" gid="38099" x="545.5" y="622.5" width="28" height="18"/>
  <object id="965" gid="38094" x="497.5" y="541" width="28" height="16"/>
  <object id="966" gid="38090" x="490.5" y="529" width="12" height="14"/>
  <object id="967" gid="38370" x="455" y="526.5" width="30" height="15"/>
  <object id="968" gid="38510" x="593.5" y="617" width="29" height="28"/>
  <object id="969" gid="38294" x="417.5" y="184" width="56" height="40"/>
  <object id="970" gid="38528" x="547.5" y="704.5" width="16" height="14"/>
  <object id="971" gid="38523" x="629" y="681" width="24" height="46"/>
  <object id="972" gid="38524" x="577" y="753" width="48" height="79"/>
  <object id="974" gid="38508" x="621" y="802" width="33" height="27"/>
  <object id="975" gid="38511" x="533" y="782" width="27" height="26"/>
  <object id="976" gid="38519" x="31.3333" y="444" width="24" height="23"/>
  <object id="977" gid="38510" x="32" y="647.333" width="29" height="28"/>
  <object id="978" gid="38514" x="87.6667" y="608.667" width="14" height="11"/>
  <object id="979" gid="38199" x="140" y="729" width="21" height="54"/>
  <object id="980" gid="38519" x="388.667" y="382" width="24" height="23"/>
  <object id="981" gid="38233" x="312.333" y="384" width="18" height="23"/>
  <object id="982" gid="38510" x="176" y="437.333" width="29" height="28"/>
  <object id="983" gid="38155" x="261" y="563" width="22" height="17"/>
  <object id="984" gid="38156" x="236.667" y="599.333" width="16" height="20"/>
  <object id="985" gid="38676" x="614.5" y="765.5" width="26" height="32"/>
  <object id="986" gid="38643" x="485" y="746.5" width="29" height="29"/>
  <object id="987" gid="38669" x="658" y="663" width="29" height="28"/>
  <object id="988" gid="38671" x="546.5" y="695.5" width="31" height="47"/>
  <object id="989" gid="38645" x="331.5" y="863.5" width="26" height="28"/>
  <object id="990" gid="38664" x="95" y="493.5" width="45" height="47"/>
  <object id="991" gid="38666" x="443" y="599" width="16" height="29"/>
  <object id="992" gid="38659" x="122" y="604.5" width="29" height="31"/>
  <object id="997" gid="38674" x="314.5" y="451" width="13" height="19"/>
  <object id="998" gid="38658" x="834.5" y="805" width="26" height="24"/>
  <object id="999" gid="38665" x="1049" y="564.5" width="16" height="29"/>
  <object id="1000" gid="38671" x="1138.5" y="682.5" width="31" height="47"/>
  <object id="1001" gid="38676" x="1061" y="769" width="26" height="32"/>
  <object id="1002" gid="38671" x="1129.5" y="934" width="31" height="47"/>
  <object id="1003" gid="38669" x="972.5" y="1047.5" width="29" height="28"/>
  <object id="1004" gid="38675" x="975" y="681.5" width="15" height="12"/>
  <object id="1006" gid="38669" x="776" y="1279" width="29" height="28"/>
  <object id="1007" gid="38658" x="329.5" y="1179" width="26" height="24"/>
  <object id="1008" gid="38667" x="231" y="1095" width="15" height="14"/>
  <object id="1010" gid="38671" x="77.5" y="1007" width="31" height="47"/>
  <object id="1011" gid="38665" x="-1" y="72.5" width="16" height="29"/>
  <object id="1013" gid="38658" x="511" y="9.5" width="26" height="24"/>
  <object id="1015" gid="38671" x="396" y="76" width="31" height="47"/>
  <object id="1016" gid="38643" x="462.5" y="94.5" width="29" height="29"/>
  <object id="1017" gid="38645" x="606.5" y="73" width="26" height="28"/>
  <object id="1018" gid="38642" x="574.5" y="114" width="23" height="14"/>
  <object id="1019" gid="38663" x="860" y="42.5" width="45" height="43"/>
  <object id="1020" gid="38658" x="1186" y="318.5" width="26" height="24"/>
  <object id="1021" gid="38669" x="1204.5" y="574" width="29" height="28"/>
  <object id="1022" gid="38642" x="916" y="1189" width="23" height="14"/>
  <object id="1023" gid="38642" x="187.25" y="1009" width="23" height="14"/>
  <object id="1024" gid="38642" x="449.667" y="715" width="23" height="14"/>
 </objectgroup>
 <layer id="48" name="Fence" width="80" height="80">
  <data encoding="csv">
0,0,0,0,0,0,0,0,0,0,0,0,0,0,0,0,0,0,0,0,0,0,0,0,0,0,0,0,0,0,0,0,0,0,0,0,0,0,0,0,0,0,0,0,0,0,0,0,0,0,0,0,0,0,0,0,0,0,0,0,0,0,0,0,0,0,0,0,0,0,0,0,0,0,0,0,0,0,0,0,
0,0,0,0,0,0,0,0,0,0,0,0,0,0,0,0,0,0,0,0,0,0,0,0,0,0,0,0,0,0,0,0,0,0,0,0,0,0,0,0,0,0,0,0,0,0,0,0,0,0,0,0,0,0,0,0,0,0,0,0,0,0,0,0,0,0,0,0,0,0,0,0,0,0,0,0,0,0,0,0,
0,0,0,0,0,0,0,0,0,0,0,0,0,0,0,0,0,0,0,0,0,0,0,0,0,0,0,0,0,0,0,0,0,0,0,0,0,0,0,0,0,0,0,0,0,0,0,0,0,0,0,0,0,0,0,0,0,0,0,0,0,0,0,0,0,0,0,0,0,0,0,0,0,0,0,0,0,0,0,0,
0,0,0,0,0,0,0,0,0,0,0,0,0,0,0,0,0,0,0,0,0,0,0,0,0,0,0,0,0,0,0,0,0,0,0,0,0,0,0,0,0,0,0,0,0,0,0,0,0,0,0,0,0,0,0,0,0,0,0,0,0,0,0,0,0,0,0,0,0,0,0,0,0,0,0,0,0,0,0,0,
0,0,0,0,0,0,0,0,0,0,0,0,0,0,0,0,0,0,0,0,0,0,0,0,0,0,0,0,0,0,0,0,0,0,0,0,0,0,0,0,0,0,0,0,0,0,0,0,0,0,0,0,0,0,0,0,0,0,0,0,0,0,0,0,0,0,0,0,0,0,0,0,0,0,0,0,0,0,0,0,
0,0,0,0,0,0,0,0,0,0,0,0,0,0,0,0,0,0,0,0,0,0,0,0,0,0,0,0,0,0,0,0,0,0,0,0,0,0,0,0,0,0,0,0,0,0,0,0,0,0,0,0,0,0,0,0,0,0,0,0,0,0,0,0,0,0,0,0,0,0,0,0,0,0,0,0,0,0,0,0,
0,0,0,0,0,0,0,0,0,0,0,0,0,0,0,0,0,0,0,0,0,0,0,0,0,0,0,0,0,0,0,0,0,0,0,0,0,0,0,0,0,0,0,0,0,0,0,0,0,0,0,0,0,0,0,0,0,0,0,0,0,0,0,0,0,0,0,0,0,0,0,0,0,0,0,0,0,0,0,0,
0,0,0,0,0,0,0,0,0,0,0,0,0,0,0,0,0,0,0,0,0,0,0,0,0,0,0,0,0,0,0,0,0,0,0,0,0,0,0,0,0,0,0,0,0,0,0,0,0,0,0,0,0,0,0,0,0,0,0,0,0,0,0,0,0,0,0,0,0,0,0,0,0,0,0,0,0,0,0,0,
0,0,0,0,0,0,0,0,0,0,0,0,0,0,0,0,0,0,0,0,0,0,0,0,0,0,0,0,0,0,0,0,0,0,0,0,0,0,0,0,0,0,0,0,0,0,0,0,0,0,0,0,0,0,0,0,0,0,0,0,0,0,0,0,0,0,0,0,0,0,0,0,0,0,0,0,0,0,0,0,
0,0,0,0,0,0,0,0,0,0,0,0,0,0,0,0,0,0,0,0,0,0,0,0,0,0,0,0,0,0,0,0,0,0,0,0,0,0,0,0,0,0,0,0,0,0,0,0,0,0,0,0,0,0,0,0,0,0,0,0,0,0,0,0,0,0,0,0,0,0,0,0,0,0,0,0,0,0,0,0,
0,0,0,0,0,0,0,0,0,0,0,0,0,0,0,0,0,0,0,0,0,0,0,0,0,0,0,0,0,0,0,0,0,0,0,0,0,0,0,0,0,0,0,0,0,0,0,0,0,0,0,0,0,0,0,0,0,0,0,0,0,0,0,0,0,0,0,0,0,0,0,0,0,0,0,0,0,0,0,0,
0,0,0,0,0,0,0,0,0,0,0,0,0,0,0,0,0,0,0,0,0,0,0,0,0,0,0,0,0,0,0,0,0,0,0,0,0,0,0,0,0,0,0,0,0,0,0,0,0,0,0,0,0,0,0,0,0,0,0,0,0,0,0,0,0,0,0,0,0,0,0,0,0,0,0,0,0,0,0,0,
0,0,0,0,0,0,0,0,0,0,0,0,0,0,0,0,0,0,0,0,0,0,0,0,0,0,0,0,0,0,0,0,0,0,0,0,0,0,0,0,0,0,0,0,0,0,0,0,0,0,0,0,0,0,0,0,0,0,0,0,0,0,0,0,0,0,0,0,0,0,0,0,0,0,0,0,0,0,0,0,
0,0,0,0,0,0,0,0,0,0,0,0,0,0,0,0,0,0,0,0,0,0,0,0,0,0,0,0,0,0,0,0,0,0,0,0,0,0,0,0,0,0,0,0,0,0,0,0,0,0,0,0,0,0,0,0,0,0,0,0,0,0,0,0,0,0,0,0,0,0,0,0,0,0,0,0,0,0,0,0,
0,0,0,0,0,0,0,0,0,0,0,0,0,0,0,0,0,0,0,0,0,0,0,0,0,0,0,0,0,0,0,0,0,0,0,0,0,0,0,0,0,0,0,0,0,0,0,0,0,0,0,0,0,0,0,0,0,0,0,0,0,0,0,0,0,0,0,0,0,0,0,0,0,0,0,0,0,0,0,0,
0,0,0,0,0,0,0,0,0,0,0,0,0,0,0,0,0,0,0,0,0,0,0,0,0,0,0,0,0,0,0,0,0,0,0,0,0,0,0,0,0,0,0,0,0,0,0,0,0,0,0,0,0,0,0,0,0,0,0,0,0,0,0,0,0,0,0,0,0,0,0,0,0,0,0,0,0,0,0,0,
0,0,0,0,0,0,0,0,0,0,0,0,0,0,0,0,0,0,0,0,0,0,0,0,0,0,0,0,0,0,0,0,0,0,0,0,0,0,0,0,0,0,0,0,0,0,0,0,0,0,0,0,0,0,0,0,0,0,0,0,0,0,0,0,0,0,0,0,0,0,0,0,0,0,0,0,0,0,0,0,
0,0,0,0,0,0,0,0,0,0,0,0,0,0,0,0,0,0,0,0,0,0,0,0,0,0,0,0,0,0,0,0,0,0,0,0,0,0,0,0,0,0,0,0,0,0,0,0,0,0,0,0,0,0,0,0,0,0,0,0,0,0,0,0,0,0,0,0,0,0,0,0,0,0,0,0,0,0,0,0,
0,0,0,0,0,0,0,0,0,0,0,0,0,0,0,0,0,0,0,0,0,0,0,0,0,0,0,0,0,0,0,0,0,0,0,0,0,0,0,0,0,0,0,0,0,0,0,0,0,0,0,0,0,0,0,0,0,0,0,0,0,0,0,0,0,0,0,0,0,0,0,0,0,0,0,0,0,0,0,0,
0,0,0,0,0,0,0,0,0,0,0,0,0,0,0,0,0,0,0,0,0,0,0,0,0,0,0,0,0,0,0,0,0,0,0,0,0,0,0,0,0,0,0,0,0,0,0,0,0,0,0,0,0,0,0,0,0,0,0,0,0,0,0,0,0,0,0,0,0,0,0,0,0,0,0,0,0,0,0,0,
0,0,0,0,0,0,0,0,0,0,0,0,0,0,0,0,0,0,0,0,0,0,0,0,0,0,0,0,0,0,0,0,0,0,0,0,0,0,0,0,0,0,0,0,0,0,0,0,0,0,0,0,0,0,0,0,0,0,0,0,0,0,0,0,0,0,0,0,0,0,0,0,0,0,0,0,0,0,0,0,
0,0,0,0,0,0,0,0,0,0,0,0,0,0,0,0,0,0,0,0,0,0,0,0,0,0,0,0,0,0,0,0,0,0,0,0,0,0,0,0,1,2,19,8,8,8,8,8,8,0,0,0,0,0,0,0,0,0,0,0,0,0,0,0,0,0,0,0,0,0,0,0,0,0,0,0,0,0,0,0,
0,0,0,0,0,0,0,0,0,0,0,0,0,0,0,0,0,0,0,0,0,0,0,0,0,0,0,0,0,0,0,0,0,0,0,0,0,0,0,1,11,8,8,8,8,8,8,8,8,0,0,0,0,0,0,0,0,0,0,0,0,0,0,0,0,0,0,0,0,0,0,0,0,0,0,0,0,0,0,0,
0,0,0,0,0,0,0,0,0,0,0,0,0,0,0,0,0,0,0,0,0,0,0,0,0,0,0,0,0,0,0,0,0,0,0,0,0,0,0,7,8,8,8,8,8,8,8,8,8,0,0,0,0,0,0,0,0,0,0,0,0,0,0,0,0,0,0,0,0,0,0,0,0,0,0,0,0,0,0,0,
0,0,0,0,0,0,0,0,0,0,0,0,0,0,0,0,0,0,0,0,0,0,0,0,0,0,0,0,0,0,0,0,0,0,0,0,0,0,0,7,8,8,8,8,8,8,8,8,8,0,0,0,0,0,0,0,0,0,0,0,0,0,0,0,0,0,0,0,0,0,0,0,0,0,0,0,0,0,0,0,
0,0,0,0,0,0,0,0,0,0,0,0,0,0,0,0,0,0,0,0,0,0,0,0,0,0,0,0,0,0,0,0,0,0,0,0,0,0,0,7,8,8,8,8,8,8,8,8,8,0,0,0,0,0,0,0,0,0,0,0,0,0,0,0,0,0,0,0,0,0,0,0,0,0,0,0,0,0,0,0,
0,0,0,0,0,0,0,0,0,0,0,0,0,0,0,0,0,0,0,0,0,0,0,0,0,0,0,0,0,0,0,0,0,0,0,0,0,0,0,7,8,8,8,8,8,8,8,8,8,0,0,0,0,0,0,0,0,0,0,0,0,0,0,0,0,0,0,0,0,0,0,0,0,0,0,0,0,0,0,0,
0,0,0,0,0,0,0,0,0,0,0,0,0,0,0,0,0,0,0,0,0,0,0,0,0,0,0,0,0,0,0,0,0,0,0,0,0,0,0,7,8,8,8,8,8,8,8,0,0,0,0,0,0,0,0,0,0,0,0,0,0,0,0,0,0,0,0,0,0,0,0,0,0,0,0,0,0,0,0,0,
0,0,0,0,0,0,0,0,0,0,0,0,0,0,0,0,0,0,0,0,0,0,0,0,0,0,0,0,0,0,0,0,0,0,0,0,0,0,0,7,8,8,8,8,8,8,23,0,0,0,0,0,0,0,0,0,0,0,0,0,0,0,0,0,0,0,0,0,0,0,0,0,0,0,0,0,0,0,0,0,
0,0,0,0,0,0,0,0,0,0,0,0,0,0,0,0,0,0,0,0,0,0,0,0,0,0,0,0,0,0,0,0,0,0,0,0,0,0,0,7,8,8,8,8,8,8,9,0,0,0,0,0,0,0,0,0,0,0,0,0,0,0,0,0,0,0,0,0,0,0,0,0,0,0,0,0,0,0,0,0,
0,0,0,0,0,0,0,0,0,0,0,0,0,0,0,0,0,0,0,0,0,0,0,0,0,0,0,0,0,0,0,0,0,0,0,0,0,0,0,13,5,8,8,8,8,4,15,0,0,0,0,0,0,0,0,0,0,0,0,0,0,0,0,0,0,0,0,0,0,0,0,0,0,0,0,0,0,0,0,0,
0,0,0,0,0,0,0,0,0,0,0,0,0,0,0,0,0,0,0,0,0,0,0,0,0,0,0,0,0,0,0,0,0,0,0,0,0,0,0,0,13,14,14,14,14,15,0,0,0,0,0,0,0,0,0,0,0,0,0,0,0,0,0,0,0,0,0,0,0,0,0,0,0,0,0,0,0,0,0,0,
0,0,0,0,0,0,0,0,0,0,0,0,0,0,0,0,0,0,0,0,0,0,0,0,0,0,0,0,0,0,0,0,0,0,0,0,0,0,0,0,0,0,0,0,0,0,0,0,0,0,0,0,0,0,0,0,0,0,0,0,0,0,0,0,0,0,0,0,0,0,0,0,0,0,0,0,0,0,0,0,
0,0,0,0,0,0,0,0,0,0,0,0,0,0,0,0,0,0,0,0,0,0,0,0,0,0,0,0,0,0,0,0,0,0,0,0,0,0,0,0,0,0,0,0,0,0,0,0,0,0,0,0,0,0,0,0,0,0,0,0,0,0,0,0,0,0,0,0,0,0,0,0,0,0,0,0,0,0,0,0,
0,0,0,0,0,0,0,0,0,0,0,0,0,0,0,0,0,0,0,0,0,0,0,0,0,0,0,0,0,0,0,0,0,0,0,0,0,0,0,0,0,0,0,0,0,0,0,0,0,0,0,0,0,0,0,0,0,0,0,0,0,0,0,0,0,0,0,0,0,0,0,0,0,0,0,0,0,0,0,0,
0,0,0,0,0,0,0,0,0,0,0,0,0,0,0,0,0,0,0,0,0,0,0,0,0,0,0,0,0,0,0,0,0,0,0,0,0,0,0,0,0,0,0,0,0,0,0,0,0,0,0,0,0,0,0,0,0,0,0,0,0,0,0,0,0,0,0,0,0,0,0,0,0,0,0,0,0,0,0,0,
0,0,0,0,0,0,0,0,0,0,0,0,0,0,0,0,0,0,0,0,0,0,0,0,0,0,0,0,0,0,0,0,0,0,0,0,0,0,0,0,0,0,0,0,0,0,0,0,0,0,0,0,0,0,0,0,0,0,0,0,0,0,0,0,0,0,0,0,0,0,0,0,0,0,0,0,0,0,0,0,
0,0,0,0,0,0,0,0,0,0,0,0,0,0,0,0,0,0,0,0,0,0,0,0,0,0,0,0,0,0,0,0,0,0,0,0,0,0,0,0,0,0,0,0,0,0,0,0,0,0,0,0,0,0,0,0,0,0,0,0,0,0,0,0,0,0,0,0,0,0,0,0,0,0,0,0,0,0,0,0,
0,0,0,0,0,0,0,0,0,0,0,0,0,0,0,0,0,0,0,0,0,0,0,0,0,0,0,0,0,0,0,0,0,0,0,0,0,0,0,0,0,0,0,0,0,0,0,0,0,0,0,0,0,0,0,0,0,0,0,0,0,0,0,0,0,0,0,0,0,0,0,0,0,0,0,0,0,0,0,0,
0,0,0,0,0,0,0,0,0,0,0,0,0,0,0,0,0,0,0,0,0,0,0,0,0,0,0,0,0,0,0,0,0,0,0,0,0,0,0,0,0,0,0,0,0,0,0,0,0,0,0,0,0,0,0,0,0,0,0,0,0,0,0,0,0,0,0,0,0,0,0,0,0,0,0,0,0,0,0,0,
0,0,0,0,0,0,0,0,0,0,0,0,0,0,0,0,0,0,0,0,0,0,0,0,0,0,0,0,0,0,0,0,0,0,0,0,0,0,0,0,0,0,0,0,0,0,0,0,0,0,0,0,0,0,0,0,0,0,0,0,0,0,0,0,0,0,0,0,0,0,0,0,0,0,0,0,0,0,0,0,
0,0,0,0,0,0,0,0,0,0,0,0,0,0,0,0,0,0,0,0,0,0,0,0,0,0,0,0,0,0,0,0,0,0,0,0,0,0,0,0,0,0,0,0,0,0,0,0,0,0,0,0,0,0,0,0,0,0,0,0,0,0,0,0,0,0,0,0,0,0,0,0,0,0,0,0,0,0,0,0,
0,0,0,0,0,0,0,0,0,0,0,0,0,0,0,0,0,0,0,0,0,0,0,0,0,0,0,0,0,0,0,0,0,0,0,0,0,0,0,0,0,0,0,0,0,0,0,0,0,0,0,0,0,0,0,0,0,0,0,0,0,0,0,0,0,0,0,0,0,0,0,0,0,0,0,0,0,0,0,0,
0,0,0,0,0,0,0,0,0,0,0,0,0,0,0,0,0,0,0,0,0,0,0,0,0,0,0,0,0,0,0,0,0,0,0,0,0,0,0,0,0,0,0,0,0,0,0,0,0,0,0,0,0,0,0,0,0,0,0,0,0,0,0,0,0,0,0,0,0,0,0,0,0,0,0,0,0,0,0,0,
0,0,0,0,0,0,0,0,0,0,0,0,0,0,0,0,0,0,0,0,0,0,0,0,0,0,0,0,0,0,0,0,0,0,0,0,0,0,0,0,0,0,0,0,0,0,0,0,0,0,0,0,0,0,0,0,0,0,0,0,0,0,0,0,0,0,0,0,0,0,0,0,0,0,0,0,0,0,0,0,
0,0,0,0,0,0,0,0,0,0,0,0,0,0,0,0,0,0,0,0,0,0,0,0,0,0,0,0,0,0,0,0,0,0,0,0,0,0,0,0,0,0,0,0,0,0,0,0,0,0,0,0,0,0,0,0,0,0,0,0,0,0,0,0,0,0,0,0,0,0,0,0,0,0,0,0,0,0,0,0,
0,0,0,0,0,0,0,0,0,0,0,0,0,0,0,0,0,0,0,0,0,0,0,0,0,0,0,0,0,0,0,0,0,0,0,0,0,0,0,0,0,0,0,0,0,0,0,0,0,0,0,0,0,0,0,0,0,0,0,0,0,0,0,0,0,0,0,0,0,0,0,0,0,0,0,0,0,0,0,0,
0,0,0,0,0,0,0,0,0,0,0,0,0,0,0,0,0,0,0,0,0,0,0,0,0,0,0,0,0,0,0,0,0,0,0,0,0,0,0,0,0,0,0,0,0,0,0,0,0,0,0,0,0,0,0,0,0,0,0,0,0,0,0,0,0,0,0,0,0,0,0,0,0,0,0,0,0,0,0,0,
0,0,0,0,0,0,0,0,0,0,0,0,0,0,0,0,0,0,0,0,0,0,0,0,0,0,0,0,0,0,0,0,0,0,0,0,0,0,0,0,0,0,0,0,0,0,0,0,0,0,0,0,0,0,0,0,0,0,0,0,0,0,0,0,0,0,0,0,0,0,0,0,0,0,0,0,0,0,0,0,
0,0,0,0,0,0,0,0,0,0,0,0,0,0,0,0,0,0,0,0,0,0,0,0,0,0,0,0,0,0,0,0,0,0,0,0,0,0,0,0,0,0,0,0,0,0,0,0,0,0,0,0,0,0,0,0,0,0,0,0,0,0,0,0,0,0,0,0,0,0,0,0,0,0,0,0,0,0,0,0,
0,0,0,0,0,0,0,0,0,0,0,0,0,0,0,0,0,0,0,0,0,0,0,0,0,0,0,0,0,0,0,0,0,0,0,0,0,0,0,0,0,0,0,0,0,0,0,0,0,0,0,0,0,0,0,0,0,0,0,0,0,0,0,0,0,0,0,0,0,0,0,0,0,0,0,0,0,0,0,0,
0,0,0,0,0,0,0,0,0,0,0,0,0,0,0,0,0,0,0,0,0,0,0,0,0,0,0,0,0,0,0,0,0,0,0,0,0,0,0,0,0,0,0,0,0,0,0,0,0,0,0,0,0,0,0,0,0,0,0,0,0,0,0,0,0,0,0,0,0,0,0,0,0,0,0,0,0,0,0,0,
0,0,0,0,0,0,0,0,0,0,0,0,0,0,0,0,0,0,0,0,0,0,0,0,0,0,0,0,0,0,0,0,0,0,0,0,0,0,0,0,0,0,0,0,0,0,0,0,0,0,0,0,0,0,0,0,0,0,0,0,0,0,0,0,0,0,0,0,0,0,0,0,0,0,0,0,0,0,0,0,
0,0,0,0,0,0,0,0,0,0,0,0,0,0,0,0,0,0,0,0,0,0,0,0,0,0,0,0,0,0,0,0,0,0,0,0,0,0,0,0,0,0,0,0,0,0,0,0,0,0,0,0,0,0,0,0,0,0,0,0,0,0,0,0,0,0,0,0,0,0,0,0,0,0,0,0,0,0,0,0,
0,0,0,0,0,0,0,0,0,0,0,0,0,0,0,0,0,0,0,0,0,0,0,0,0,0,0,0,0,0,0,0,0,0,0,0,0,0,0,0,0,0,0,0,0,0,0,0,0,0,0,0,0,0,0,0,0,0,0,0,0,0,0,0,0,0,0,0,0,0,0,0,0,0,0,0,0,0,0,0,
0,0,0,0,0,0,0,0,0,0,0,0,0,0,0,0,0,0,0,0,0,0,0,0,0,0,0,0,0,0,0,0,0,0,0,0,0,0,0,0,0,0,0,0,0,0,0,0,0,0,0,0,0,0,0,0,0,0,0,0,0,0,0,0,0,0,0,0,0,0,0,0,0,0,0,0,0,0,0,0,
0,0,0,0,0,0,0,0,0,0,0,0,0,0,0,0,0,0,0,0,0,0,0,0,0,0,0,0,0,0,0,0,0,0,0,0,0,0,0,0,0,0,0,0,0,0,0,0,0,0,0,0,0,0,0,0,0,0,0,0,0,0,0,0,0,0,0,0,0,0,0,0,0,0,0,0,0,0,0,0,
0,0,0,0,0,0,0,0,0,0,0,0,0,0,0,0,0,0,0,0,0,0,0,0,0,0,0,0,0,0,0,0,0,0,0,0,0,0,0,0,0,0,0,0,0,0,0,0,0,0,0,0,0,0,0,0,0,0,0,0,0,0,0,0,0,0,0,0,0,0,0,0,0,0,0,0,0,0,0,0,
0,0,0,0,0,0,0,0,0,0,0,0,0,0,0,0,0,0,0,0,0,0,0,0,0,0,0,0,0,0,0,0,0,0,0,0,0,0,0,0,0,0,0,0,0,0,0,0,0,0,0,0,0,0,0,0,0,0,0,0,0,0,0,0,0,0,0,0,0,0,0,0,0,0,0,0,0,0,0,0,
0,0,0,0,0,0,0,0,0,0,0,0,0,0,0,0,0,0,0,0,0,0,0,0,0,0,0,0,0,0,0,0,0,0,0,0,0,0,0,0,0,0,0,0,0,0,0,0,0,0,0,0,0,0,0,0,0,0,0,0,0,0,0,0,0,0,0,0,0,0,0,0,0,0,0,0,0,0,0,0,
0,0,0,0,0,0,0,0,0,0,0,0,0,0,0,0,0,0,0,0,0,0,0,0,0,0,0,0,0,0,0,0,0,0,0,0,0,0,0,0,0,0,0,0,0,0,0,0,0,0,0,0,0,0,0,0,0,0,0,0,0,0,0,0,0,0,0,0,0,0,0,0,0,0,0,0,0,0,0,0,
0,0,0,0,0,0,0,0,0,0,0,0,0,0,0,0,0,0,0,0,0,0,0,0,0,0,0,0,0,0,0,0,0,0,0,0,0,0,0,0,0,0,0,0,0,0,0,0,0,0,0,0,0,0,0,0,0,0,0,0,0,0,0,0,0,0,0,0,0,0,0,0,0,0,0,0,0,0,0,0,
0,0,0,0,0,0,0,0,0,0,0,0,0,0,0,0,0,0,0,0,0,0,0,0,0,0,0,0,0,0,0,0,0,0,0,0,0,0,0,0,0,0,0,0,0,0,0,0,0,0,0,0,0,0,0,0,0,0,0,0,0,0,0,0,0,0,0,0,0,0,0,0,0,0,0,0,0,0,0,0,
0,0,0,0,0,0,0,0,0,0,0,0,0,0,0,0,0,0,0,0,0,0,0,0,0,0,0,0,0,0,0,0,0,0,0,0,0,0,0,0,0,0,0,0,0,0,0,0,0,0,0,0,0,0,0,0,0,0,0,0,0,0,0,0,0,0,0,0,0,0,0,0,0,0,0,0,0,0,0,0,
0,0,0,0,0,0,0,0,0,0,0,0,0,0,0,0,0,0,0,0,0,0,0,0,0,0,0,0,0,0,0,0,0,0,0,0,0,0,0,0,0,0,0,0,0,0,0,0,0,0,0,0,0,0,0,0,0,0,0,0,0,0,0,0,0,0,0,0,0,0,0,0,0,0,0,0,0,0,0,0,
0,0,0,0,0,0,0,0,0,0,0,0,0,0,0,0,0,0,0,0,0,0,0,0,0,0,0,0,0,0,0,0,0,0,0,0,0,0,0,0,0,0,0,0,0,0,0,0,0,0,0,0,0,0,0,0,0,0,0,0,0,0,0,0,0,0,0,0,0,0,0,0,0,0,0,0,0,0,0,0,
0,0,0,0,0,0,0,0,0,0,0,0,0,0,0,0,0,0,0,0,0,0,0,0,0,0,0,0,0,0,0,0,0,0,0,0,0,0,0,0,0,0,0,0,0,0,0,0,0,0,0,0,0,0,0,0,0,0,0,0,0,0,0,0,0,0,0,0,0,0,0,0,0,0,0,0,0,0,0,0,
0,0,0,0,0,0,0,0,0,0,0,0,0,0,0,0,0,0,0,0,0,0,0,0,0,0,0,0,0,0,0,0,0,0,0,0,0,0,0,0,0,0,0,0,0,0,0,0,0,0,0,0,0,0,0,0,0,0,0,0,0,0,0,0,0,0,0,0,0,0,0,0,0,0,0,0,0,0,0,0,
0,0,0,0,0,0,0,0,0,0,0,0,0,0,0,0,0,0,0,0,0,0,0,0,0,0,0,0,0,0,0,0,0,0,0,0,0,0,0,0,0,0,0,0,0,0,0,0,0,0,0,0,0,0,0,0,0,0,0,0,0,0,0,0,0,0,0,0,0,0,0,0,0,0,0,0,0,0,0,0,
0,0,0,0,0,0,0,0,0,0,0,0,0,0,0,0,0,0,0,0,0,0,0,0,0,0,0,0,0,0,0,0,0,0,0,0,0,0,0,0,0,0,0,0,0,0,0,0,0,0,0,0,0,0,0,0,0,0,0,0,0,0,0,0,0,0,0,0,0,0,0,0,0,0,0,0,0,0,0,0,
0,0,0,0,0,0,0,0,0,0,0,0,0,0,0,0,0,0,0,0,0,0,0,0,0,0,0,0,0,0,0,0,0,0,0,0,0,0,0,0,0,0,0,0,0,0,0,0,0,0,0,0,0,0,0,0,0,0,0,0,0,0,0,0,0,0,0,0,0,0,0,0,0,0,0,0,0,0,0,0,
0,0,0,0,0,0,0,0,0,0,0,0,0,0,0,0,0,0,0,0,0,0,0,0,0,0,0,0,0,0,0,0,0,0,0,0,0,0,0,0,0,0,0,0,0,0,0,0,0,0,0,0,0,0,0,0,0,0,0,0,0,0,0,0,0,0,0,0,0,0,0,0,0,0,0,0,0,0,0,0,
0,0,0,0,0,0,0,0,0,0,0,0,0,0,0,0,0,0,0,0,0,0,0,0,0,0,0,0,0,0,0,0,0,0,0,0,0,0,0,0,0,0,0,0,0,0,0,0,0,0,0,0,0,0,0,0,0,0,0,0,0,0,0,0,0,0,0,0,0,0,0,0,0,0,0,0,0,0,0,0,
0,0,0,0,0,0,0,0,0,0,0,0,0,0,0,0,0,0,0,0,0,0,0,0,0,0,0,0,0,0,0,0,0,0,0,0,0,0,0,0,0,0,0,0,0,0,0,0,0,0,0,0,0,0,0,0,0,0,0,0,0,0,0,0,0,0,0,0,0,0,0,0,0,0,0,0,0,0,0,0,
0,0,0,0,0,0,0,0,0,0,0,0,0,0,0,0,0,0,0,0,0,0,0,0,0,0,0,0,0,0,0,0,0,0,0,0,0,0,0,0,0,0,0,0,0,0,0,0,0,0,0,0,0,0,0,0,0,0,0,0,0,0,0,0,0,0,0,0,0,0,0,0,0,0,0,0,0,0,0,0,
0,0,0,0,0,0,0,0,0,0,0,0,0,0,0,0,0,0,0,0,0,0,0,0,0,0,0,0,0,0,0,0,0,0,0,0,0,0,0,0,0,0,0,0,0,0,0,0,0,0,0,0,0,0,0,0,0,0,0,0,0,0,0,0,0,0,0,0,0,0,0,0,0,0,0,0,0,0,0,0,
0,0,0,0,0,0,0,0,0,0,0,0,0,0,0,0,0,0,0,0,0,0,0,0,0,0,0,0,0,0,0,0,0,0,0,0,0,0,0,0,0,0,0,0,0,0,0,0,0,0,0,0,0,0,0,0,0,0,0,0,0,0,0,0,0,0,0,0,0,0,0,0,0,0,0,0,0,0,0,0,
0,0,0,0,0,0,0,0,0,0,0,0,0,0,0,0,0,0,0,0,0,0,0,0,0,0,0,0,0,0,0,0,0,0,0,0,0,0,0,0,0,0,0,0,0,0,0,0,0,0,0,0,0,0,0,0,0,0,0,0,0,0,0,0,0,0,0,0,0,0,0,0,0,0,0,0,0,0,0,0,
0,0,0,0,0,0,0,0,0,0,0,0,0,0,0,0,0,0,0,0,0,0,0,0,0,0,0,0,0,0,0,0,0,0,0,0,0,0,0,0,0,0,0,0,0,0,0,0,0,0,0,0,0,0,0,0,0,0,0,0,0,0,0,0,0,0,0,0,0,0,0,0,0,0,0,0,0,0,0,0,
0,0,0,0,0,0,0,0,0,0,0,0,0,0,0,0,0,0,0,0,0,0,0,0,0,0,0,0,0,0,0,0,0,0,0,0,0,0,0,0,0,0,0,0,0,0,0,0,0,0,0,0,0,0,0,0,0,0,0,0,0,0,0,0,0,0,0,0,0,0,0,0,0,0,0,0,0,0,0,0
</data>
 </layer>
 <layer id="47" name="Animations" width="80" height="80">
  <data encoding="csv">
0,0,0,0,0,0,0,0,0,0,0,0,0,0,0,0,0,0,0,0,0,0,0,0,0,0,0,0,0,0,0,0,0,0,0,0,0,0,0,0,0,0,0,0,0,0,0,0,0,0,0,0,0,0,0,0,0,0,0,0,0,0,0,0,0,0,0,0,0,0,0,0,0,0,0,0,0,0,0,0,
0,0,0,0,0,0,0,0,0,0,0,0,0,0,0,0,0,0,0,0,0,0,0,0,0,0,0,0,0,0,0,0,0,0,0,0,0,0,0,0,0,0,0,0,0,0,0,0,0,0,0,0,0,0,0,0,0,0,0,0,0,0,0,0,0,0,0,0,0,0,0,0,0,0,0,0,0,0,0,0,
0,0,0,0,0,0,0,0,0,0,0,0,0,0,0,0,0,0,0,0,0,0,0,0,0,0,0,0,0,0,0,0,0,0,0,0,0,0,0,0,0,0,0,0,0,0,0,0,0,0,0,0,0,0,0,0,0,0,0,0,0,0,0,0,0,0,0,0,0,0,0,0,0,0,0,0,0,0,0,0,
0,0,0,0,0,0,0,0,0,0,0,0,0,0,0,0,0,0,0,0,0,0,0,0,0,0,0,0,0,0,0,0,0,0,0,0,0,0,0,0,0,0,0,0,0,0,0,0,0,0,0,0,0,0,0,0,0,0,0,0,0,0,0,0,0,0,0,0,0,0,0,0,0,0,0,0,0,0,0,0,
0,0,0,0,0,0,0,0,0,0,0,0,0,0,0,0,0,0,0,0,0,0,0,0,0,0,0,0,0,0,0,0,0,0,0,0,0,0,0,0,0,0,0,0,0,0,0,0,0,0,0,0,0,0,0,0,0,0,0,0,0,0,0,0,0,0,0,0,0,0,0,0,0,0,0,0,0,0,0,0,
0,0,0,0,0,0,0,0,0,0,0,0,0,0,0,0,0,0,0,0,0,0,0,0,0,0,0,0,0,0,0,0,0,0,0,0,0,0,0,0,0,0,0,0,0,0,0,0,0,0,0,0,0,0,0,0,0,0,0,0,0,0,0,0,0,0,0,0,0,0,0,0,0,0,0,0,0,0,0,0,
0,0,0,0,0,0,0,0,0,0,0,0,0,0,0,0,0,0,0,0,0,0,0,0,0,0,0,0,0,0,0,0,0,0,0,0,0,0,0,0,0,0,0,0,0,0,0,0,0,0,0,0,0,0,0,0,0,0,0,0,0,0,0,0,0,0,0,0,0,0,0,0,0,0,0,0,0,0,0,0,
0,0,0,0,0,0,0,0,0,0,0,0,0,0,0,0,0,0,0,0,0,0,0,0,0,0,0,0,0,0,0,0,0,0,0,0,0,0,0,0,0,0,0,0,0,0,0,0,0,0,0,0,0,0,0,0,0,0,0,0,0,0,0,0,0,0,0,0,0,0,0,0,0,0,0,0,0,0,0,0,
0,0,0,0,0,0,0,0,0,0,0,0,0,0,0,0,0,0,0,0,0,0,0,0,0,0,0,0,0,0,0,0,0,0,0,0,0,0,0,0,0,0,0,0,0,0,0,0,0,0,0,0,0,0,0,0,0,0,0,0,0,0,0,0,0,0,0,0,0,0,0,0,0,0,0,0,0,0,0,0,
0,0,0,0,0,0,0,0,0,0,0,0,0,0,0,0,0,0,0,0,0,0,0,0,0,0,0,0,0,0,0,0,0,0,0,0,0,0,0,0,0,0,0,0,0,0,0,0,0,0,0,0,0,0,0,0,0,0,0,0,0,0,0,0,0,0,0,0,0,0,0,0,0,0,0,0,0,0,0,0,
0,0,0,0,0,0,0,0,0,0,0,0,0,0,0,0,0,0,0,0,0,0,0,0,0,0,0,0,0,0,0,0,0,0,0,0,0,0,0,0,0,0,0,0,0,0,0,0,0,0,0,0,0,0,0,0,0,0,0,0,0,0,0,0,0,0,0,0,0,0,0,0,0,0,0,0,0,0,0,0,
0,0,0,0,0,0,0,0,0,0,0,0,0,0,0,0,0,0,0,0,0,0,0,0,0,0,0,0,0,0,0,0,0,0,0,0,0,0,0,0,0,0,0,0,0,0,0,0,0,0,0,0,0,0,0,0,0,0,0,0,0,0,0,0,0,0,0,0,0,0,0,0,0,0,0,0,0,0,0,0,
0,0,0,0,0,0,0,0,0,0,0,0,0,0,0,0,0,0,0,0,0,0,0,0,0,0,0,0,0,0,0,0,0,0,0,0,0,0,0,0,0,0,0,0,0,0,0,0,0,0,0,0,0,0,0,0,0,0,0,0,0,0,0,0,0,0,0,0,0,0,0,0,0,0,0,0,0,0,0,0,
0,0,0,0,0,0,0,0,0,0,0,0,0,0,0,0,0,0,0,0,0,0,0,0,0,0,0,0,0,0,0,0,0,0,0,0,0,0,0,0,0,0,0,0,0,0,0,0,0,0,0,0,0,0,0,0,0,0,0,0,0,0,0,0,0,0,0,0,0,0,0,0,0,0,0,0,0,0,0,0,
0,0,0,0,0,0,0,0,0,0,0,0,0,0,0,0,0,0,0,0,0,0,0,0,0,0,0,0,0,0,0,0,0,0,0,0,0,0,0,0,0,0,0,0,0,0,0,0,0,0,0,0,0,0,0,0,0,0,0,0,0,0,0,0,0,0,0,0,0,0,0,0,0,0,0,0,0,0,0,0,
0,0,0,0,0,0,0,0,0,0,0,0,0,0,0,0,0,0,0,0,0,0,0,0,0,0,0,0,0,0,0,0,0,0,0,0,0,0,0,0,0,0,0,0,0,0,0,0,0,0,0,0,0,0,0,0,0,0,0,0,0,0,0,0,0,0,0,0,0,0,0,0,0,0,0,0,0,0,0,0,
0,0,0,0,0,0,0,0,0,0,0,0,0,0,0,0,0,0,0,0,0,0,0,0,0,0,0,0,0,0,0,0,0,0,0,0,0,0,0,0,0,0,0,0,0,0,0,0,0,0,0,0,0,0,0,0,0,0,0,0,0,0,0,0,0,0,0,0,0,0,0,0,0,0,0,0,0,0,0,0,
0,0,0,0,0,0,0,0,0,0,0,0,0,0,0,0,0,0,0,0,0,0,0,0,0,0,0,0,0,0,0,0,0,0,0,0,0,0,0,0,0,0,0,0,0,0,0,0,0,0,0,0,0,0,0,0,0,0,0,0,0,0,0,0,0,0,0,0,0,0,0,0,0,0,0,0,0,0,0,0,
0,0,0,0,0,0,0,0,0,0,0,0,0,0,0,0,0,0,0,0,0,0,0,0,0,0,0,0,0,0,0,0,0,0,0,0,0,0,0,0,0,0,0,0,0,0,0,0,0,0,0,0,0,0,0,0,0,0,0,0,0,0,0,0,0,0,0,0,0,0,0,0,0,0,0,0,0,0,0,0,
0,0,0,0,0,0,0,0,0,0,0,0,0,0,0,0,0,0,0,0,0,0,0,0,0,0,0,0,0,0,0,0,0,0,0,0,0,0,0,0,0,0,0,0,0,0,0,0,0,0,0,0,0,0,0,0,0,0,0,0,0,0,0,0,0,0,0,0,0,0,0,0,0,0,0,0,0,0,0,0,
0,0,0,0,0,0,0,0,0,0,0,0,0,0,0,0,0,0,0,0,0,0,0,0,0,0,0,0,0,0,0,0,0,0,0,0,0,0,0,0,0,0,0,0,0,0,0,0,0,0,0,0,0,0,0,0,0,0,0,0,0,0,0,0,0,0,0,0,0,0,0,0,0,0,0,0,0,0,0,0,
0,0,0,0,0,0,0,0,0,0,0,0,0,0,0,0,0,0,0,0,0,0,0,0,0,0,0,0,0,0,0,0,0,0,0,0,0,0,0,0,0,0,0,0,0,0,0,0,0,0,0,0,0,0,0,0,0,0,0,0,0,0,0,0,0,0,0,0,0,0,0,0,0,0,0,0,0,0,0,0,
0,0,0,0,0,0,0,0,0,0,0,0,0,0,0,0,0,0,0,0,0,0,0,0,0,0,0,0,0,0,0,0,0,0,0,0,0,0,0,0,0,0,0,0,0,0,0,0,0,0,0,0,0,0,0,0,0,0,0,0,0,0,0,0,0,0,0,0,0,0,0,0,0,0,0,0,0,0,0,0,
0,0,0,0,0,0,0,0,0,0,0,0,0,0,0,0,0,0,0,0,0,0,0,0,0,0,0,0,0,0,0,0,0,0,0,0,0,0,0,0,0,0,0,0,0,0,0,0,0,0,0,0,0,0,0,0,0,0,0,0,0,0,0,0,0,0,0,0,0,0,0,0,0,0,0,0,0,0,0,0,
0,0,0,0,0,0,0,0,0,0,0,0,0,0,0,0,0,0,0,0,0,0,0,0,0,0,0,0,0,0,0,0,0,0,0,0,0,0,0,0,0,0,0,0,0,0,0,0,0,0,0,0,0,0,0,0,0,0,0,0,0,0,0,0,0,0,0,0,0,0,0,0,0,0,0,0,0,0,0,0,
0,0,0,0,0,0,0,0,0,0,0,0,0,0,0,0,0,0,0,0,0,0,0,0,0,0,0,0,0,0,0,0,0,0,0,0,34317,34318,0,0,0,0,0,0,0,0,0,0,0,0,0,0,0,0,0,0,0,0,0,0,0,0,0,0,0,0,0,0,0,0,0,0,0,0,0,0,0,0,0,0,
0,0,0,0,0,0,0,0,0,0,0,0,0,0,0,0,0,0,0,0,0,0,0,0,0,0,0,0,0,0,0,0,0,0,0,0,34333,34334,0,0,0,0,0,0,0,0,0,0,0,0,0,0,0,0,0,0,0,0,0,0,0,0,0,0,0,0,0,0,0,0,0,0,0,0,0,0,0,0,0,0,
0,0,0,0,0,0,0,0,0,0,0,0,0,0,0,0,0,0,0,0,0,0,0,0,0,0,0,0,0,0,0,0,0,0,0,0,34349,34350,0,0,0,0,0,0,0,0,0,0,0,0,0,0,0,0,0,0,0,0,0,0,0,0,0,0,0,0,0,0,0,0,0,0,0,0,0,0,0,0,0,0,
0,0,0,0,0,0,0,0,0,0,0,0,0,0,0,0,0,0,0,0,0,0,0,0,0,0,0,0,0,0,0,0,0,0,0,0,34365,34366,0,0,0,0,0,0,0,0,0,0,0,0,0,0,0,0,0,0,0,0,0,0,0,0,0,0,0,0,0,0,0,0,0,0,0,0,0,0,0,0,0,0,
0,0,0,0,0,0,0,0,0,0,0,0,0,0,0,0,0,0,0,0,0,0,0,0,0,0,0,0,0,0,0,0,0,0,0,0,0,0,0,0,0,0,0,0,0,0,0,0,0,0,0,0,0,0,0,0,0,0,0,0,0,0,0,0,0,0,0,0,0,0,0,0,0,0,0,0,0,0,0,0,
0,0,0,0,0,0,0,0,0,0,0,0,0,0,0,0,0,0,0,0,0,0,0,0,0,0,0,0,0,0,0,0,0,0,0,0,0,0,0,0,0,0,0,0,0,0,0,0,0,0,0,0,0,0,0,0,0,0,0,0,0,0,0,0,0,0,0,0,0,0,0,0,0,0,0,0,0,0,0,0,
0,0,0,0,0,0,0,0,0,0,0,0,0,0,0,0,0,0,0,0,0,0,0,0,0,0,0,0,0,0,0,0,0,0,0,0,0,0,0,0,0,0,0,0,0,0,0,0,0,0,0,33933,33934,0,0,0,0,34317,34318,0,0,0,0,0,0,0,0,0,0,0,0,0,0,0,0,0,0,0,0,0,
0,0,0,0,0,0,0,0,0,0,0,0,0,0,0,0,0,0,0,0,0,0,0,0,0,0,0,0,0,0,0,0,0,0,0,0,0,0,0,0,0,0,0,0,0,0,0,0,0,0,0,33949,33950,0,0,0,0,34333,34334,0,0,0,0,0,0,0,0,0,0,0,0,0,0,0,0,0,0,0,0,0,
0,0,0,0,0,0,0,0,0,0,0,0,0,0,0,0,0,0,0,0,0,0,0,0,0,0,0,0,0,0,0,0,0,0,0,0,0,0,0,0,0,0,0,0,0,0,0,0,0,0,0,33965,33966,0,0,0,0,34349,34350,0,0,0,0,0,0,0,0,0,0,0,0,0,0,0,0,0,0,0,0,0,
0,0,0,0,0,0,0,0,0,0,0,0,0,0,0,0,0,0,0,0,0,0,0,0,0,0,0,0,0,0,0,0,0,0,0,0,0,0,0,0,0,0,0,0,0,0,0,0,0,0,0,33981,33982,0,0,0,0,34365,34366,0,0,0,0,0,0,0,0,0,0,0,0,0,0,0,0,0,0,0,0,0,
0,0,0,0,0,0,0,0,0,0,0,0,0,0,0,0,0,0,0,0,0,0,0,0,0,0,0,0,0,0,0,0,0,0,0,0,0,0,0,0,0,0,0,0,0,0,0,0,0,0,0,0,0,0,0,0,0,0,0,0,0,0,0,0,0,0,0,0,0,0,0,0,0,0,0,0,0,0,0,0,
0,0,0,0,0,0,0,0,0,0,0,0,0,0,0,0,0,0,0,0,0,0,0,0,0,0,0,0,0,0,0,0,0,0,0,0,0,0,0,0,0,0,0,0,0,0,0,0,0,0,0,0,0,0,0,0,0,0,0,0,0,0,0,0,0,0,0,0,0,0,0,0,0,0,0,0,0,0,0,0,
0,0,0,0,0,0,0,0,0,0,0,0,0,0,0,0,0,0,0,0,0,0,0,0,0,0,0,0,0,0,0,0,0,0,0,0,0,0,0,0,0,0,0,0,0,0,0,0,0,0,0,0,0,0,0,0,0,0,0,0,0,0,0,0,0,0,0,0,0,0,0,0,0,0,0,0,0,0,0,0,
0,0,0,0,0,0,0,0,0,0,0,0,0,0,0,0,0,0,0,0,0,0,0,0,0,0,0,0,0,0,0,0,0,0,0,0,0,0,0,0,0,0,0,0,0,0,0,0,0,0,0,0,0,0,0,0,0,0,0,0,0,0,0,0,0,0,0,0,0,0,0,0,0,0,0,0,0,0,0,0,
0,0,0,0,0,0,0,0,0,0,0,0,0,0,0,0,0,0,0,0,0,0,0,0,0,0,0,0,0,0,0,0,0,0,0,0,0,0,0,0,0,0,0,0,0,0,0,0,0,0,0,0,0,0,0,0,0,0,0,0,0,0,0,0,0,33933,33934,0,0,0,0,0,0,0,0,0,0,0,0,0,
0,0,0,0,0,0,0,0,0,0,0,0,0,0,0,0,0,0,0,0,0,0,0,0,0,0,0,0,0,0,0,0,0,0,0,0,0,0,0,0,0,0,0,0,0,0,0,0,0,0,0,0,0,0,0,0,0,0,0,0,0,0,0,0,0,33949,33950,0,0,0,0,0,0,0,0,0,0,0,0,0,
0,0,0,0,0,0,0,0,0,0,0,0,0,0,0,0,0,0,0,0,0,0,0,0,0,0,0,0,0,0,0,0,0,0,0,0,0,0,0,0,0,0,0,0,0,0,0,0,0,0,0,0,0,0,0,0,0,0,0,0,0,0,0,0,0,33965,33966,0,0,0,0,0,0,0,0,0,0,0,0,0,
0,0,0,0,0,0,0,0,0,0,0,0,0,0,0,0,0,0,0,0,0,0,0,0,0,0,0,0,0,0,0,0,0,0,0,0,0,0,0,0,0,0,0,0,0,0,0,0,0,0,0,0,0,0,0,0,0,0,0,0,0,0,0,0,0,33981,33982,0,0,0,0,0,0,0,0,0,0,0,0,0,
0,0,0,0,0,0,0,0,0,0,0,0,0,0,0,0,0,0,0,0,0,0,0,0,0,0,0,0,0,0,0,0,0,0,0,0,0,0,0,0,0,0,0,0,0,0,0,0,0,0,0,0,0,0,0,0,0,0,0,0,0,0,0,0,0,0,0,0,0,0,0,0,0,0,0,0,0,0,0,0,
0,0,0,0,0,0,0,0,0,0,0,0,0,0,0,0,0,0,0,0,0,0,0,0,0,0,0,0,0,0,0,0,0,0,0,0,0,0,0,0,0,0,0,0,0,0,0,0,0,0,0,0,0,0,0,0,0,0,0,0,0,0,0,0,0,0,0,0,0,0,0,0,0,0,0,0,0,0,0,0,
0,0,0,0,0,0,0,0,0,0,0,0,0,0,0,0,0,0,0,0,0,0,0,0,0,0,0,0,0,0,0,0,0,0,0,0,0,0,0,0,0,0,0,0,0,0,0,0,0,0,0,0,0,0,0,0,0,0,0,0,0,0,0,0,0,0,0,0,0,0,0,0,0,0,0,0,0,0,0,0,
0,0,0,0,0,0,0,0,0,0,0,0,0,0,0,0,0,0,0,0,0,34317,34318,0,0,0,0,0,0,0,0,0,0,0,0,0,0,0,0,0,0,0,0,0,0,0,0,0,0,0,0,0,0,0,0,0,0,0,0,0,0,0,0,0,0,0,0,0,0,0,0,0,0,0,0,0,0,0,0,0,
0,0,0,0,0,0,0,0,0,0,0,0,0,0,0,0,0,0,0,0,0,34333,34334,0,0,0,0,0,0,0,0,0,0,0,0,0,0,0,0,0,0,0,0,0,0,0,0,0,0,0,0,0,0,0,0,0,0,0,0,0,0,0,0,0,0,0,0,0,0,0,0,0,0,0,0,0,0,0,0,0,
0,0,0,0,0,0,0,0,0,0,0,0,0,0,0,0,0,0,0,0,0,34349,34350,0,0,0,0,0,0,0,0,0,0,0,0,0,0,0,0,0,0,0,0,0,0,0,0,0,0,0,0,0,0,0,0,0,0,0,0,0,0,0,0,0,0,0,0,0,0,0,0,0,0,0,0,0,0,0,0,0,
0,0,0,0,0,0,0,0,0,0,0,0,0,0,0,0,0,0,0,0,0,34365,34366,0,0,0,0,0,0,0,0,0,0,0,0,0,0,0,0,0,0,0,0,0,0,0,0,0,0,0,0,0,0,0,0,0,0,0,0,0,0,0,0,0,0,0,0,0,0,0,0,0,0,0,0,0,0,0,0,0,
0,0,0,0,0,0,0,0,0,0,0,0,0,0,0,0,0,0,0,0,0,0,0,0,0,0,0,0,0,0,0,0,0,0,0,0,0,0,0,0,0,0,0,0,0,0,0,0,0,0,0,0,0,0,0,0,0,0,0,0,0,0,0,0,0,0,0,0,0,0,0,0,0,0,0,0,0,0,0,0,
0,0,0,0,0,0,0,0,0,0,0,0,0,0,0,0,0,0,0,0,0,0,0,0,0,0,0,0,0,0,0,0,0,0,0,0,0,0,0,0,0,0,0,0,0,0,0,0,0,0,0,0,0,0,0,0,0,0,0,0,0,0,0,0,0,0,0,0,0,0,0,0,0,0,0,0,0,0,0,0,
0,0,0,0,0,0,0,0,0,0,0,0,0,0,0,0,0,0,0,0,0,0,0,0,0,0,0,0,0,0,0,0,0,0,0,0,0,0,0,0,0,0,0,0,0,0,0,0,0,0,0,0,0,0,0,0,0,0,0,0,0,0,0,0,0,0,0,0,0,0,0,0,0,0,0,0,0,0,0,0,
0,0,0,0,0,0,0,0,0,0,0,0,0,0,0,0,0,0,0,0,0,0,0,0,0,0,0,0,0,0,0,0,0,0,0,0,0,0,0,0,0,0,0,0,0,0,0,0,0,0,0,0,0,0,0,0,0,0,0,0,0,0,0,0,0,0,0,0,0,0,0,0,0,0,0,0,0,0,0,0,
0,0,0,0,0,0,0,0,0,0,0,0,0,0,0,0,0,0,0,0,0,0,0,0,0,0,0,0,0,0,0,0,0,0,0,0,0,0,0,0,0,0,0,0,0,0,0,0,0,0,0,0,0,0,0,0,0,0,0,0,0,0,0,0,0,0,0,0,0,0,0,0,0,0,0,0,0,0,0,0,
0,0,0,0,0,0,0,0,0,0,0,0,0,0,0,0,0,0,0,0,0,0,0,0,0,0,0,0,0,0,0,0,0,0,0,0,0,0,0,0,0,0,0,0,0,0,0,0,0,0,0,0,0,0,0,0,0,0,0,0,0,0,0,0,0,0,0,0,0,0,0,0,0,0,0,0,0,0,0,0,
0,0,0,0,0,0,0,0,0,0,0,0,0,0,0,0,0,0,0,0,0,0,0,0,0,0,0,0,0,0,0,0,0,0,0,0,0,0,0,0,0,0,0,0,0,0,0,0,0,0,0,0,0,0,0,0,0,0,0,0,0,0,0,0,0,0,0,0,0,0,0,0,0,0,0,0,0,0,0,0,
0,0,0,0,0,0,0,0,0,0,0,0,0,0,0,0,0,0,0,0,0,0,0,0,0,0,0,0,0,0,0,0,0,0,0,0,0,0,0,0,0,0,0,0,0,0,0,0,0,0,0,0,0,0,0,0,0,0,0,0,0,0,0,0,0,0,0,0,0,0,0,0,0,0,0,0,0,0,0,0,
0,0,0,0,0,0,0,0,0,0,0,0,0,0,0,0,0,0,0,0,0,0,0,0,33933,33934,0,0,0,0,0,0,0,0,0,0,0,0,0,0,0,0,0,0,0,0,0,0,0,0,0,0,0,0,0,0,0,0,0,0,0,0,0,0,0,0,0,0,0,0,0,0,0,0,0,0,0,0,0,0,
0,0,0,0,0,0,0,0,0,0,0,0,0,0,0,0,0,0,0,0,0,0,0,0,33949,33950,0,0,0,0,0,0,0,0,0,0,0,0,0,0,0,0,0,0,0,0,0,0,0,0,0,0,0,0,0,0,0,0,0,0,0,0,0,0,0,0,0,0,0,0,0,0,0,0,0,0,0,0,0,0,
0,0,0,0,0,0,0,0,0,0,0,0,0,0,0,0,0,0,0,0,0,0,0,0,33965,33966,0,0,0,0,0,0,0,0,0,0,0,0,0,0,0,0,0,0,0,0,0,0,0,0,0,0,0,0,0,0,0,0,0,0,0,0,0,0,0,0,0,0,0,0,0,0,0,0,0,0,0,0,0,0,
0,0,0,0,0,0,0,0,0,0,0,0,0,0,0,0,0,0,0,0,0,0,0,0,33981,33982,0,0,0,0,0,0,0,0,0,0,0,0,0,0,0,0,0,0,0,0,0,0,0,0,0,0,0,0,0,0,0,0,0,0,0,0,0,0,0,0,0,0,0,0,0,0,0,0,0,0,0,0,0,0,
0,0,0,0,0,0,0,0,0,0,0,0,0,0,0,0,0,0,0,0,0,0,0,0,0,0,0,0,0,0,0,0,0,0,0,0,0,0,0,0,0,0,0,0,0,0,0,0,0,0,0,0,0,0,0,0,0,0,0,0,0,0,0,0,0,0,0,0,0,0,0,0,0,0,0,0,0,0,0,0,
0,0,0,0,0,0,0,0,0,0,0,0,0,0,0,0,0,0,0,0,0,0,0,0,0,0,0,0,0,0,0,0,0,0,0,0,0,0,0,0,0,0,0,0,0,0,0,0,0,0,0,0,0,0,0,0,0,0,0,0,0,0,0,0,0,0,0,0,0,0,0,0,0,0,0,0,0,0,0,0,
0,0,0,0,0,0,0,0,0,0,0,0,0,0,0,0,0,0,0,0,0,0,0,0,0,0,0,0,0,0,0,0,0,0,0,0,0,0,0,0,0,0,0,0,0,0,0,0,0,0,0,0,0,0,0,0,0,0,0,0,0,0,0,0,0,0,0,0,0,0,0,0,0,0,0,0,0,0,0,0,
0,0,0,0,0,0,0,0,0,0,0,0,0,0,0,0,0,0,0,0,0,0,0,0,0,0,0,0,0,0,0,0,0,0,0,0,0,0,0,0,0,0,0,0,0,0,0,0,0,0,0,0,0,0,0,0,0,0,0,0,0,0,0,0,0,0,0,0,0,0,0,0,0,0,0,0,0,0,0,0,
0,0,0,0,0,0,0,0,0,0,0,0,0,0,0,0,0,0,0,0,0,0,0,0,0,0,0,0,0,0,0,0,0,0,0,0,0,0,0,0,0,0,0,0,0,0,0,0,0,0,0,0,0,0,0,0,0,0,0,0,0,0,0,0,0,0,0,0,0,0,0,0,0,0,0,0,0,0,0,0,
0,0,0,0,0,0,0,0,0,0,0,0,0,0,0,0,0,0,0,0,0,0,0,0,0,0,0,0,0,0,0,0,0,0,0,0,0,0,0,0,0,0,0,0,0,0,0,0,0,0,0,0,0,0,0,0,0,0,0,0,0,0,0,0,0,0,0,0,0,0,0,0,0,0,0,0,0,0,0,0,
0,0,0,0,0,0,0,0,0,0,0,0,0,0,0,0,0,0,0,0,0,0,0,0,0,0,0,0,0,0,0,0,0,0,0,0,0,0,0,0,0,0,0,0,0,0,0,0,0,0,0,0,0,0,0,0,0,0,0,0,0,0,0,0,0,0,0,0,0,0,0,0,0,0,0,0,0,0,0,0,
0,0,0,0,0,0,0,0,0,0,0,0,0,0,0,0,0,0,0,0,0,0,0,0,0,0,0,0,0,0,0,0,0,0,0,0,0,0,0,0,0,0,0,0,0,0,0,0,0,0,0,0,0,0,0,0,0,0,0,0,0,0,0,0,0,0,0,0,0,0,0,0,0,0,0,0,0,0,0,0,
0,0,0,0,0,0,0,0,0,0,0,0,0,0,0,0,0,0,0,0,0,0,0,0,0,0,0,0,0,0,0,0,0,0,0,0,0,0,0,0,0,0,0,0,0,0,0,0,0,0,0,0,0,0,0,0,0,0,0,0,0,0,0,0,0,0,0,0,0,0,0,0,0,0,0,0,0,0,0,0,
0,0,0,0,0,0,0,0,0,0,0,0,0,0,0,0,0,0,0,0,0,0,0,0,0,0,0,0,0,0,0,0,0,0,0,0,0,0,0,0,0,0,0,0,0,0,0,0,0,0,0,0,0,0,0,0,0,0,0,0,0,0,0,0,0,0,0,0,0,0,0,0,0,0,0,0,0,0,0,0,
0,0,0,0,0,0,0,0,0,0,0,0,0,0,0,0,0,0,0,0,0,0,0,0,0,0,0,0,0,0,0,0,0,0,0,0,0,0,0,0,0,0,0,0,0,0,0,0,0,0,0,0,0,0,0,0,0,0,0,0,0,0,0,0,0,0,0,0,0,0,0,0,0,0,0,0,0,0,0,0,
0,0,0,0,0,0,0,0,0,0,0,0,0,0,0,0,0,0,0,0,0,0,0,0,0,0,0,0,0,0,0,0,0,0,0,0,0,0,0,0,0,0,0,0,0,0,0,0,0,0,0,0,0,0,0,0,0,0,0,0,0,0,0,0,0,0,0,0,0,0,0,0,0,0,0,0,0,0,0,0,
0,0,0,0,0,0,0,0,0,0,0,0,0,0,0,0,0,0,0,0,0,0,0,0,0,0,0,0,0,0,0,0,0,0,0,0,0,0,0,0,0,0,0,0,0,0,0,0,0,0,0,0,0,0,0,0,0,0,0,0,0,0,0,0,0,0,0,0,0,0,0,0,0,0,0,0,0,0,0,0,
0,0,0,0,0,0,0,0,0,0,0,0,0,0,0,0,0,0,0,0,0,0,0,0,0,0,0,0,0,0,0,0,0,0,0,0,0,0,0,0,0,0,0,0,0,0,0,0,0,0,0,0,0,0,0,0,0,0,0,0,0,0,0,0,0,0,0,0,0,0,0,0,0,0,0,0,0,0,0,0,
0,0,0,0,0,0,0,0,0,0,0,0,0,0,0,0,0,0,0,0,0,0,0,0,0,0,0,0,0,0,0,0,0,0,0,0,0,0,0,0,0,0,0,0,0,0,0,0,0,0,0,0,0,0,0,0,0,0,0,0,0,0,0,0,0,0,0,0,0,0,0,0,0,0,0,0,0,0,0,0,
0,0,0,0,0,0,0,0,0,0,0,0,0,0,0,0,0,0,0,0,0,0,0,0,0,0,0,0,0,0,0,0,0,0,0,0,0,0,0,0,0,0,0,0,0,0,0,0,0,0,0,0,0,0,0,0,0,0,0,0,0,0,0,0,0,0,0,0,0,0,0,0,0,0,0,0,0,0,0,0,
0,0,0,0,0,0,0,0,0,0,0,0,0,0,0,0,0,0,0,0,0,0,0,0,0,0,0,0,0,0,0,0,0,0,0,0,0,0,0,0,0,0,0,0,0,0,0,0,0,0,0,0,0,0,0,0,0,0,0,0,0,0,0,0,0,0,0,0,0,0,0,0,0,0,0,0,0,0,0,0,
0,0,0,0,0,0,0,0,0,0,0,0,0,0,0,0,0,0,0,0,0,0,0,0,0,0,0,0,0,0,0,0,0,0,0,0,0,0,0,0,0,0,0,0,0,0,0,0,0,0,0,0,0,0,0,0,0,0,0,0,0,0,0,0,0,0,0,0,0,0,0,0,0,0,0,0,0,0,0,0
</data>
 </layer>
</map>
