<?xml version="1.0" encoding="UTF-8"?>
<map version="1.10" tiledversion="1.11.2" orientation="orthogonal" renderorder="right-down" width="40" height="40" tilewidth="16" tileheight="16" infinite="0" nextlayerid="27" nextobjectid="367">
 <tileset firstgid="1" source="../Tilesets/Objects_Rocks_Desert.tsx"/>
 <tileset firstgid="137" source="../Tilesets/Objects_Trees_Desert.tsx"/>
 <tileset firstgid="288" source="../Tilesets/Atlas_Props_Desert.tsx"/>
 <tileset firstgid="18177" source="../Tilesets/Atlas_Rocks_Desert.tsx"/>
 <tileset firstgid="21201" source="../Tilesets/Tileset_Fence_1.tsx"/>
 <tileset firstgid="21237" source="../Tilesets/Tileset_Ground.tsx"/>
 <tileset firstgid="25797" source="../Tilesets/Tileset_Road.tsx"/>
 <tileset firstgid="26805" source="../Tilesets/Tileset_RockSlope_2_Gray_Sand.tsx"/>
 <tileset firstgid="30901" source="../Tilesets/Tileset_RockSlope_2_Gray.tsx"/>
 <tileset firstgid="34997" source="../Tilesets/Tileset_Sand.tsx"/>
 <tileset firstgid="37877" source="../Tilesets/Tileset_Shadow.tsx"/>
 <tileset firstgid="37925" source="../Tilesets/Tileset_TallGrass.tsx"/>
 <tileset firstgid="38225" source="../Tilesets/Tileset_Wall_1.tsx"/>
 <tileset firstgid="38261" source="../Tilesets/Tileset_Water.tsx"/>
 <tileset firstgid="38573" source="../Tilesets/Atlas_Trees_Bushes_Desert.tsx"/>
 <tileset firstgid="45453" source="../Tilesets/Animation_Waterfall.tsx"/>
 <tileset firstgid="45609" source="../Tilesets/Atlas_Buildings_Bridges.tsx"/>
 <tileset firstgid="46899" source="../Tilesets/Atlas_Buildings_Desert_Blue.tsx"/>
 <tileset firstgid="64587" source="../Tilesets/Animation_Flowers.tsx"/>
 <tileset firstgid="65547" source="../Tilesets/Objects_Buildings_Desert.tsx"/>
 <tileset firstgid="66823" source="../Tilesets/Objects_Props_Desert.tsx"/>
 <tileset firstgid="68418" source="../Tilesets/Animation_MagicCrystal.tsx"/>
 <tileset firstgid="70278" source="../Tilesets/Animation_Banner_1_Desert.tsx"/>
 <tileset firstgid="70982" source="../Tilesets/Objects_Shadows.tsx"/>
 <layer id="18" name="Sand" width="40" height="40">
  <data encoding="csv">
35385,35385,35383,35381,35385,35384,35047,35381,35430,35429,35047,35429,35384,35527,35386,35431,35382,35381,35383,35384,35382,35384,35527,35384,35384,35381,35431,35431,35430,35384,35431,35047,35527,35385,35381,35384,35381,35430,35382,35527,
35430,35386,35382,35047,35384,35430,35382,35527,35527,35430,35431,35527,35382,35381,35431,35386,35381,35384,35386,35383,35429,35430,35385,35429,35430,35431,35430,35047,35384,35384,35431,35429,35384,35382,35431,35429,35430,35382,35527,35431,
35431,35385,35381,35047,35385,35382,35384,35383,35430,35047,35047,35431,35382,35047,35429,35386,35383,35430,35384,35386,35383,35430,35386,35383,35527,35527,35381,35527,35384,35383,35385,35047,35527,35047,35047,35385,35527,35384,35381,35383,
35386,35430,35382,35431,35381,35430,35430,35386,35385,35382,35381,35429,35383,35527,35527,35431,35385,35383,35527,35383,35382,35381,35385,35430,35386,35430,35430,35429,35430,35384,35385,35430,35386,35429,35431,35382,35386,35382,35429,35381,
35381,35527,35431,35385,35430,35383,35382,35383,35047,35047,35430,35431,35047,35381,35381,35383,35385,35385,35429,35431,35384,35386,35431,35430,35527,35381,35431,35383,35382,35381,35385,35382,35381,35385,35527,35431,35047,35431,35383,35047,
35382,35527,35429,35382,35384,35527,35384,35384,35385,35431,35429,35381,35386,35527,35384,35429,35385,35384,35964,35965,35965,35965,35966,35381,35382,35385,35385,35047,35383,35527,35386,35383,35429,35382,35381,35385,35429,35431,35429,35527,
35384,35047,35385,35527,35386,35431,35383,35385,35382,35047,35429,35429,35429,35382,35527,35527,35047,35047,36012,36344,36346,36344,36014,35385,35383,35527,35381,35384,35386,35047,35384,35383,35527,35384,35431,35381,35047,35431,35385,35383,
35047,35386,35381,35382,35047,35047,35431,35382,35047,35429,35431,35381,35381,35385,35964,35965,35966,35384,36060,36156,36343,36155,36062,35527,35383,35527,35047,35527,35384,35429,35429,35047,35047,35047,35430,35385,35381,35383,35527,35527,
35385,35047,35047,35386,35381,35381,35381,35383,35384,35385,35384,35382,35384,35382,36012,36344,36203,35966,35381,36060,36061,36062,35430,35383,35430,35385,35047,35047,35383,35431,35047,35047,35386,35381,35381,35429,35385,35386,35384,35431,
35385,35384,35382,35386,35382,35527,35386,35383,35382,35386,35382,35381,35430,35383,36060,36156,36007,36014,35385,35430,35429,35047,35430,35429,35527,35383,35527,35385,35383,35381,35381,35382,35386,35383,35382,35527,35431,35382,35429,35429,
35527,35047,35429,35385,35381,35527,35047,35386,35383,35430,35047,35527,35431,35431,35385,36060,36061,36062,35381,35382,35430,35382,35430,35385,35431,35429,35381,35429,35430,35429,35384,35386,35386,35431,35429,35527,35430,35384,35381,35386,
35381,35047,35382,35047,35384,35382,35047,35386,35386,35527,35385,35047,35527,35381,35384,35430,35430,35429,35384,35382,35047,35381,35527,35381,35430,35386,35386,35382,35527,35047,35382,35381,35383,35386,35527,35384,35429,35385,35429,35384,
35047,35430,35382,35047,35381,35386,35527,35383,35382,35527,35382,35383,35386,35386,35431,35385,35386,35431,35429,35431,35385,35527,35527,35386,35527,35430,35431,35431,35381,35431,35047,35527,35431,35381,35383,35386,35383,35431,35381,35431,
35384,35431,35385,35386,35384,35385,35381,35047,35431,35386,35430,35384,35386,35381,35429,35431,35429,35383,35384,35382,35384,35385,35385,35385,35383,35429,35382,35385,35429,35385,35383,35429,35382,35527,35381,35430,35382,35386,35383,35431,
35386,35429,35431,35430,35430,35385,35381,35429,35431,35047,35381,35385,35382,35047,35386,35386,35047,35382,35047,35383,35385,35381,35383,35382,35382,35385,35385,35527,35382,35431,35385,35382,35527,35383,35430,35527,35386,35381,35381,35382,
35384,35430,35385,35381,35429,35047,35527,35381,35430,35047,35384,35384,35384,35431,35385,35047,35429,35431,35429,35430,35382,35386,35429,35386,35429,35384,35385,35430,35381,35382,35431,35527,35382,35383,35429,35381,35386,35429,35385,35385,
35429,35429,35431,35527,35429,35430,35385,35384,35047,35431,35386,35047,35384,35386,35382,35381,35430,35386,35669,35575,35575,35575,35575,35670,35382,35431,35384,35381,35430,35527,35383,35429,35386,35385,35382,35431,35383,35430,35047,35429,
35527,35527,35047,35383,35527,35430,35429,35047,35382,35964,35965,35966,35431,35047,35384,35429,35669,35575,35576,36778,35818,36778,35818,35574,35670,35429,35431,35431,35430,35384,35429,35386,35386,35381,35384,35047,35429,35383,35382,35430,
35385,35384,35381,35382,35527,35047,35381,35384,35964,36204,36390,36014,35431,35429,35386,35669,35576,35818,35818,35818,36778,36778,36778,36778,35574,35670,35047,35430,35381,35386,35385,35383,35527,35386,35047,35383,35430,35383,35381,35429,
35385,35383,35383,35384,35430,35527,35385,35381,36012,36346,36155,36062,35386,35384,35527,35528,35818,35818,36778,35818,35818,35818,35818,35818,35818,35526,35047,35429,35383,35385,35429,35386,35384,35382,35383,35381,35429,35382,35527,35527,
35383,35429,35386,35383,35527,35383,35386,35047,36012,36007,36014,35431,35386,35430,35047,35528,35818,35818,36778,35818,35818,36778,35818,36778,36778,35526,35385,35430,35386,35383,35386,35384,35382,35381,35431,35382,35382,35386,35381,35431,
35429,35383,35383,35381,35384,35385,35047,35431,36060,36061,36062,35527,35381,35431,35527,35528,36778,36778,35818,36778,36778,36778,35818,36778,35478,35718,35383,35047,35386,35527,35386,35383,35527,35383,35429,35385,35381,35047,35381,35381,
35384,35384,35527,35381,35527,35382,35385,35382,35431,35385,35385,35381,35384,35386,35430,35717,35480,36778,35818,35818,35818,35818,35478,35479,35718,35047,35384,35382,35527,35386,35431,35385,35385,35431,35429,35382,35429,35382,35047,35047,
35384,35381,35047,35386,35385,35047,35381,35431,35385,35527,35527,35381,35382,35381,35385,35381,35717,35479,35480,36778,35818,35478,35718,35527,35384,35047,35385,35527,35430,35384,35047,35429,35381,35384,35430,35381,35385,35383,35430,35384,
35384,35384,35384,35385,35386,35431,35383,35429,35429,35382,35381,35047,35384,35527,35047,35386,35429,35381,35717,35479,35479,35718,35382,35382,35382,35047,35386,35047,35381,35384,35385,35381,35386,35386,35429,35383,35430,35430,35431,35429,
35384,35430,35429,35527,35382,35381,35382,35430,35431,35384,35385,35430,35382,35385,35382,35382,35385,35047,35383,35385,35384,35429,35431,35381,35385,35431,35385,35431,35386,35384,35431,35386,35386,35383,35386,35386,35431,35382,35382,35382,
35383,35385,35429,35384,35429,35385,35429,35383,35386,35430,35382,35383,35385,35431,35382,35381,35047,35429,35527,35429,35527,35527,35385,35431,35429,35386,35383,35431,35382,35383,35430,35386,35385,35386,35383,35429,35384,35431,35527,35382,
35527,35430,35527,35382,35047,35382,35384,35430,35429,35429,35381,35382,35431,35429,35386,35047,35527,35527,35047,35382,35527,35047,35430,35384,35527,35527,35385,35047,35384,35383,35381,35385,35381,35383,35385,35382,35429,35383,35386,35385,
35429,35383,35383,35047,35382,35527,35385,35047,35527,35382,35382,35430,35382,35382,35431,35382,35386,35429,35527,35527,35386,35964,35965,35966,35384,35381,35430,35384,35382,35381,35384,35385,35384,35381,35383,35527,35383,35381,35385,35385,
35384,35386,35385,35383,35431,35381,35383,35383,35527,35383,35383,35429,35430,35381,35527,35386,35383,35381,35385,35431,35383,36012,36389,36203,35966,35527,35384,35386,35383,35384,35386,35384,35527,35383,35383,35384,35430,35384,35383,35384,
35527,35386,35429,35429,35384,35430,35386,35385,35386,35382,35429,35047,35431,35383,35527,35431,35381,35382,35386,35382,35964,36204,36007,36391,36014,35527,35430,35386,35431,35527,35386,35381,35429,35381,35385,35386,35384,35381,35430,35384,
35383,35381,35385,35381,35386,35383,35382,35431,35385,35383,35429,35381,35384,35527,35385,35383,35430,35385,35381,35381,36012,36346,36007,36390,36014,35386,35384,35431,35386,35384,35384,35430,35382,35047,35431,35047,35381,35381,35384,35381,
35527,35381,35385,35047,35430,35382,35527,35431,35382,35385,35047,35386,35430,35527,35386,35431,35429,35527,35386,35431,36060,36156,36346,36155,36062,35382,35431,35047,35431,35381,35386,35386,35381,35431,35384,35385,35429,35384,35382,35431,
35383,35386,35383,35384,35385,35430,35430,35527,35430,35382,35527,35382,35429,35430,35430,35047,35383,35384,35430,35047,35386,36060,36061,36062,35385,35382,35047,35430,35047,35381,35383,35386,35047,35385,35385,35382,35527,35431,35047,35382,
35382,35047,35381,35385,35383,35047,35386,35431,35386,35431,35386,35385,35382,35381,35384,35383,35381,35431,35527,35383,35381,35527,35527,35047,35381,35383,35047,35429,35382,35382,35384,35527,35384,35384,35384,35527,35047,35381,35386,35385,
35385,35381,35385,35385,35386,35047,35430,35382,35386,35386,35385,35429,35431,35381,35381,35383,35382,35430,35384,35386,35384,35964,35965,35966,35429,35381,35047,35382,35381,35431,35381,35430,35386,35385,35386,35381,35381,35431,35384,35385,
35384,35386,35384,35382,35384,35386,35431,35384,35047,35382,35431,35385,35384,35527,35429,35430,35386,35429,35431,35527,35381,36012,36346,36014,35386,35382,35382,35381,35386,35429,35385,35386,35386,35384,35381,35382,35430,35383,35383,35047,
35527,35386,35429,35383,35527,35386,35384,35429,35382,35385,35386,35429,35386,35431,35382,35382,35047,35381,35386,35386,35382,36012,36343,36014,35429,35527,35431,35384,35431,35384,35382,35382,35386,35429,35382,35381,35385,35381,35429,35386,
35384,35430,35431,35429,35527,35381,35385,35384,35429,35383,35384,35384,35429,35430,35430,35527,35383,35381,35381,35386,35964,36204,36346,36203,35966,35384,35385,35382,35383,35430,35527,35385,35384,35382,35047,35382,35431,35384,35429,35047,
35385,35385,35431,35384,35382,35384,35047,35047,35527,35386,35383,35382,35430,35385,35385,35431,35430,35431,35383,35383,36012,36391,36346,36346,36203,35966,35047,35381,35383,35431,35382,35384,35047,35384,35047,35386,35384,35431,35386,35429
</data>
 </layer>
 <layer id="20" name="Ground" width="40" height="40">
  <data encoding="csv">
21578,21578,21578,21578,21578,21578,21578,21578,21578,21578,21578,21578,21578,21578,21578,21578,21578,21578,21578,21578,21578,21578,21578,21578,21578,21578,21578,21578,21578,21578,21578,21578,21578,21578,21578,21578,21578,21578,21578,21578,
21578,21578,21578,21578,21578,21578,21578,21578,21578,21578,21578,21578,21578,21578,21578,21578,21578,21578,21578,21578,21578,21578,21578,21578,21578,21578,21578,21578,21578,21578,21578,21578,21578,21578,21578,21578,21578,21578,21578,21578,
21578,21578,21578,21578,21578,21578,21578,21578,21578,21578,21578,21578,21578,21578,21578,21578,21578,21578,21578,21578,21578,21578,21578,21578,21578,21578,21578,21578,21578,21578,21578,21578,21578,21578,21578,21578,21578,21578,21578,21578,
21578,21578,21578,21578,21578,21578,21578,21578,21578,21578,21578,21578,21578,21578,21578,21578,21578,21578,21578,21578,21578,21578,21578,21578,21578,21578,21578,21578,21578,21578,21578,21578,21578,21578,21578,21578,21578,21578,21578,21578,
21578,21578,21578,21578,21578,21578,21578,21578,21578,21578,21578,21578,21578,21578,21578,21578,21578,21578,21578,21578,21578,21578,21578,21578,21578,21238,21239,21240,21578,21578,21578,21578,21578,21578,21578,21578,21578,21578,21578,21578,
21578,21578,21578,21578,21578,21578,21578,21578,21578,21578,21578,21578,21578,21238,21239,21239,21239,21240,21578,21578,21578,21238,21239,21239,21239,21478,21299,21477,21240,21578,21578,21578,21578,21578,21578,21578,21578,21578,21578,21578,
21578,21578,21578,21578,21578,21578,21578,21578,21578,21578,21578,21578,21238,21478,21673,21293,21429,21336,21578,21578,21578,21334,21430,21429,21335,21430,21673,21670,21288,21578,21578,21578,21578,21578,21578,21578,21578,21578,21578,21578,
21578,21578,21578,21578,21578,21578,21578,21578,21578,21238,21239,21239,21478,21299,21626,21429,21336,21578,21578,21578,21578,21578,21334,21290,21383,21481,21287,21625,21288,21578,21578,21578,21578,21578,21578,21578,21578,21578,21578,21578,
21578,21578,21578,21578,21578,21578,21578,21238,21239,21478,21299,21669,21299,21287,21287,21477,21240,21578,21578,21578,21578,21578,21578,21578,21578,21334,21430,21299,21477,21239,21240,21578,21578,21578,21578,21578,21578,21578,21578,21578,
21578,21578,21578,21578,21578,21578,21578,21286,21623,21623,21429,21335,21335,21430,21669,21672,21288,21578,21578,21578,21578,21578,21578,21578,21578,21578,21286,21299,21621,21299,21477,21240,21578,21578,21578,21578,21578,21578,21578,21578,
21578,21578,21578,21578,21578,21578,21578,21286,21287,21429,21336,21578,21578,21286,21299,21671,21288,21578,21578,21578,21578,21578,21578,21578,21578,21578,21334,21430,21299,21299,21299,21288,21578,21578,21578,21578,21578,21578,21578,21578,
21578,21238,21239,21240,21578,21238,21239,21529,21335,21336,21578,21578,21578,21334,21335,21335,21336,21578,21578,21578,21578,21578,21578,21578,21578,21578,21578,21334,21335,21335,21335,21336,21578,21578,21578,21578,21578,21238,21240,21578,
21578,21286,21669,21288,21578,21286,21287,21288,21578,21578,21578,21578,21578,21578,21578,21578,21578,21578,21578,21578,21238,21239,21240,21578,21578,21578,21578,21578,21578,21578,21578,21578,21578,21578,21578,21578,21578,21286,21288,21578,
21578,21286,21299,21288,21578,21334,21335,21336,21238,21240,21578,21578,21578,21578,21578,21578,21578,21578,21578,21238,21478,21625,21288,21578,21578,21578,21578,21578,21578,21578,21578,21578,21578,21578,21578,21578,21578,21286,21288,21578,
21578,21286,21625,21288,21578,21578,21238,21239,21529,21336,21578,21578,21578,21578,21578,21578,21578,21578,21578,21286,21287,21429,21336,21238,21239,21240,21578,21578,21578,21578,21578,21578,21578,21578,21578,21578,21578,21286,21288,21578,
21578,21286,21623,21477,21240,21578,21286,21299,21288,21578,21578,21578,21578,21578,21578,21578,21578,21578,21578,21334,21335,21336,21578,21286,21293,21477,21240,21578,21578,21578,21578,21578,21578,21578,21578,21578,21238,21478,21288,21578,
21578,21286,21621,21429,21336,21578,21334,21335,21336,21578,21578,21578,21578,21578,21578,21578,21578,21578,21578,21578,21578,21578,21578,21286,21626,21673,21288,21578,21578,21578,21578,21578,21578,21578,21578,21578,21286,21669,21288,21578,
21578,21286,21293,21288,21578,21578,21578,21578,21578,21578,21578,21578,21578,21578,21578,21578,21578,21578,21578,21578,21578,21578,21578,21334,21335,21335,21336,21578,21578,21578,21578,21578,21578,21578,21578,21578,21286,21293,21288,21578,
21578,21286,21669,21477,21239,21240,21578,21578,21578,21578,21578,21578,21578,21578,24266,23594,21578,21578,21578,21578,21578,21578,21578,21578,21578,21578,21578,21578,21578,21578,21578,21578,21578,21578,21578,21578,21334,21430,21288,21578,
21578,21286,21623,21299,21287,21288,21578,21578,21578,21578,21238,21239,21240,22250,24266,21578,21578,21578,21578,21578,21578,21578,21578,21578,21578,21578,21578,21578,21578,21578,21238,21239,21240,21578,21578,21578,21578,21286,21288,21578,
21578,21286,21287,21299,21299,21288,21578,21578,21578,21238,21478,21623,21477,21240,21578,21578,21578,21578,21578,21578,21578,21578,21578,21578,21578,21578,21578,21578,21578,21578,21286,21299,21288,21578,21578,21578,21578,21286,21288,21578,
21578,21286,21287,21429,21335,21336,21578,21578,21578,21286,21293,21287,21624,21288,21578,21578,21578,21578,21578,21578,21578,21578,21578,21578,21578,21578,21578,21578,21578,21578,21286,21624,21477,21240,21578,21578,21578,21286,21288,21578,
21578,21286,21293,21288,21578,21578,21578,21578,21578,21286,21299,21623,21429,21336,21578,21578,21578,21578,21578,21578,21578,21578,21578,21578,21578,21578,21578,21578,21578,21578,21334,21430,21299,21288,21578,21578,21578,21286,21288,21578,
21578,21334,21430,21288,21578,21578,21578,21578,21578,21334,21335,21335,21336,21578,21578,21578,21578,21578,21578,21578,21578,21578,21578,21578,21578,21578,21578,21578,21578,21578,21578,21334,21335,21336,21578,21578,21578,21286,21288,21578,
21578,21578,21286,21288,21578,21578,21238,21239,21239,21240,21578,21578,21578,21578,21578,21578,21578,21578,21578,21578,21578,21578,21578,21578,21578,21578,21578,21578,21578,21578,21578,21578,21578,21578,21578,21578,21578,21286,21288,21578,
21578,21578,21286,21288,21578,21238,21478,21293,21299,21477,21240,21578,21578,21578,21578,21578,21578,21578,21578,21578,21578,21578,21578,21578,21578,21578,21578,21578,21578,21578,21578,21578,21578,21578,21578,21578,21578,21286,21288,21578,
21578,21578,21286,21477,21239,21478,21429,21335,21335,21335,21336,21578,21578,21578,21578,21578,21578,21578,21578,21578,21578,21578,21578,21578,21578,21578,21578,21578,21578,21578,22250,21578,21238,21239,21240,21578,21238,21478,21288,21578,
21578,21578,21286,21299,21671,21293,21477,21240,21578,21578,21578,21238,21240,21578,21578,21578,21578,21578,21578,21578,21578,21578,21578,21578,21578,21578,21578,21578,21578,23594,22250,21238,21478,21622,21477,21239,21478,21429,21336,21578,
21578,21578,21334,21430,21621,21670,21670,21288,21578,21578,21578,21286,21288,21578,21578,21578,21578,21578,21578,21578,21578,21578,21578,21578,21578,21578,21578,21578,21578,21578,21578,21334,21430,21287,21625,21299,21669,21288,21578,21578,
21578,21578,21578,21286,21287,21669,21672,21288,21578,21578,21578,21286,21288,21578,21578,21578,21578,21578,21578,21578,21578,21578,21578,21578,21578,21578,21578,21578,21578,21578,24266,23594,21334,21430,21429,21335,21335,21336,21578,21578,
21578,21578,21578,21334,21430,21621,21429,21336,21578,21578,21578,21286,21477,21239,21240,21578,21578,21578,21578,21578,21578,21578,21578,21578,21578,21578,21578,21578,21578,21578,21578,21578,21238,21478,21288,21578,21578,21578,21578,21578,
21578,21578,21578,21578,21286,21299,21288,21578,21578,21578,21238,21478,21287,21673,21288,21578,21578,21578,21578,21578,21578,21578,21578,21578,21578,21578,21578,21578,21578,21578,21578,21578,21286,21287,21288,21578,21578,21578,21578,21578,
21578,21578,21578,21578,21286,21623,21288,21578,21578,21578,21334,21335,21430,21624,21477,21240,21578,21578,21578,21578,21578,21578,21578,21578,21578,21578,21578,21578,21578,21578,21578,21578,21334,21335,21336,21578,21578,21578,21578,21578,
21578,21578,21578,21578,21334,21430,21288,21578,21578,21578,21578,21578,21334,21335,21335,21336,21578,21578,21578,21578,21578,21578,21578,21578,21578,21578,21578,21578,21578,21578,21578,21578,21578,21578,21578,21578,21578,21578,21578,21578,
21578,21578,21578,21578,21578,21286,21288,21578,21578,21578,21578,21578,21578,21578,21578,21578,21578,21578,21578,21578,21578,21578,21578,21578,21578,21578,21578,21578,21578,21578,21578,21578,21578,21578,21578,21578,21578,21578,21578,21578,
21578,21578,21578,21578,21578,21334,21336,21578,21578,21578,21578,21578,21578,21238,21239,21240,21578,21578,21578,21578,21578,21578,21578,21578,21578,21578,21578,21578,21578,21578,21578,21578,21578,21578,21578,21578,21578,21578,21578,21578,
21578,21578,21578,21578,21578,21578,21578,21578,21578,21578,21578,21578,21238,21478,21626,21288,21578,21578,21578,21578,21578,21578,21578,21578,21578,21578,21578,21578,21578,21578,21578,21578,21578,21578,21578,21578,21578,21578,21578,21578,
21578,21578,21578,21578,21578,21578,21578,21578,21578,21578,21578,21578,21286,21299,21429,21336,21578,21578,21578,21578,21578,21578,21578,21578,21578,21578,21578,21578,21578,21578,21578,21578,21578,21578,21578,21578,21578,21578,21578,21578,
21578,21578,21578,21578,21578,21578,21578,21578,21578,21578,21578,21578,21334,21335,21336,21578,21578,21578,21578,21578,21578,21578,21578,21578,21578,21578,21578,21578,21578,21578,21578,21578,21578,21578,21578,21578,21578,21578,21578,21578,
21578,21578,21578,21578,21578,21578,21578,21578,21578,21578,21578,21578,21578,21578,21578,21578,21578,21578,21578,21578,21578,21578,21578,21578,21578,21578,21578,21578,21578,21578,21578,21578,21578,21578,21578,21578,21578,21578,21578,21578
</data>
 </layer>
 <group id="25" name="Shadows" opacity="0.25">
  <layer id="22" name="Shadows" width="40" height="40">
   <data encoding="csv">
37914,37914,37910,37921,0,0,0,0,0,0,0,0,0,0,0,0,0,0,0,37907,37908,37908,37908,37908,37908,37908,37908,37908,37908,37908,37908,37909,0,0,0,0,0,37913,37914,37914,
37914,37910,37921,0,0,0,0,0,0,37907,37908,37908,37908,37908,37908,37908,37908,37908,37908,37917,37914,37914,37914,37914,37914,37914,37914,37914,37914,37914,37914,37916,37908,37909,0,0,0,37913,37914,37914,
37914,37915,0,0,0,37907,37908,37908,37908,37917,37914,37914,37914,37914,37914,37914,37914,37914,37914,37914,37914,37910,37920,37920,37920,37920,37920,37920,37920,37920,37911,37914,37914,37915,0,0,0,37919,37911,37914,
37914,37915,0,37907,37908,37917,37914,37914,37910,37911,37910,37920,37920,37920,37920,37920,37920,37920,37920,37920,37920,37921,0,0,0,0,0,0,0,0,37919,37920,37911,37916,37908,37908,37909,0,37919,37920,
37920,37923,37908,37917,37914,37914,37910,37920,37921,37919,37921,0,0,0,0,0,0,0,0,0,0,0,0,37907,37908,37908,37908,37908,37909,0,0,0,37919,37911,37914,37914,37916,37908,37909,0,
0,37913,37914,37914,37910,37920,37921,0,0,0,0,0,0,37907,37908,37908,37908,37908,37908,37908,37908,37908,37908,37917,37914,37914,37914,37914,37915,0,0,0,0,37919,37920,37920,37911,37914,37916,37908,
37908,37917,37910,37920,37921,0,0,0,0,0,0,0,0,37913,37914,37914,37914,37914,37914,37914,37914,37914,37914,37914,37910,37920,37920,37920,37921,0,0,0,0,0,0,0,37919,37920,37911,37914,
37914,37914,37915,0,0,0,0,0,0,37907,37908,37908,37908,37917,37910,37920,37920,37920,37920,37920,37920,37920,37920,37920,37921,0,0,0,0,0,0,0,0,0,0,0,0,0,37919,37911,
37914,37910,37921,0,0,0,0,37907,37908,37917,37914,37914,37914,37914,37915,0,0,0,0,0,0,0,0,0,0,0,0,0,37907,37908,37908,37908,37909,0,0,0,0,0,0,37919,
37920,37921,0,0,0,0,37907,37917,37914,37914,37910,37920,37920,37920,37921,0,0,0,0,0,0,0,0,0,0,0,0,0,37913,37914,37914,37914,37916,37909,0,0,0,0,0,0,
0,0,0,0,37907,37908,37917,37914,37910,37920,37921,0,0,0,0,0,0,0,0,0,0,0,0,0,0,0,0,0,37919,37920,37920,37911,37914,37916,37909,0,0,0,0,0,
0,37907,37908,37908,37917,37914,37914,37914,37915,0,0,0,0,0,0,0,0,0,0,0,0,0,0,0,0,0,0,0,0,0,0,37919,37911,37914,37916,37908,37908,37908,37909,0,
0,37913,37914,37914,37914,37914,37914,37914,37916,37908,37908,37909,0,0,0,0,0,0,0,0,0,0,0,0,0,0,0,0,0,0,0,0,37919,37911,37914,37914,37914,37914,37915,0,
0,37913,37914,37910,37920,37920,37911,37914,37914,37914,37910,37921,0,0,0,0,0,0,0,0,0,0,0,0,0,0,0,0,0,0,0,0,0,37919,37920,37920,37920,37911,37915,0,
0,37913,37910,37923,37909,37907,37917,37910,37920,37920,37921,0,0,0,0,0,0,0,0,0,0,0,0,0,0,0,0,0,0,0,0,0,0,0,0,0,0,37913,37915,0,
0,37913,37915,37913,37916,37917,37914,37916,37909,0,0,0,0,0,0,0,0,0,0,0,0,0,0,0,0,0,0,0,0,37907,37908,37908,37908,37908,37908,37908,37908,37917,37915,0,
0,37913,37915,37919,37911,37914,37914,37914,37915,0,0,0,0,0,0,0,0,0,0,0,0,0,0,0,0,0,0,0,0,37913,37914,37914,37914,37914,37914,37914,37914,37914,37915,0,
0,37913,37915,0,37919,37911,37914,37914,37915,0,0,0,0,0,0,0,0,0,0,0,0,0,0,0,0,0,0,0,0,37919,37911,37914,37914,37914,37914,37914,37914,37914,37915,0,
0,37913,37915,0,0,37919,37920,37920,37921,0,0,0,0,0,0,0,0,0,0,0,0,0,0,0,0,0,0,0,0,0,37919,37920,37920,37920,37920,37920,37920,37920,37921,0,
0,37913,37915,0,0,0,0,0,0,0,0,0,0,0,0,0,0,0,0,0,0,0,0,0,0,37907,37908,37908,37909,0,0,0,0,0,0,0,0,0,0,0,
0,37913,37915,0,0,0,0,0,0,0,0,0,0,0,0,0,0,0,0,0,0,0,0,0,0,37913,37914,37914,37916,37909,0,0,0,0,0,0,0,0,0,0,
0,37913,37915,0,0,0,0,0,0,0,0,0,0,0,0,0,0,0,0,0,0,0,0,0,0,37913,37914,37914,37914,37915,0,0,0,0,0,0,0,0,37907,37908,
0,37913,37916,37909,0,0,0,0,0,0,0,0,0,0,0,0,0,0,0,0,0,0,37907,37908,37908,37917,37914,37914,37910,37921,0,0,0,0,0,0,0,0,37913,37914,
0,37919,37911,37915,0,0,0,0,0,0,0,0,0,0,0,0,0,0,0,0,0,0,37913,37914,37914,37914,37914,37914,37916,37908,37908,37908,37909,0,0,0,0,0,37913,37914,
0,0,37913,37916,37909,0,0,0,0,0,0,0,0,0,0,0,0,0,0,0,0,0,37919,37920,37911,37914,37914,37914,37914,37914,37914,37910,37921,0,0,0,0,0,37919,37920,
0,0,37913,37914,37916,37908,37909,0,0,0,0,0,0,0,0,0,0,0,0,0,0,0,0,0,37913,37914,37910,37920,37920,37920,37920,37921,0,0,0,0,0,0,0,0,
0,0,37913,37914,37914,37914,37916,37909,0,0,0,0,0,0,0,0,0,0,0,0,0,0,0,0,37919,37920,37921,0,0,0,0,0,0,0,0,0,0,0,0,0,
0,0,37913,37914,37914,37914,37914,37915,0,0,0,0,0,0,0,0,0,0,0,0,0,0,0,0,0,0,0,0,0,0,0,0,0,0,0,0,0,0,0,0,
0,0,37919,37911,37914,37914,37914,37915,0,0,0,37907,37908,37909,0,0,0,0,0,0,0,0,0,0,0,0,0,0,0,0,0,0,0,0,0,0,0,0,0,0,
0,0,0,37913,37914,37914,37914,37916,37909,0,0,37913,37914,37915,0,0,0,0,0,0,0,0,0,0,0,0,0,0,0,0,0,0,0,0,0,0,0,0,0,0,
0,0,0,37919,37911,37910,37920,37911,37916,37908,37908,37917,37914,37916,37909,0,0,0,0,0,0,0,0,0,0,0,0,0,0,0,0,0,0,0,0,0,0,0,0,0,
0,0,0,0,37913,37915,37907,37917,37914,37914,37914,37914,37914,37914,37915,0,0,0,0,0,0,0,0,0,0,0,0,0,0,0,0,0,0,0,0,0,0,0,0,0,
0,37907,37909,0,37913,37915,37919,37911,37914,37914,37914,37914,37914,37914,37915,0,0,0,0,0,0,0,0,0,0,0,0,0,0,0,0,0,0,0,0,0,0,0,0,0,
0,37913,37915,0,37919,37923,37909,37919,37920,37920,37920,37920,37920,37920,37921,0,0,0,0,0,0,0,0,0,0,0,0,0,0,0,0,0,0,0,0,0,0,0,0,0,
0,37913,37915,0,0,37913,37915,0,0,0,0,0,0,0,0,0,0,0,0,0,0,0,0,0,0,0,0,0,0,0,0,0,0,0,0,0,0,0,0,0,
0,37919,37923,37909,0,37913,37915,0,0,0,0,0,0,0,0,0,0,0,0,0,0,0,0,0,0,0,0,0,0,0,0,0,0,0,0,0,0,0,0,0,
0,0,37913,37915,0,37919,37921,0,0,37907,37909,0,0,0,0,0,0,0,0,0,0,0,0,0,0,0,0,0,0,0,0,0,0,0,0,0,0,0,0,0,
0,0,37913,37915,0,0,0,0,0,37919,37921,0,37907,37909,0,0,0,0,0,0,0,0,0,0,0,0,0,0,0,0,0,0,0,0,0,0,0,0,0,0,
0,0,37919,37923,37909,0,0,0,0,0,0,0,37919,37921,0,0,37907,37909,0,0,0,0,0,0,0,0,0,0,0,0,0,0,0,0,0,0,0,0,0,0,
0,0,0,37913,37915,0,0,0,0,0,0,0,0,0,0,0,37913,37915,0,0,0,0,0,0,0,0,0,0,0,0,0,0,0,0,0,0,0,0,0,0
</data>
  </layer>
  <objectgroup id="23" name="Shadow Objects">
   <object id="250" gid="71015" x="280.667" y="597.333" width="20" height="20"/>
   <object id="251" gid="71015" x="394.667" y="630" width="20" height="20"/>
   <object id="252" gid="71015" x="321.333" y="600" width="20" height="20"/>
   <object id="253" gid="71015" x="384.667" y="600" width="20" height="20"/>
   <object id="254" gid="71027" x="528.667" y="481.333" width="44" height="44"/>
   <object id="255" gid="71052" x="579.333" y="467.333" width="16" height="32"/>
   <object id="256" gid="71065" x="347.333" y="272.667" width="48" height="24"/>
   <object id="257" gid="71030" x="266" y="430.667" width="56" height="56"/>
   <object id="258" gid="71030" x="196.724" y="340.688" width="56" height="56"/>
   <object id="259" gid="71030" x="254.667" y="286.667" width="56" height="56"/>
   <object id="260" gid="71023" x="235.674" y="303.651" width="36" height="36"/>
   <object id="262" gid="71030" x="385.333" y="314.667" width="56" height="56"/>
   <object id="263" gid="71027" x="40.6667" y="344" width="44" height="44"/>
   <object id="265" gid="71027" x="162.667" y="372.667" width="44" height="44"/>
   <object id="266" gid="71027" x="440" y="196.667" width="44" height="44"/>
   <object id="267" gid="71020" x="426.667" y="132.667" width="32" height="32"/>
   <object id="268" gid="71056" x="496" y="490" width="32" height="16"/>
   <object id="269" gid="71015" x="423.333" y="639.333" width="20" height="20"/>
   <object id="270" gid="71016" x="282.667" y="626" width="24" height="24"/>
   <object id="272" gid="71023" x="210.667" y="612.667" width="36" height="36"/>
   <object id="273" gid="71015" x="114.667" y="621.333" width="20" height="20"/>
   <object id="274" gid="71012" x="125.333" y="607.333" width="16" height="16"/>
   <object id="275" gid="71015" x="0.666667" y="428.667" width="20" height="20"/>
   <object id="276" gid="71019" x="12.6667" y="417.333" width="28" height="28"/>
   <object id="277" gid="71031" x="-24.6667" y="266.667" width="52" height="52"/>
   <object id="278" gid="71031" x="-33.3333" y="199.333" width="52" height="52"/>
   <object id="279" gid="71019" x="467.333" y="101.333" width="28" height="28"/>
   <object id="280" gid="71015" x="596" y="122" width="20" height="20"/>
   <object id="282" gid="71015" x="626" y="218.667" width="20" height="20"/>
   <object id="283" gid="71012" x="628.667" y="257.333" width="16" height="16"/>
   <object id="284" gid="71015" x="560" y="508.667" width="20" height="20"/>
   <object id="285" gid="71056" x="580" y="492" width="32" height="16"/>
   <object id="286" gid="71019" x="520.667" y="560" width="28" height="28"/>
   <object id="287" gid="71023" x="468.667" y="605.333" width="36" height="36"/>
   <object id="288" gid="71012" x="563.333" y="139.333" width="16" height="16"/>
   <object id="338" gid="71019" x="5.33333" y="506.333" width="28" height="28"/>
   <object id="342" gid="71019" x="299.333" y="648" width="28" height="28"/>
   <object id="356" gid="71056" x="254.333" y="512" width="32" height="16"/>
   <object id="357" gid="71014" x="244" y="381.667" width="24" height="24"/>
   <object id="358" gid="71083" x="280.667" y="461.333" width="52" height="28"/>
   <object id="359" gid="71012" x="318.727" y="474.182" width="16" height="16"/>
   <object id="360" gid="71027" x="314.667" y="339" width="44" height="44"/>
   <object id="361" gid="71020" x="360.333" y="326" width="32" height="32"/>
   <object id="362" gid="71056" x="355.667" y="343.667" width="32" height="16"/>
   <object id="363" gid="71012" x="346" y="362.333" width="16" height="16"/>
   <object id="364" gid="71016" x="295.333" y="347.667" width="24" height="24"/>
   <object id="366" gid="71020" x="270" y="331" width="32" height="32"/>
  </objectgroup>
 </group>
 <layer id="2" name="RockSlopesSand" width="40" height="40" visible="0">
  <data encoding="csv">
26805,26805,26805,26805,26805,26805,26805,26805,26805,26805,26805,26805,26805,26805,26805,26805,26805,26805,26805,26805,26805,26805,26805,26805,26805,26805,26805,26805,26805,26805,26805,26805,26805,26805,26805,26805,26805,26805,26805,26805,
26805,26805,26805,26805,26805,26805,26805,26805,26805,26805,26805,26805,26805,26805,26805,26805,26805,26805,26805,26805,26805,26805,26807,26807,26807,26807,26807,26807,26807,26807,26805,26805,26805,26805,26805,26805,26805,26805,26805,26805,
26805,26805,26805,26805,26805,26805,26805,26805,26805,26805,26805,26805,26807,26807,26807,26807,26807,26807,26807,26807,26807,26807,26807,26806,26806,26806,26806,26806,26806,26807,26805,26805,26805,26805,26805,26805,26805,26805,26805,26805,
26805,26805,26805,26805,26805,26805,26805,26805,26805,26805,26805,26805,26807,26806,26806,26806,26806,26806,26806,26806,26806,26806,26806,26806,26806,26806,26806,26806,26806,26807,26805,26805,26805,26805,26805,26805,26805,26805,26805,26805,
26805,26805,26805,26805,26805,26805,26805,26805,26807,26807,26807,26807,26807,26806,26806,26806,26806,26806,26806,26806,26806,26806,26806,26806,26806,26806,26806,26806,26806,26807,26805,26805,26805,26805,26805,26805,26805,26805,26805,26805,
26805,26805,26805,26805,26805,26805,26807,26807,26807,26806,26806,26806,26806,26806,26806,26806,26806,26806,26806,26806,26806,26806,26806,26806,26805,26805,26805,26805,26806,26807,26807,26807,26807,26805,26805,26805,26805,26805,26805,26805,
26805,26805,26805,26805,26805,26805,26807,26806,26806,26806,26806,26806,26806,26806,26805,26805,26805,26805,26805,26805,26805,26805,26805,26805,26805,26805,26805,26805,26806,26806,26806,26806,26807,26807,26807,26805,26805,26805,26805,26805,
26805,26805,26805,26807,26807,26807,26807,26806,26806,26806,26806,26806,26806,26806,26805,26805,26805,26805,26805,26805,26805,26805,26805,26805,26805,26805,26805,26805,26806,26806,26806,26806,26806,26806,26807,26805,26805,26805,26805,26805,
26807,26807,26807,26807,26806,26806,26806,26806,26806,26806,26805,26805,26805,26805,26805,26805,26805,26805,26805,26805,26805,26805,26805,26805,26805,26805,26805,26805,26806,26806,26806,26806,26806,26806,26807,26807,26807,26807,26807,26807,
26807,26806,26806,26806,26806,26806,26806,26806,26805,26805,26805,26805,26805,26805,26805,26805,26805,26805,26805,26805,26805,26805,26805,26805,26805,26805,26805,26805,26805,26805,26805,26806,26806,26806,26806,26806,26806,26806,26806,26807,
26807,26806,26806,26806,26806,26806,26806,26806,26805,26805,26805,26805,26805,26805,26805,26805,26805,26805,26805,26805,26805,26805,26805,26805,26805,26805,26805,26805,26805,26805,26805,26805,26805,26806,26806,26806,26806,26806,26806,26807,
26807,26806,26806,26806,26806,26805,26805,26805,26805,26805,26805,26805,26805,26805,26805,26805,26805,26805,26805,26805,26805,26805,26805,26805,26805,26805,26805,26805,26805,26805,26805,26805,26805,26806,26806,26806,26806,26806,26806,26807,
26807,26806,26805,26805,26805,26805,26805,26805,26805,26805,26805,26805,26805,26805,26805,26805,26805,26805,26805,26805,26805,26805,26805,26805,26805,26805,26805,26805,26805,26805,26805,26805,26805,26805,26805,26805,26805,26805,26806,26807,
26807,26806,26805,26805,26805,26805,26805,26805,26805,26805,26805,26805,26805,26805,26805,26805,26805,26805,26805,26805,26805,26805,26805,26805,26805,26805,26805,26805,26805,26805,26805,26805,26805,26805,26805,26805,26805,26805,26806,26807,
26807,26806,26805,26805,26805,26805,26805,26805,26805,26805,26805,26805,26805,26805,26805,26805,26805,26805,26805,26805,26805,26805,26805,26805,26805,26805,26805,26805,26805,26805,26805,26805,26805,26805,26805,26805,26805,26805,26806,26807,
26807,26806,26805,26805,26805,26805,26805,26805,26805,26805,26805,26805,26805,26805,26805,26805,26805,26805,26805,26805,26805,26805,26805,26805,26805,26805,26805,26805,26805,26805,26805,26805,26805,26805,26805,26805,26805,26805,26806,26807,
26807,26806,26805,26805,26805,26805,26805,26805,26805,26805,26805,26805,26805,26805,26805,26805,26805,26805,26805,26805,26805,26805,26805,26805,26805,26805,26805,26805,26805,26805,26805,26805,26805,26805,26805,26805,26805,26805,26806,26807,
26807,26806,26805,26805,26805,26805,26805,26805,26805,26805,26805,26805,26805,26805,26805,26805,26805,26805,26805,26805,26805,26805,26805,26805,26805,26805,26805,26805,26805,26805,26805,26805,26805,26805,26805,26805,26805,26805,26806,26807,
26807,26806,26805,26805,26805,26805,26805,26805,26805,26805,26805,26805,26805,26805,26805,26805,26805,26805,26805,26805,26805,26805,26805,26805,26805,26805,26805,26805,26805,26805,26805,26805,26805,26805,26805,26805,26805,26805,26806,26807,
26807,26806,26805,26805,26805,26805,26805,26805,26805,26805,26805,26805,26805,26805,26805,26805,26805,26805,26805,26805,26805,26805,26805,26805,26805,26805,26805,26805,26805,26805,26805,26805,26805,26805,26805,26805,26805,26805,26806,26807,
26807,26806,26805,26805,26805,26805,26805,26805,26805,26805,26805,26805,26805,26805,26805,26805,26805,26805,26805,26805,26805,26805,26805,26805,26805,26805,26805,26805,26805,26805,26805,26805,26805,26805,26805,26805,26805,26805,26806,26807,
26807,26806,26805,26805,26805,26805,26805,26805,26805,26805,26805,26805,26805,26805,26805,26805,26805,26805,26805,26805,26805,26805,26805,26805,26805,26805,26805,26805,26805,26805,26805,26805,26805,26805,26805,26805,26805,26805,26806,26807,
26807,26806,26805,26805,26805,26805,26805,26805,26805,26805,26805,26805,26805,26805,26805,26805,26805,26805,26805,26805,26805,26805,26805,26805,26805,26805,26805,26805,26805,26805,26805,26805,26805,26805,26805,26805,26805,26805,26806,26807,
26807,26806,26806,26805,26805,26805,26805,26805,26805,26805,26805,26805,26805,26805,26805,26805,26805,26805,26805,26805,26805,26805,26805,26805,26805,26805,26805,26805,26805,26805,26805,26805,26805,26805,26805,26805,26805,26805,26806,26807,
26807,26807,26806,26805,26805,26805,26805,26805,26805,26805,26805,26805,26805,26805,26805,26805,26805,26805,26805,26805,26805,26805,26805,26805,26805,26805,26805,26805,26805,26805,26805,26805,26805,26805,26805,26805,26805,26805,26806,26807,
26805,26807,26806,26805,26805,26805,26805,26805,26805,26805,26805,26805,26805,26805,26805,26805,26805,26805,26805,26805,26805,26805,26805,26805,26805,26805,26805,26805,26805,26805,26805,26805,26805,26805,26805,26805,26805,26805,26806,26807,
26805,26807,26806,26805,26805,26805,26805,26805,26805,26805,26805,26805,26805,26805,26805,26805,26805,26805,26805,26805,26805,26805,26805,26805,26805,26805,26805,26805,26805,26805,26805,26805,26805,26805,26805,26805,26805,26805,26806,26807,
26805,26807,26806,26805,26805,26805,26805,26805,26805,26805,26805,26805,26805,26805,26805,26805,26805,26805,26805,26805,26805,26805,26805,26805,26805,26805,26805,26805,26805,26805,26805,26805,26805,26805,26805,26805,26805,26806,26806,26807,
26805,26807,26806,26806,26805,26805,26805,26805,26805,26805,26805,26805,26805,26805,26805,26805,26805,26805,26805,26805,26805,26805,26805,26805,26805,26805,26805,26805,26805,26805,26805,26805,26805,26805,26805,26805,26805,26806,26807,26807,
26805,26807,26807,26806,26805,26805,26805,26805,26805,26805,26805,26805,26805,26805,26805,26805,26805,26805,26805,26805,26805,26805,26805,26805,26805,26805,26805,26805,26805,26805,26805,26805,26805,26805,26805,26806,26806,26806,26807,26805,
26805,26805,26807,26806,26806,26805,26805,26805,26805,26805,26805,26805,26805,26805,26805,26805,26805,26805,26805,26805,26805,26805,26805,26805,26805,26805,26805,26805,26805,26805,26805,26805,26805,26805,26806,26806,26807,26807,26807,26805,
26805,26805,26807,26807,26806,26805,26805,26805,26805,26805,26805,26805,26805,26805,26805,26805,26805,26805,26805,26805,26805,26805,26805,26805,26805,26805,26805,26805,26805,26805,26805,26805,26805,26805,26806,26807,26807,26805,26805,26805,
26806,26806,26805,26807,26806,26805,26805,26805,26805,26805,26805,26805,26805,26805,26805,26805,26805,26805,26805,26805,26805,26805,26805,26805,26805,26805,26805,26805,26805,26805,26806,26806,26806,26806,26806,26807,26805,26805,26806,26806,
26807,26806,26805,26807,26806,26806,26805,26805,26805,26805,26805,26805,26805,26805,26805,26805,26805,26805,26805,26805,26805,26805,26805,26805,26805,26805,26805,26805,26805,26805,26806,26807,26807,26807,26807,26807,26805,26806,26806,26807,
26807,26806,26805,26807,26807,26806,26805,26805,26805,26805,26805,26805,26805,26805,26805,26805,26805,26805,26805,26805,26805,26805,26805,26805,26805,26805,26805,26805,26805,26806,26806,26807,26805,26805,26805,26805,26805,26806,26807,26807,
26807,26806,26806,26805,26807,26806,26805,26805,26805,26805,26805,26805,26805,26805,26805,26805,26805,26805,26805,26805,26805,26805,26805,26805,26805,26805,26805,26805,26806,26806,26807,26807,26805,26805,26805,26806,26806,26806,26807,26805,
26807,26807,26806,26805,26807,26806,26806,26806,26806,26806,26805,26805,26805,26805,26805,26805,26805,26805,26805,26805,26805,26805,26805,26805,26805,26805,26805,26805,26806,26807,26807,26805,26805,26806,26806,26806,26807,26807,26807,26805,
26805,26807,26806,26805,26807,26807,26807,26807,26807,26806,26806,26806,26806,26805,26805,26805,26805,26805,26805,26805,26805,26805,26805,26805,26805,26805,26805,26805,26806,26807,26805,26806,26806,26806,26807,26807,26807,26805,26805,26805,
26805,26807,26806,26806,26805,26805,26805,26805,26807,26807,26807,26807,26806,26806,26806,26806,26806,26805,26805,26805,26805,26805,26805,26805,26805,26805,26805,26805,26806,26807,26805,26806,26807,26807,26807,26805,26805,26805,26805,26805,
26805,26807,26807,26806,26805,26805,26805,26805,26805,26805,26805,26807,26807,26807,26807,26807,26806,26805,26805,26805,26805,26805,26805,26805,26805,26805,26805,26805,26806,26807,26805,26806,26807,26805,26805,26805,26805,26805,26805,26805
</data>
 </layer>
 <layer id="15" name="RockSlopesSand_Auto" width="40" height="40">
  <data encoding="csv">
0,0,0,0,0,0,0,0,0,0,0,0,0,0,0,0,0,0,0,0,0,0,0,0,0,0,0,0,0,0,0,0,0,0,0,0,0,0,0,0,
0,0,0,0,0,0,0,0,0,0,0,0,0,0,0,0,0,0,0,0,0,0,0,0,0,0,0,0,0,0,0,0,0,0,0,0,0,0,0,0,
0,0,0,0,0,0,0,0,0,0,0,0,0,0,0,0,0,0,0,0,0,0,0,28564,28795,28535,32891,28535,28792,0,0,0,0,0,0,0,0,0,0,0,
0,0,0,0,0,0,0,0,0,0,0,0,0,28498,28535,32890,28796,32892,28794,28798,28799,28800,32890,28628,28859,28599,32955,28599,28856,0,0,0,0,0,0,0,0,0,0,0,
0,0,0,0,0,0,0,0,0,0,0,0,0,28562,28599,32954,28860,32956,28858,28862,28863,28864,32954,28692,28923,28663,33019,28663,28920,0,0,0,0,0,0,0,0,0,0,0,
0,0,0,0,0,0,0,0,0,28564,28794,32891,28795,28626,28663,33018,28924,33020,28922,28926,28927,28928,33018,28756,0,0,0,0,26934,0,0,0,0,0,0,0,0,0,0,0,
0,0,0,0,0,0,0,28498,28535,28628,28858,32955,28859,28690,0,0,0,0,0,0,0,0,0,0,0,0,0,0,28534,28535,28796,28554,0,0,0,0,0,0,0,0,
0,0,0,0,0,0,0,28562,28599,28692,28922,33019,28923,28754,0,0,0,0,0,0,0,0,0,0,0,0,0,0,28598,28599,28860,28618,32892,28492,0,0,0,0,0,0,
0,0,0,0,28564,28535,28535,28626,28663,28756,0,0,0,0,0,0,0,0,0,0,0,0,0,0,0,0,0,0,28662,28663,28924,28682,32956,28556,0,0,0,0,0,0,
0,28790,32891,28535,28628,28599,28599,28690,0,0,0,0,0,0,0,0,0,0,0,0,0,0,0,0,0,0,0,0,0,0,0,28746,33020,28620,28535,28535,28535,28535,28792,0,
0,28854,32955,28599,28692,28663,28663,28754,0,0,0,0,0,0,0,0,0,0,0,0,0,0,0,0,0,0,0,0,0,0,0,0,0,28684,28599,28599,28599,28599,28856,0,
0,28918,33019,28663,28756,0,0,0,0,0,0,0,0,0,0,0,0,0,0,0,0,0,0,0,0,0,0,0,0,0,0,0,0,28748,28663,28663,28663,28663,28920,0,
0,26936,0,0,0,0,0,0,0,0,0,0,0,0,0,0,0,0,0,0,0,0,0,0,0,0,0,0,0,0,0,0,0,0,0,0,0,0,26934,0,
0,26936,0,0,0,0,0,0,0,0,0,0,0,0,0,0,0,0,0,0,0,0,0,0,0,0,0,0,0,0,0,0,0,0,0,0,0,0,26934,0,
0,26936,0,0,0,0,0,0,0,0,0,0,0,0,0,0,0,0,0,0,0,0,0,0,0,0,0,0,0,0,0,0,0,0,0,0,0,0,26934,0,
0,26936,0,0,0,0,0,0,0,0,0,0,0,0,0,0,0,0,0,0,0,0,0,0,0,0,0,0,0,0,0,0,0,0,0,0,0,0,26934,0,
0,26936,0,0,0,0,0,0,0,0,0,0,0,0,0,0,0,0,0,0,0,0,0,0,0,0,0,0,0,0,0,0,0,0,0,0,0,0,26934,0,
0,26936,0,0,0,0,0,0,0,0,0,0,0,0,0,0,0,0,0,0,0,0,0,0,0,0,0,0,0,0,0,0,0,0,0,0,0,0,26934,0,
0,26936,0,0,0,0,0,0,0,0,0,0,0,0,0,0,0,0,0,0,0,0,0,0,0,0,0,0,0,0,0,0,0,0,0,0,0,0,26934,0,
0,26936,0,0,0,0,0,0,0,0,0,0,0,0,0,0,0,0,0,0,0,0,0,0,0,0,0,0,0,0,0,0,0,0,0,0,0,0,26934,0,
0,26936,0,0,0,0,0,0,0,0,0,0,0,0,0,0,0,0,0,0,0,0,0,0,0,0,0,0,0,0,0,0,0,0,0,0,0,0,26934,0,
0,26936,0,0,0,0,0,0,0,0,0,0,0,0,0,0,0,0,0,0,0,0,0,0,0,0,0,0,0,0,0,0,0,0,0,0,0,0,26934,0,
0,26936,0,0,0,0,0,0,0,0,0,0,0,0,0,0,0,0,0,0,0,0,0,0,0,0,0,0,0,0,0,0,0,0,0,0,0,0,26934,0,
0,27190,26872,0,0,0,0,0,0,0,0,0,0,0,0,0,0,0,0,0,0,0,0,0,0,0,0,0,0,0,0,0,0,0,0,0,0,0,26934,0,
0,0,26936,0,0,0,0,0,0,0,0,0,0,0,0,0,0,0,0,0,0,0,0,0,0,0,0,0,0,0,0,0,0,0,0,0,0,0,26934,0,
0,0,26936,0,0,0,0,0,0,0,0,0,0,0,0,0,0,0,0,0,0,0,0,0,0,0,0,0,0,0,0,0,0,0,0,0,0,0,26934,0,
0,0,26936,0,0,0,0,0,0,0,0,0,0,0,0,0,0,0,0,0,0,0,0,0,0,0,0,0,0,0,0,0,0,0,0,0,0,0,26934,0,
0,0,26936,0,0,0,0,0,0,0,0,0,0,0,0,0,0,0,0,0,0,0,0,0,0,0,0,0,0,0,0,0,0,0,0,0,0,26870,27192,0,
0,0,27190,26872,0,0,0,0,0,0,0,0,0,0,0,0,0,0,0,0,0,0,0,0,0,0,0,0,0,0,0,0,0,0,0,0,0,26934,0,0,
0,0,0,26936,0,0,0,0,0,0,0,0,0,0,0,0,0,0,0,0,0,0,0,0,0,0,0,0,0,0,0,0,0,0,0,26870,26871,27192,0,0,
0,0,0,27190,26872,0,0,0,0,0,0,0,0,0,0,0,0,0,0,0,0,0,0,0,0,0,0,0,0,0,0,0,0,0,26870,27192,0,0,0,0,
0,0,0,0,26936,0,0,0,0,0,0,0,0,0,0,0,0,0,0,0,0,0,0,0,0,0,0,0,0,0,0,0,0,0,26934,0,0,0,0,0,
26871,26872,0,0,26936,0,0,0,0,0,0,0,0,0,0,0,0,0,0,0,0,0,0,0,0,0,0,0,0,0,26870,26871,26871,26871,27192,0,0,0,26870,26871,
0,26936,0,0,27190,26872,0,0,0,0,0,0,0,0,0,0,0,0,0,0,0,0,0,0,0,0,0,0,0,0,26934,0,0,0,0,0,0,26870,27192,0,
0,26936,0,0,0,26936,0,0,0,0,0,0,0,0,0,0,0,0,0,0,0,0,0,0,0,0,0,0,0,26870,27192,0,0,0,0,0,0,26934,0,0,
0,27190,26872,0,0,26936,0,0,0,0,0,0,0,0,0,0,0,0,0,0,0,0,0,0,0,0,0,0,26870,27192,0,0,0,0,0,26870,26871,27192,0,0,
0,0,26936,0,0,27190,26871,26871,26871,26872,0,0,0,0,0,0,0,0,0,0,0,0,0,0,0,0,0,0,26934,0,0,0,0,26870,26871,27192,0,0,0,0,
0,0,26936,0,0,0,0,0,0,27190,26871,26871,26872,0,0,0,0,0,0,0,0,0,0,0,0,0,0,0,26934,0,0,26870,26871,27192,0,0,0,0,0,0,
0,0,27190,26872,0,0,0,0,0,0,0,0,27190,26871,26871,26871,26872,0,0,0,0,0,0,0,0,0,0,0,26934,0,0,26934,0,0,0,0,0,0,0,0,
0,0,0,26936,0,0,0,0,0,0,0,0,0,0,0,0,26936,0,0,0,0,0,0,0,0,0,0,0,26934,0,0,26934,0,0,0,0,0,0,0,0
</data>
 </layer>
 <layer id="13" name="Rock slopes manual" width="40" height="40">
  <data encoding="csv">
0,0,0,0,0,28564,32891,28795,32892,28628,28599,28599,32955,28858,28860,28599,28858,32695,28859,28599,28692,28663,28663,28663,28922,28663,32759,28922,28663,28663,28663,28682,32956,28556,0,0,0,0,0,0,
0,0,0,28564,28794,28628,32955,28859,32956,28692,28663,28663,33019,28922,28924,28663,28922,32759,28923,28663,28756,0,0,0,0,0,0,0,0,0,0,28746,33020,28620,32892,28795,28554,0,0,0,
0,28498,28796,28628,28858,28692,33019,28923,33020,28756,0,0,0,0,0,0,0,0,0,0,0,0,0,0,0,0,0,0,0,0,0,0,0,28684,32956,28859,28618,28535,28554,0,
0,28562,28860,28692,28922,28756,0,0,0,0,0,0,0,0,0,0,0,0,0,0,0,0,0,0,0,0,0,0,0,0,0,0,0,28748,33020,28923,28682,28599,28618,28796,
28535,28626,28924,28756,0,0,0,0,0,0,0,0,0,0,0,0,0,0,0,0,0,0,0,0,0,0,0,0,0,0,0,0,0,0,0,0,28746,28663,28682,28860,
28599,28690,0,0,0,0,0,0,0,0,0,0,0,0,0,0,0,0,0,0,0,0,0,0,0,0,0,0,0,0,0,0,0,0,0,0,0,0,28746,28663,
28663,28754,0,0,0,0,0,0,0,0,0,0,0,0,0,0,0,0,0,0,0,0,0,0,0,0,0,0,0,0,0,0,0,0,0,0,0,0,0,0,
0,0,0,0,0,0,0,0,0,0,0,0,0,0,0,0,0,0,0,0,0,0,0,0,0,0,0,0,0,0,0,0,0,0,0,0,0,0,0,0,
0,0,0,0,0,0,0,0,0,0,0,0,0,0,0,0,0,0,0,0,0,0,0,0,0,0,0,0,0,0,0,0,0,0,0,0,0,0,0,0,
0,0,0,0,0,0,0,0,0,0,0,0,0,0,0,0,0,0,0,0,0,0,0,0,0,0,0,0,0,0,0,0,0,0,0,0,0,0,0,0,
0,0,0,0,0,0,0,0,0,0,0,0,0,0,0,0,0,0,0,0,0,0,0,0,0,0,0,0,0,0,0,0,0,0,0,0,0,0,0,0,
0,0,0,0,0,0,0,0,0,0,0,0,0,0,0,0,0,0,0,0,0,0,0,0,0,0,0,0,0,0,0,0,0,0,0,0,0,0,0,0,
0,0,0,0,0,0,0,0,0,0,0,0,0,0,0,0,0,0,0,0,0,0,0,0,0,0,0,0,0,0,0,0,0,0,0,0,0,0,0,0,
0,0,0,0,0,0,0,0,0,0,0,0,0,0,0,0,0,0,0,0,0,0,0,0,0,0,0,0,0,0,0,0,0,0,0,0,0,0,0,0,
0,0,0,0,0,0,0,0,0,0,0,0,0,0,0,0,0,0,0,0,0,0,0,0,0,0,0,0,0,0,0,0,0,0,0,0,0,0,0,0,
0,0,0,0,0,0,0,0,0,0,0,0,0,0,0,0,0,0,0,0,0,0,0,0,0,0,0,0,0,0,0,0,0,0,0,0,0,0,0,0,
0,0,0,0,0,0,0,0,0,0,0,0,0,0,0,0,0,0,0,0,0,0,0,0,0,0,0,0,0,0,0,0,0,0,0,0,0,0,0,0,
0,0,0,0,0,0,0,0,0,0,0,0,0,0,0,0,0,0,0,0,0,0,0,0,0,0,0,0,0,0,0,0,0,0,0,0,0,0,0,0,
0,0,0,0,0,0,0,0,0,0,0,0,0,0,0,0,0,0,0,0,0,0,0,0,0,0,0,0,0,0,0,0,0,0,0,0,0,0,0,0,
0,0,0,0,0,0,0,0,0,0,0,0,0,0,0,0,0,0,0,0,0,0,0,0,0,0,0,0,0,0,0,0,0,0,0,0,0,0,0,0,
0,0,0,0,0,0,0,0,0,0,0,0,0,0,0,0,0,0,0,0,0,0,0,0,0,0,0,0,0,0,0,0,0,0,0,0,0,0,0,0,
0,0,0,0,0,0,0,0,0,0,0,0,0,0,0,0,0,0,0,0,0,0,0,0,0,0,0,0,0,0,0,0,0,0,0,0,0,0,0,0,
0,0,0,0,0,0,0,0,0,0,0,0,0,0,0,0,0,0,0,0,0,0,0,0,0,0,0,0,0,0,0,0,0,0,0,0,0,0,0,0,
0,0,0,0,0,0,0,0,0,0,0,0,0,0,0,0,0,0,0,0,0,0,0,0,0,0,0,0,0,0,0,0,0,0,0,0,0,0,0,0,
0,0,0,0,0,0,0,0,0,0,0,0,0,0,0,0,0,0,0,0,0,0,0,0,0,0,0,0,0,0,0,0,0,0,0,0,0,0,0,0,
0,0,0,0,0,0,0,0,0,0,0,0,0,0,0,0,0,0,0,0,0,0,0,0,0,0,0,0,0,0,0,0,0,0,0,0,0,0,0,0,
0,0,0,0,0,0,0,0,0,0,0,0,0,0,0,0,0,0,0,0,0,0,0,0,0,0,0,0,0,0,0,0,0,0,0,0,0,0,0,0,
0,0,0,0,0,0,0,0,0,0,0,0,0,0,0,0,0,0,0,0,0,0,0,0,0,0,0,0,0,0,0,0,0,0,0,0,0,0,0,0,
0,0,0,0,0,0,0,0,0,0,0,0,0,0,0,0,0,0,0,0,0,0,0,0,0,0,0,0,0,0,0,0,0,0,0,0,0,0,0,0,
0,0,0,0,0,0,0,0,0,0,0,0,0,0,0,0,0,0,0,0,0,0,0,0,0,0,0,0,0,0,0,0,0,0,0,0,0,0,0,0,
0,0,0,0,0,0,0,0,0,0,0,0,0,0,0,0,0,0,0,0,0,0,0,0,0,0,0,0,0,0,0,0,0,0,0,0,0,0,0,0,
0,0,0,0,0,0,0,0,0,0,0,0,0,0,0,0,0,0,0,0,0,0,0,0,0,0,0,0,0,0,0,0,0,0,0,0,0,0,0,0,
0,0,0,0,0,0,0,0,0,0,0,0,0,0,0,0,0,0,0,0,0,0,0,0,0,0,0,0,0,0,0,0,0,0,0,0,0,0,0,0,
0,0,0,0,0,0,0,0,0,0,0,0,0,0,0,0,0,0,0,0,0,0,0,0,0,0,0,0,0,0,0,0,0,0,0,0,0,0,0,0,
0,0,0,0,0,0,0,0,0,0,0,0,0,0,0,0,0,0,0,0,0,0,0,0,0,0,0,0,0,0,0,0,0,0,0,0,0,0,0,0,
0,0,0,0,0,0,0,0,0,0,0,0,0,0,0,0,0,0,0,0,0,0,0,0,0,0,0,0,0,0,0,0,0,0,0,0,0,0,0,0,
0,0,0,0,0,0,0,0,0,0,0,0,0,0,0,0,0,0,0,0,0,0,0,0,0,0,0,0,0,0,0,0,0,0,0,0,0,0,0,0,
0,0,0,0,0,0,0,0,0,0,0,0,0,0,0,0,0,0,0,0,0,0,0,0,0,0,0,0,0,0,0,0,0,0,0,0,0,0,0,0,
0,0,0,0,0,0,0,0,0,0,0,0,0,0,0,0,0,0,0,0,0,0,0,0,0,0,0,0,0,0,0,0,0,0,0,0,0,0,0,0,
0,0,0,0,0,0,0,0,0,0,0,0,0,0,0,0,0,0,0,0,0,0,0,0,0,0,0,0,0,0,0,0,0,0,0,0,0,0,0,0
</data>
 </layer>
 <layer id="26" name="Tall Grass" width="40" height="40">
  <data encoding="csv">
0,0,0,0,0,0,0,0,0,0,0,0,0,0,0,0,0,0,0,0,0,0,0,0,0,0,0,0,0,0,0,0,0,0,0,38118,38119,38120,0,0,
0,0,0,0,0,0,0,0,0,0,0,0,0,0,0,0,0,0,0,0,0,0,0,0,37944,37946,0,0,0,0,0,0,0,0,0,0,0,0,0,0,
0,0,0,0,0,0,0,0,0,0,0,0,0,0,37944,37945,37946,0,0,37944,37946,0,0,0,0,0,0,0,0,38106,38108,0,0,0,0,0,0,0,0,0,
0,0,0,0,0,0,0,0,0,38106,38107,38108,0,0,0,0,0,0,0,0,0,0,0,0,0,0,0,0,0,38118,38120,0,0,0,0,0,0,0,0,0,
0,0,0,0,38106,38108,0,0,0,38118,38119,38120,0,0,0,0,0,0,0,0,0,0,0,0,0,0,0,0,0,0,0,38106,38108,0,0,0,0,0,0,0,
0,0,38106,38107,38145,38120,0,0,0,0,0,0,0,0,0,0,0,0,0,0,0,0,0,0,0,0,0,0,0,0,0,38118,38146,38108,38106,38107,38108,0,0,0,
0,0,38118,38119,38120,0,0,0,0,0,0,0,0,0,0,0,0,0,0,0,0,0,0,0,0,0,0,0,0,0,0,0,38118,38120,38112,38161,38114,0,0,0,
0,0,0,0,0,0,0,0,0,0,0,0,0,0,0,0,0,0,0,0,0,0,0,38106,38107,38108,0,0,0,0,0,0,0,0,38118,38119,38146,38107,38108,0,
0,0,0,0,0,0,0,0,0,0,0,0,0,0,0,0,0,0,0,0,0,0,0,38118,38119,38146,38108,0,0,0,0,0,0,0,0,0,38118,38119,38120,38106,
0,0,0,0,0,0,0,0,0,0,0,0,0,0,37926,37928,0,0,0,0,0,0,0,0,0,38118,38120,0,0,0,0,0,0,0,0,0,0,0,0,38118,
0,0,0,0,0,0,0,0,0,0,0,0,0,0,37938,37940,0,0,0,0,0,0,0,0,0,0,0,0,0,0,0,0,0,0,0,0,0,0,0,0,
0,0,0,0,0,0,0,0,0,0,0,0,0,0,0,0,0,0,0,0,0,0,0,0,0,0,0,0,0,0,0,0,0,0,0,0,0,0,0,0,
0,0,0,0,0,0,0,0,0,0,0,0,0,0,0,0,0,0,0,0,0,0,0,0,0,0,0,0,0,0,0,0,0,0,0,0,0,0,0,0,
0,0,0,0,0,0,0,0,0,0,0,0,0,0,0,0,0,0,0,0,0,0,0,0,0,0,0,0,0,0,0,0,0,0,0,0,0,0,0,0,
0,0,0,0,0,0,0,0,0,0,0,0,0,0,0,0,0,0,0,0,0,0,0,0,0,0,0,0,0,0,0,0,0,0,0,0,0,0,0,0,
0,0,0,0,0,0,0,0,0,0,0,0,0,0,0,0,0,0,0,0,0,0,0,0,0,0,0,0,0,0,0,0,0,0,0,0,0,0,0,0,
0,0,0,0,0,0,0,0,0,0,0,0,0,0,0,0,0,0,0,0,0,0,0,0,0,0,0,0,0,0,0,0,0,0,0,0,0,0,0,0,
38108,0,0,0,0,0,0,0,0,0,0,0,0,0,0,0,0,0,0,0,0,0,0,0,0,0,0,0,0,0,0,0,0,0,0,0,0,0,0,0,
38114,0,0,0,0,0,0,0,0,0,0,0,0,0,0,0,0,0,0,0,0,0,0,0,0,0,0,0,0,0,0,0,0,0,0,0,0,0,0,0,
38114,0,0,0,0,0,0,0,0,0,0,0,0,0,0,0,0,0,0,0,0,0,0,0,0,0,0,0,0,0,0,0,0,0,0,0,37926,37928,0,0,
38120,0,0,0,0,0,0,0,0,0,0,0,0,0,0,0,0,0,0,0,0,0,0,0,0,0,0,0,0,0,0,0,0,0,0,37926,37956,37934,0,0,
0,0,37926,37928,0,0,0,0,0,0,0,0,0,0,0,0,0,0,0,0,0,0,0,0,0,0,0,0,0,0,0,0,0,0,0,37932,37977,37934,0,0,
38108,0,37938,37966,37928,0,0,0,0,0,0,0,0,0,0,0,0,0,0,0,0,0,0,0,0,0,0,0,0,0,0,0,0,0,0,37938,37950,37934,0,0,
38120,0,0,37932,37955,37928,0,0,0,0,0,0,0,0,0,0,0,0,0,0,0,0,0,0,0,0,0,0,0,0,0,0,0,0,0,0,37938,37940,0,0,
0,0,0,37938,37939,37940,0,0,0,0,0,0,0,0,0,0,0,0,0,0,0,0,0,0,0,0,0,0,0,0,0,0,0,0,0,0,0,0,0,38106,
0,0,0,0,0,0,0,0,0,0,0,0,0,0,0,0,0,0,0,0,0,0,0,0,0,0,0,0,0,0,0,0,0,0,0,0,37926,37928,0,38112,
0,0,0,0,0,0,0,0,0,0,0,0,0,0,0,0,0,0,0,0,0,0,0,0,0,0,38106,38107,38108,0,0,0,0,0,0,0,37938,37940,0,38112,
38108,0,0,0,0,0,0,0,0,0,0,0,0,0,0,0,0,0,0,0,0,0,0,0,0,38106,38136,38157,38114,0,0,0,0,0,0,0,0,0,0,38118,
38120,0,0,0,0,0,0,0,0,0,0,0,0,0,0,0,0,0,0,0,0,0,0,0,0,38112,38113,38129,38120,0,0,0,0,0,0,0,0,0,0,0,
0,0,0,0,0,0,0,0,0,0,0,0,0,0,37926,37927,37928,0,0,0,0,0,0,0,0,38118,38119,38120,0,0,0,0,0,0,0,0,0,0,0,0,
0,0,38106,38108,0,0,0,0,0,0,0,0,0,0,37932,37949,37940,0,0,0,0,0,0,0,0,0,0,0,0,0,0,0,0,0,0,0,0,0,0,0,
0,0,38118,38120,0,0,0,0,0,0,0,0,0,0,37932,37934,0,0,0,0,0,0,0,0,0,0,0,0,0,0,0,0,0,0,0,0,38106,38108,0,0,
0,0,0,0,0,0,0,0,0,0,0,0,0,0,37938,37940,0,0,0,0,0,0,0,0,0,0,0,0,0,0,0,0,0,0,0,38106,38145,38120,0,38106,
0,0,38106,38108,0,0,0,0,0,0,0,0,0,0,0,0,0,0,0,0,0,0,0,0,0,0,0,0,0,0,0,0,0,0,38106,38136,38114,0,0,38118,
0,0,38118,38146,38108,0,37926,37927,37928,0,0,0,0,0,0,0,0,0,0,0,0,0,0,0,0,0,0,0,0,0,0,0,0,38106,38145,38119,38120,0,0,0,
0,0,0,38118,38120,0,37938,37939,37940,0,38106,38107,38108,0,0,0,0,0,0,0,0,0,0,0,0,0,0,0,0,0,0,38106,38108,38118,38120,0,0,0,0,0,
0,0,0,38106,38108,0,0,0,0,0,38118,38119,38120,0,0,38106,38108,0,0,0,0,0,0,0,0,0,0,0,0,0,0,38118,38120,0,0,0,38106,38107,38108,0,
0,0,0,38118,38120,0,0,0,0,0,0,0,0,0,0,38118,38120,0,0,0,0,0,0,0,0,0,0,0,0,0,0,0,0,0,0,38106,38136,38129,38120,0,
0,0,0,0,38106,38107,38108,0,0,0,0,0,0,0,0,0,0,0,0,0,0,0,0,0,0,0,0,0,0,38106,38108,0,0,0,0,38118,38119,38120,0,0,
0,0,0,0,38112,38153,38135,38107,38107,38107,38108,0,0,0,0,0,0,0,0,0,0,0,0,0,0,0,0,0,0,38112,38114,0,0,0,0,0,0,0,0,0
</data>
 </layer>
 <objectgroup id="7" name="Object Layer 1">
  <object id="1" gid="204" x="248.583" y="259.25" width="64" height="77"/>
  <object id="2" gid="203" x="404" y="394.167" width="47" height="63"/>
  <object id="3" gid="202" x="392.667" y="359" width="64" height="77"/>
  <object id="4" gid="201" x="225.667" y="289.333" width="47" height="63"/>
  <object id="5" gid="202" x="189.333" y="310.083" width="64" height="77"/>
  <object id="6" gid="202" x="271.333" y="410.333" width="64" height="77"/>
  <object id="7" gid="203" x="249" y="390" width="47" height="63"/>
  <object id="31" gid="189" x="564" y="461.333" width="28" height="15"/>
  <object id="32" gid="191" x="420.333" y="123.333" width="31" height="28"/>
  <object id="33" gid="190" x="130" y="181.333" width="32" height="23"/>
  <object id="34" gid="188" x="120.333" y="212" width="15" height="12"/>
  <object id="35" gid="204" x="379.333" y="285.667" width="64" height="77"/>
  <object id="36" gid="201" x="361.667" y="251.333" width="47" height="63"/>
  <object id="40" gid="201" x="51" y="474" width="47" height="63"/>
  <object id="41" gid="204" x="61.6969" y="450.091" width="64" height="77"/>
  <object id="42" gid="203" x="43.6667" y="417.333" width="47" height="63"/>
  <object id="46" gid="186" x="182.333" y="471.167" width="32" height="23"/>
  <object id="47" gid="189" x="68.333" y="482.667" width="28" height="15"/>
  <object id="48" gid="203" x="198" y="516.833" width="47" height="63"/>
  <object id="49" gid="203" x="432.333" y="174.667" width="47" height="63"/>
  <object id="50" gid="202" x="28" y="325.667" width="64" height="77"/>
  <object id="51" gid="203" x="149.667" y="356" width="47" height="63"/>
  <object id="53" gid="187" x="172.333" y="352" width="31" height="28"/>
  <object id="54" gid="187" x="268.167" y="400.833" width="31" height="28"/>
  <object id="56" gid="190" x="368" y="111.333" width="32" height="23"/>
  <object id="61" gid="239" x="615.333" y="556" width="24" height="15"/>
  <object id="70" gid="241" x="-2.33333" y="136.333" width="27" height="46"/>
  <object id="71" gid="242" x="99.6667" y="63.6667" width="27" height="29"/>
  <object id="94" gid="202" x="599.333" y="32.3333" width="64" height="77"/>
  <object id="95" gid="187" x="595" y="18.6667" width="31" height="28"/>
  <object id="96" gid="188" x="546.333" y="10" width="15" height="12"/>
  <object id="97" gid="204" x="-28" y="56.3333" width="64" height="77"/>
  <object id="98" gid="191" x="58.3333" y="13.3333" width="31" height="28"/>
  <object id="99" gid="204" x="526" y="691" width="64" height="77"/>
  <object id="100" gid="201" x="575" y="663.333" width="47" height="63"/>
  <object id="101" gid="202" x="616" y="653" width="64" height="77"/>
  <object id="102" gid="202" x="-20" y="678.333" width="64" height="77"/>
  <object id="103" gid="203" x="-25.6667" y="624" width="47" height="63"/>
  <object id="104" gid="185" x="-8.66667" y="536" width="28" height="15"/>
  <object id="109" gid="201" x="625" y="504" width="47" height="63"/>
  <object id="110" gid="201" x="-32.3333" y="182" width="47" height="63"/>
  <object id="111" gid="204" x="154" y="699.667" width="64" height="77"/>
  <object id="112" gid="204" x="612" y="375" width="64" height="77"/>
  <object id="113" gid="204" x="448" y="31" width="64" height="77"/>
  <object id="114" gid="201" x="76.3333" y="686" width="47" height="63"/>
  <object id="115" gid="204" x="-35.3333" y="239" width="64" height="77"/>
  <object id="116" gid="204" x="520" y="461" width="64" height="77"/>
  <object id="117" gid="203" x="202.333" y="595.333" width="47" height="63"/>
  <object id="118" gid="201" x="382.5" y="412.333" width="47" height="63"/>
  <object id="192" gid="67129" x="621" y="115.333" width="22" height="28"/>
  <object id="212" gid="67415" x="426" y="94" width="24" height="31"/>
  <object id="214" gid="66308" x="110.333" y="504.667" width="88" height="119"/>
  <object id="215" gid="66690" x="47" y="256.5" width="80" height="210"/>
  <object id="216" gid="66316" x="467.5" y="278" width="144" height="139"/>
  <object id="217" gid="66038" x="440" y="385.5" width="62" height="60"/>
  <object id="218" gid="67412" x="495.5" y="376" width="14" height="19"/>
  <object id="219" gid="67448" x="502" y="385.5" width="16" height="14"/>
  <object id="225" gid="67129" x="222" y="128.5" width="22" height="28"/>
  <object id="227" gid="67645" x="193" y="147" width="30" height="26"/>
  <object id="229" gid="68068" x="128.5" y="220.5" width="16" height="22"/>
  <object id="240" gid="68071" x="254" y="501.5" width="29" height="11"/>
  <object id="241" gid="67472" x="200" y="506" width="16" height="20"/>
  <object id="242" gid="67412" x="192" y="517.5" width="14" height="19"/>
  <object id="243" gid="67415" x="89" y="469.5" width="24" height="31"/>
  <object id="245" gid="68076" x="282" y="619.5" width="23" height="20"/>
  <object id="246" gid="68077" x="277" y="633" width="13" height="13"/>
  <object id="247" gid="67412" x="432" y="646.5" width="14" height="19"/>
  <object id="249" gid="68074" x="419" y="596.5" width="29" height="21"/>
  <object id="289" gid="105" x="540" y="76.3636" width="33" height="27"/>
  <object id="291" gid="106" x="469.727" y="88.2727" width="15" height="29"/>
  <object id="292" gid="113" x="566" y="134.182" width="9" height="11"/>
  <object id="293" gid="113" x="630" y="252.727" width="9" height="11"/>
  <object id="294" gid="111" x="597" y="273.636" width="14" height="11"/>
  <object id="295" gid="107" x="469.455" y="586.909" width="29" height="28"/>
  <object id="296" gid="116" x="233.364" y="645.273" width="24" height="23"/>
  <object id="297" gid="113" x="127.5" y="603.125" width="9" height="11"/>
  <object id="298" gid="108" x="51" y="411.909" width="27" height="26"/>
  <object id="299" gid="106" x="13" y="403.545" width="15" height="29"/>
  <object id="301" gid="108" x="37" y="203.364" width="27" height="26"/>
  <object id="302" gid="111" x="134.091" y="93.4545" width="14" height="11"/>
  <object id="303" gid="110" x="162.424" y="141" width="14" height="13"/>
  <object id="304" gid="107" x="161.455" y="45.6364" width="29" height="28"/>
  <object id="305" gid="112" x="285" y="38.5455" width="11" height="12"/>
  <object id="306" gid="107" x="381.25" y="94" width="29" height="28"/>
  <object id="307" gid="109" x="497.5" y="479.75" width="28" height="13"/>
  <object id="308" gid="25" x="355.75" y="335.75" width="28" height="13"/>
  <object id="309" gid="23" x="269" y="317.75" width="29" height="28"/>
  <object id="310" gid="61" x="236.75" y="115.5" width="24" height="46"/>
  <object id="311" gid="68397" x="100" y="211" width="77" height="61"/>
  <object id="312" gid="68398" x="169.667" y="132.667" width="44" height="26"/>
  <object id="313" gid="68107" x="191.667" y="57.3333" width="19" height="26"/>
  <object id="314" gid="68106" x="31.6667" y="215" width="28" height="19"/>
  <object id="315" gid="68107" x="32.6667" y="237.333" width="19" height="26"/>
  <object id="316" gid="68213" x="210.667" y="257" width="21" height="54"/>
  <object id="317" gid="68398" x="346.333" y="261.667" width="44" height="26"/>
  <object id="318" gid="68212" x="425.333" y="316.667" width="19" height="54"/>
  <object id="319" gid="68212" x="241.333" y="368.333" width="19" height="54"/>
  <object id="320" gid="57" x="364.667" y="373.667" width="24" height="23"/>
  <object id="321" gid="68106" x="580" y="485.25" width="28" height="19"/>
  <object id="322" gid="68112" x="576.5" y="454.25" width="18" height="20"/>
  <object id="323" gid="68108" x="421.75" y="107.25" width="28" height="16"/>
  <object id="326" gid="68109" x="416" y="88.75" width="12" height="14"/>
  <object id="327" gid="68111" x="461.5" y="153" width="28" height="19"/>
  <object id="328" gid="22" x="35" y="258" width="15" height="29"/>
  <object id="329" gid="68266" x="319.75" y="589.75" width="80" height="63"/>
  <object id="330" gid="68214" x="317.5" y="469.5" width="16" height="26"/>
  <object id="331" gid="68103" x="278.5" y="455.75" width="48" height="36"/>
  <object id="332" gid="68248" x="266.25" y="415" width="18" height="23"/>
  <object id="333" gid="68167" x="346.25" y="356.25" width="14" height="10"/>
  <object id="334" gid="68171" x="358.5" y="319" width="31" height="25"/>
  <object id="335" gid="68168" x="296.417" y="339.167" width="20" height="17"/>
  <object id="336" gid="240" x="-8.66667" y="416.667" width="29" height="29"/>
  <object id="337" gid="255" x="2.33333" y="494.667" width="26" height="24"/>
  <object id="339" gid="242" x="110.667" y="610.333" width="26" height="28"/>
  <object id="340" gid="259" x="297.333" y="634.333" width="26" height="29"/>
  <object id="343" gid="257" x="416" y="627.333" width="27" height="45"/>
  <object id="344" gid="240" x="514.333" y="543.667" width="29" height="29"/>
  <object id="347" gid="262" x="336.667" y="28.6667" width="16" height="29"/>
  <object id="348" gid="266" x="494.333" y="41.3333" width="29" height="28"/>
  <object id="349" gid="268" x="587" y="112" width="31" height="47"/>
  <object id="350" gid="265" x="361.667" y="382.333" width="15" height="15"/>
  <object id="351" gid="261" x="121.667" y="156.333" width="45" height="47"/>
  <object id="352" gid="271" x="175" y="359" width="13" height="19"/>
  <object id="353" gid="263" x="521.667" y="456.333" width="16" height="29"/>
  <object id="354" gid="256" x="565.333" y="288.667" width="29" height="31"/>
  <object id="355" gid="274" x="168" y="512" width="26" height="37"/>
 </objectgroup>
 <layer id="21" name="Animations" width="40" height="40">
  <data encoding="csv">
0,0,0,0,0,0,0,0,0,0,0,0,0,0,0,0,0,0,0,0,0,0,0,0,0,0,0,0,0,0,0,0,0,0,0,0,0,0,0,0,
0,0,0,0,0,0,0,0,0,0,0,0,0,0,0,0,0,0,0,0,0,0,0,0,0,0,0,0,0,0,0,0,0,0,0,0,0,68433,0,0,
0,0,0,0,0,0,0,0,0,0,0,0,0,0,0,0,0,0,0,0,0,0,0,0,0,0,0,0,0,0,0,0,0,0,0,0,0,0,0,0,
0,0,0,0,0,0,0,0,68613,0,0,0,0,0,0,0,0,0,0,0,0,0,0,0,0,0,0,0,0,0,0,0,0,0,0,0,0,0,0,0,
0,0,0,0,0,0,0,0,68643,0,0,0,0,0,0,0,0,0,0,0,0,0,0,0,0,0,0,0,0,0,0,0,0,0,0,0,0,0,0,0,
0,0,0,0,0,0,0,0,0,0,0,0,0,0,0,0,0,68733,0,0,0,0,0,0,0,0,0,0,0,0,0,0,0,0,0,0,0,0,0,0,
0,0,0,0,0,0,0,0,0,0,0,0,0,0,0,0,0,68763,0,0,0,0,0,0,0,0,0,0,0,0,0,0,0,0,0,0,0,0,0,0,
0,0,0,0,0,0,0,0,0,0,0,0,0,0,0,0,0,0,0,0,0,0,0,0,0,0,68613,0,0,0,0,0,0,0,0,0,0,0,0,0,
0,0,0,0,0,0,0,0,0,0,0,0,0,0,0,0,0,0,0,0,0,0,0,0,0,0,68643,0,0,0,0,0,0,0,0,0,0,0,0,0,
0,0,0,0,0,0,0,0,0,0,0,0,0,0,0,0,0,0,0,0,0,0,0,0,0,0,0,0,0,0,0,0,0,0,0,0,0,0,0,0,
0,0,0,0,0,0,0,0,0,0,0,0,0,0,0,0,0,0,0,0,0,0,0,0,0,0,0,0,0,0,0,0,0,0,0,0,0,0,0,0,
0,0,0,0,0,0,0,0,0,0,0,0,0,0,0,0,0,0,0,0,0,0,0,0,0,0,0,0,0,0,0,0,0,0,0,0,0,0,0,68733,
0,0,0,0,0,0,0,0,0,0,0,0,0,0,0,0,0,0,0,0,0,0,0,0,0,0,0,0,0,0,0,0,0,0,0,0,0,0,0,68763,
0,0,0,0,0,0,0,68493,0,0,0,0,0,0,0,0,0,0,0,0,0,0,0,0,0,0,0,0,0,0,0,0,0,0,0,0,0,0,0,0,
0,0,0,0,0,0,0,0,0,0,0,0,0,0,0,0,0,0,0,0,0,0,0,0,0,0,0,0,0,0,0,0,0,0,0,0,0,0,0,0,
0,0,0,0,0,0,0,0,0,0,0,0,0,0,0,0,0,0,0,0,0,0,0,0,0,0,0,0,0,0,0,0,0,0,0,0,0,0,0,0,
0,0,0,0,0,0,0,0,0,0,0,0,0,0,0,0,0,68493,0,69678,69679,69680,0,0,0,0,0,0,0,0,0,0,0,0,0,0,0,0,0,0,
0,0,0,0,0,0,0,0,0,0,0,0,0,0,0,0,0,0,0,69708,69709,69710,0,0,0,0,0,0,0,0,0,0,0,0,0,0,0,0,0,0,
0,0,0,0,0,0,0,0,0,0,0,0,0,0,0,0,0,0,0,69738,69739,69740,0,0,0,0,0,0,0,0,0,0,0,0,0,0,0,0,0,0,
0,0,0,0,0,0,0,0,0,0,0,0,0,0,0,0,0,0,0,69768,69769,69770,0,0,0,0,0,0,0,0,0,0,0,0,0,0,0,0,0,0,
0,0,0,0,0,0,0,0,0,0,0,0,0,0,0,0,0,0,0,0,0,0,0,0,0,0,0,0,0,0,0,0,0,0,0,0,0,0,0,0,
0,0,0,0,0,0,0,0,0,0,0,0,0,0,0,0,0,0,0,0,0,0,0,0,0,0,0,0,0,0,0,0,0,0,0,0,0,0,0,0,
0,0,0,0,0,0,0,0,0,0,0,0,0,0,0,0,0,0,0,0,0,0,0,0,0,0,0,0,0,0,0,0,0,0,0,0,0,0,0,0,
0,0,0,0,0,0,0,0,0,0,0,0,0,0,0,0,0,0,0,0,0,0,0,0,0,0,0,0,0,0,0,0,0,0,0,0,0,0,0,0,
0,0,0,0,0,0,0,0,0,0,0,0,0,0,0,0,0,0,0,0,0,0,0,0,68493,0,0,0,0,0,0,0,0,0,0,0,0,0,0,0,
0,0,0,0,0,0,0,0,0,0,0,0,0,0,0,0,0,0,0,0,0,0,0,0,0,0,0,0,0,0,0,0,0,0,0,0,0,0,0,0,
0,68733,0,0,0,0,0,0,0,0,0,0,0,0,0,0,0,0,0,0,0,0,0,0,0,0,0,0,0,0,0,0,0,0,0,0,0,0,0,0,
0,68763,0,0,0,0,0,0,0,0,0,0,0,0,0,0,0,0,0,0,0,0,0,0,0,0,0,0,0,0,0,0,0,0,0,0,0,0,0,0,
0,0,0,0,0,0,0,0,0,0,0,0,0,0,0,0,0,0,0,0,0,0,0,0,0,0,0,0,0,0,0,0,0,0,0,0,0,0,0,0,
0,0,0,0,0,0,0,0,0,0,0,0,0,0,0,0,0,0,0,0,0,0,0,0,0,0,0,0,0,0,0,0,0,0,0,68613,0,0,0,0,
0,0,0,0,0,0,0,0,0,0,0,0,0,0,0,0,0,0,0,0,0,0,0,0,0,0,0,0,0,0,0,0,0,0,0,68643,0,0,0,0,
0,0,0,0,0,0,0,0,0,0,0,0,0,0,0,0,0,0,0,0,0,0,0,0,0,0,0,0,0,0,0,0,0,0,0,0,0,0,0,0,
0,0,0,0,0,0,0,0,0,0,0,0,0,0,0,0,0,0,0,0,0,0,0,0,0,0,0,0,0,0,0,0,0,0,0,0,0,0,0,0,
0,0,0,0,0,0,0,0,0,0,0,0,0,0,0,0,0,70406,70407,0,0,0,0,0,0,0,0,0,0,0,0,0,0,0,0,0,0,0,0,0,
0,0,0,0,0,0,0,0,0,0,0,0,0,0,0,0,0,70422,70423,0,0,0,0,0,0,0,68733,0,0,0,0,0,0,0,0,0,0,0,0,0,
0,0,0,0,0,0,0,0,0,0,0,0,0,0,0,0,0,70438,70439,0,0,0,0,0,70406,70407,68763,0,0,0,0,0,0,0,0,0,0,0,0,0,
0,0,0,0,0,68433,0,0,0,0,0,0,0,0,0,0,0,70454,70455,0,0,0,0,0,70422,70423,0,0,0,0,0,0,0,0,0,0,0,0,0,0,
0,0,0,0,0,0,0,0,0,0,0,0,0,0,0,0,0,0,0,0,0,0,0,0,70438,70439,0,0,0,0,0,0,68493,0,0,0,0,0,0,0,
0,0,0,0,0,0,0,0,0,0,0,0,0,0,0,0,0,0,0,0,0,0,0,0,70454,70455,0,0,0,0,0,0,0,0,0,0,0,0,0,0,
0,0,0,0,0,0,0,0,0,0,0,0,0,0,0,0,0,0,0,0,0,0,0,0,0,0,0,0,0,0,0,0,0,0,0,0,0,0,0,0
</data>
 </layer>
</map>
